( pcb2gcode 1.3.2 )
( Software-independent Gcode )

G94 ( Millimeters per minute feed rate. )
G21 ( Units == Millimeters. )

G90 ( Absolute coordinates. )
S10000 ( RPM spindle speed. )
G64 P0.01000 ( set maximum deviation from commanded toolpath )
F45.00000 ( Feedrate. )

F45.00000 ( Feedrate. )
M3 ( Spindle on clockwise. )
G04 P0 ( dwell for no time -- G64 should not smooth over this point )
G00 Z2.00000 ( retract )

G00 X8.05524 Y48.60079 ( rapid move to begin. )
F22.50000
G01 Z-0.13500
G04 P0 ( dwell for no time -- G64 should not smooth over this point )
F45.00000
X8.05524 Y48.60079
X1.00072 Y48.60079
X1.00072 Y18.00903
X2.85957 Y19.09782
X4.26295 Y19.96160
X4.47433 Y20.07933
X4.82099 Y20.23887
X4.99853 Y20.29612
X6.95288 Y20.29553
X7.00526 Y20.30643
X7.03673 Y20.33559
X7.13221 Y20.56180
X7.26617 Y21.02868
X7.30767 Y21.30973
X7.31984 Y21.58372
X7.30417 Y21.85636
X7.25997 Y22.13310
X7.22878 Y22.26363
X6.93493 Y22.59624
X6.83208 Y22.68976
X6.68530 Y22.73581
X6.41075 Y22.79776
X6.14755 Y22.82929
X5.93305 Y22.83475
X5.67331 Y22.81707
X5.40519 Y22.77092
X5.03838 Y22.66403
X4.82657 Y22.69842
X4.61476 Y22.77054
X4.43745 Y22.99312
X4.30024 Y23.25583
X3.88573 Y24.25654
X3.89698 Y25.19202
X3.93074 Y25.42824
X3.98700 Y25.66446
X4.06574 Y25.90068
X4.06574 Y26.07657
X3.27217 Y28.00004
X3.18840 Y28.27718
X3.13633 Y28.67083
X3.14710 Y41.55163
X3.18576 Y41.90877
X3.33361 Y42.10349
X3.82345 Y42.61972
X4.00836 Y42.88906
X4.14730 Y43.16950
X4.56315 Y44.17351
X4.69404 Y44.45063
X4.89315 Y44.79353
X5.08517 Y45.07298
X5.28332 Y45.40658
X8.05596 Y48.06866
X8.05524 Y48.60079
G04 P0 ( dwell for no time -- G64 should not smooth over this point )
G00 Z2.00000 ( retract )

G00 X14.73727 Y48.60079 ( rapid move to begin. )
F22.50000
G01 Z-0.13500
G04 P0 ( dwell for no time -- G64 should not smooth over this point )
F45.00000
X14.73727 Y48.60079
X15.09998 Y46.42162
X15.56719 Y46.16239
X15.90356 Y46.02279
X16.21774 Y45.92896
X16.68533 Y45.85469
X16.97915 Y45.84804
X17.27301 Y45.87227
X17.57336 Y45.92896
X17.80460 Y45.99584
X20.42019 Y45.99584
X20.67074 Y46.08372
X20.90508 Y46.13940
X21.29571 Y46.17582
X38.04980 Y46.17582
X38.25498 Y46.16485
X38.53999 Y46.11844
X38.93623 Y45.99226
X40.03618 Y45.53666
X41.16501 Y44.40783
X41.29691 Y44.18990
X41.53529 Y43.85843
X41.68136 Y43.68733
X41.95784 Y43.41289
X42.40885 Y43.06709
X42.77659 Y42.85264
X43.03630 Y42.72907
X43.71245 Y42.49071
X44.32258 Y42.60291
X45.33104 Y42.59534
X45.93576 Y42.52412
X46.57203 Y42.36199
X46.97782 Y42.21396
X48.81026 Y41.45292
X49.31013 Y41.45292
X53.06389 Y39.89806
X53.69450 Y39.77606
X54.19483 Y39.60477
X54.52663 Y39.43857
X54.77659 Y39.27749
X54.99622 Y39.10162
X55.19190 Y38.90911
X55.37240 Y38.69113
X55.42647 Y38.42011
X55.45487 Y38.05095
X55.42231 Y37.62430
X55.36498 Y37.35247
X55.30572 Y37.15936
X55.30572 Y30.65706
X55.35952 Y30.32663
X55.37483 Y30.04690
X55.36163 Y29.76582
X55.30572 Y29.42330
X55.30572 Y22.91895
X55.39747 Y22.58199
X55.43996 Y22.31443
X55.45487 Y22.05095
X55.44291 Y21.78618
X55.36498 Y21.35248
X55.27438 Y21.06764
X55.05154 Y20.58870
X54.81327 Y20.21062
X54.46739 Y19.77153
X54.05942 Y19.34199
X53.60064 Y18.93310
X53.22572 Y18.63130
X53.21401 Y18.13829
X53.17070 Y17.65279
X53.15896 Y16.82401
X53.12371 Y16.46219
X53.06493 Y16.10034
X52.98266 Y15.73852
X53.67324 Y14.07134
X53.82736 Y13.64940
X53.97169 Y13.11318
X54.06414 Y12.47985
X54.08070 Y12.10381
X54.08070 Y8.49800
X54.18713 Y7.99292
X54.23219 Y7.64001
X54.25406 Y7.12264
X54.20120 Y6.43066
X54.08073 Y5.79157
X53.59813 Y4.62653
X53.49945 Y4.08315
X53.43747 Y3.85432
X53.31121 Y3.49844
X53.07994 Y3.04075
X52.83613 Y2.69854
X52.51744 Y2.37167
X52.34334 Y2.23311
X52.27766 Y2.21612
X51.99262 Y2.16649
X51.64032 Y2.14617
X51.30560 Y2.17070
X50.98731 Y2.23118
X50.70908 Y2.46788
X50.39405 Y2.82742
X50.39524 Y4.37057
X50.39791 Y4.43567
X50.43570 Y4.54624
X50.43842 Y8.16363
X50.25976 Y8.58715
X50.03845 Y8.98171
X49.71937 Y9.43274
X49.36392 Y9.84981
X48.42669 Y9.52845
X47.89834 Y8.17227
X47.89570 Y4.54624
X47.85791 Y4.43567
X47.85524 Y4.37057
X47.85313 Y2.48381
X47.64407 Y1.76626
X47.35468 Y0.65120
X57.95067 Y0.65128
X57.95067 Y48.60079
X14.73727 Y48.60079
G04 P0 ( dwell for no time -- G64 should not smooth over this point )
G00 Z2.00000 ( retract )

G00 X14.73727 Y48.60079 ( rapid move to begin. )
F22.50000
G01 Z-0.13500
G04 P0 ( dwell for no time -- G64 should not smooth over this point )
F45.00000
X14.73727 Y48.60079
X8.05527 Y48.60079
X8.05596 Y48.06866
X8.32995 Y47.54181
X8.47142 Y46.70015
X8.55232 Y45.88090
X8.57422 Y45.12754
X8.52878 Y44.38103
X8.43340 Y43.80181
X8.24483 Y43.16171
X8.08082 Y42.78939
X7.80297 Y42.33328
X7.59738 Y42.07895
X7.24115 Y41.74093
X7.01859 Y41.57769
X5.94768 Y41.62635
X5.74974 Y41.50812
X5.51273 Y41.33763
X5.22099 Y41.06730
X5.13689 Y40.80481
X5.08316 Y40.55300
X5.05208 Y40.14586
X5.07748 Y39.81579
X5.17496 Y39.39682
X5.27755 Y39.12433
X5.42365 Y38.82885
X5.62899 Y38.49997
X5.91872 Y38.12412
X6.23884 Y37.77393
X6.56520 Y37.92308
X6.82997 Y38.06542
X7.32294 Y38.39867
X7.77115 Y38.60398
X8.43000 Y38.95938
X8.70442 Y39.21561
X8.87942 Y39.34264
X9.06987 Y39.45427
X9.67419 Y39.71548
X9.77454 Y40.00637
X9.95486 Y40.41820
X10.06469 Y40.62084
X10.27096 Y40.93710
X10.49860 Y41.21723
X10.75171 Y41.46951
X11.17627 Y41.79503
X11.51411 Y41.99120
X11.90624 Y42.16745
X12.37230 Y42.32152
X12.74251 Y42.40974
X12.98150 Y42.45386
X13.01437 Y42.44639
X14.39099 Y43.01662
X14.77372 Y43.27855
X15.26501 Y43.52975
X15.56773 Y43.63676
X15.85040 Y43.70379
X16.22627 Y43.74375
X16.49071 Y43.73821
X16.76102 Y43.70379
X17.20260 Y43.58512
X17.57570 Y43.42576
X17.94882 Y43.58512
X18.23153 Y43.67004
X18.50181 Y43.72150
X18.76627 Y43.74375
X19.03071 Y43.73821
X19.30102 Y43.70379
X19.58369 Y43.63676
X19.93571 Y43.50778
X20.06924 Y42.96689
X20.11430 Y42.53930
X20.09441 Y42.16364
X20.04389 Y41.88581
X19.98679 Y41.67299
X20.03625 Y41.36621
X20.15921 Y41.05940
X20.35570 Y40.75262
X20.62570 Y40.44581
X20.81321 Y40.25833
X21.21242 Y40.54563
X21.49786 Y40.71137
X22.14572 Y40.99478
X22.38524 Y41.12077
X22.58694 Y41.28460
X22.75077 Y41.48630
X22.87675 Y41.72584
X23.50617 Y43.24537
X25.16931 Y43.93427
X25.53547 Y44.05124
X25.80174 Y44.09516
X25.99770 Y44.10582
X36.83235 Y44.10582
X37.16418 Y44.07720
X37.57759 Y43.96572
X41.34248 Y40.19250
X41.47461 Y40.01838
X41.60905 Y39.80078
X41.94311 Y39.06537
X42.11855 Y38.75730
X43.12835 Y39.18879
X43.52766 Y39.29275
X43.80653 Y39.32808
X44.07933 Y39.33362
X44.35215 Y39.31048
X44.65113 Y39.25277
X44.94305 Y39.00129
X45.13488 Y38.79014
X45.29022 Y38.58209
X45.39017 Y38.35971
X45.67211 Y38.18887
X45.88448 Y38.02349
X46.73094 Y37.19763
X46.95016 Y37.04048
X47.29182 Y36.86426
X48.93266 Y36.18455
X49.30571 Y36.21082
X51.00568 Y36.21082
X51.28013 Y36.19662
X51.55455 Y36.15397
X51.82897 Y36.08293
X52.10339 Y35.98349
X52.20283 Y35.70907
X52.27388 Y35.43464
X52.31650 Y35.16022
X52.33070 Y34.88580
X52.33070 Y33.18583
X52.31477 Y32.89520
X52.26697 Y32.60458
X52.18729 Y32.31395
X52.07570 Y32.02332
X52.07570 Y31.43686
X51.94467 Y30.95182
X51.89293 Y30.66381
X51.85122 Y30.22569
X51.85406 Y29.78962
X51.90227 Y29.34687
X52.00050 Y28.88754
X52.07570 Y28.63019
X52.07570 Y27.87751
X52.15229 Y27.62958
X52.20697 Y27.38165
X52.23976 Y27.13372
X52.25071 Y26.88579
X52.23976 Y24.93792
X52.20697 Y24.68999
X52.15229 Y24.44206
X52.07570 Y24.19413
X52.07570 Y23.18925
X51.97421 Y22.68418
X51.93125 Y22.22972
X51.93453 Y21.77742
X51.98482 Y21.31819
X52.13336 Y20.67989
X52.31563 Y20.17493
X52.49331 Y19.78941
X52.84225 Y19.17994
X53.22572 Y18.63130
X53.60064 Y18.93310
X54.05942 Y19.34199
X54.46739 Y19.77153
X54.81327 Y20.21062
X55.05154 Y20.58870
X55.27438 Y21.06764
X55.40255 Y21.51438
X55.45078 Y21.88910
X55.45230 Y22.15258
X55.42647 Y22.42012
X55.37054 Y22.69766
X55.30572 Y22.91895
X55.30572 Y29.42330
X55.36163 Y29.76582
X55.37483 Y30.04690
X55.35952 Y30.32663
X55.30572 Y30.65706
X55.30572 Y37.15936
X55.36498 Y37.35247
X55.42231 Y37.62430
X55.45487 Y38.05095
X55.42647 Y38.42011
X55.37240 Y38.69113
X55.07887 Y39.02504
X54.77659 Y39.27749
X54.37786 Y39.51871
X54.07253 Y39.65353
X53.51068 Y39.82117
X53.06389 Y39.89806
X49.31013 Y41.45292
X48.81026 Y41.45292
X46.97782 Y42.21396
X46.57203 Y42.36199
X45.93576 Y42.52412
X45.33104 Y42.59534
X44.32258 Y42.60291
X43.71245 Y42.49071
X43.03630 Y42.72907
X42.77659 Y42.85264
X42.40885 Y43.06709
X41.95784 Y43.41289
X41.68136 Y43.68733
X41.53529 Y43.85843
X41.29691 Y44.18990
X41.16501 Y44.40783
X40.03618 Y45.53666
X38.93623 Y45.99226
X38.53999 Y46.11844
X38.25498 Y46.16485
X38.04980 Y46.17582
X21.29571 Y46.17582
X20.90508 Y46.13940
X20.67074 Y46.08372
X20.42019 Y45.99584
X17.80460 Y45.99584
X17.57336 Y45.92896
X17.27301 Y45.87227
X16.97915 Y45.84804
X16.68533 Y45.85469
X16.21774 Y45.92896
X15.90356 Y46.02279
X15.56719 Y46.16239
X15.09998 Y46.42162
X14.73727 Y48.60079
G04 P0 ( dwell for no time -- G64 should not smooth over this point )
G00 Z2.00000 ( retract )

G00 X17.57570 Y42.43219 ( rapid move to begin. )
F22.50000
G01 Z-0.13500
G04 P0 ( dwell for no time -- G64 should not smooth over this point )
F45.00000
X17.57570 Y42.43219
X17.57570 Y43.42576
X17.34641 Y43.52975
X17.04369 Y43.63676
X16.76102 Y43.70379
X16.49071 Y43.73821
X16.22627 Y43.74375
X15.96181 Y43.72150
X15.56773 Y43.63676
X15.26501 Y43.52975
X14.93262 Y43.37029
X14.55729 Y43.13745
X14.39099 Y43.01662
X13.01437 Y42.44639
X12.98150 Y42.45386
X12.74251 Y42.40974
X12.18983 Y42.26747
X11.73898 Y42.09818
X11.36083 Y41.90796
X11.17627 Y41.79503
X10.87927 Y41.57845
X10.49860 Y41.21723
X10.27096 Y40.93710
X10.15453 Y40.76750
X9.87848 Y40.25808
X9.67419 Y39.71548
X10.01165 Y39.46148
X10.40091 Y39.22021
X10.74528 Y39.05519
X11.17741 Y38.89405
X11.44335 Y38.75559
X11.60545 Y38.64762
X11.67319 Y38.54574
X11.91891 Y38.33103
X13.33093 Y36.91905
X13.61388 Y36.57610
X13.65920 Y36.28537
X13.67489 Y35.94399
X13.70906 Y35.64935
X13.64482 Y35.38834
X13.60029 Y35.09350
X13.58663 Y34.80630
X13.60210 Y34.52047
X13.67990 Y34.09104
X13.85663 Y33.54359
X15.91139 Y33.54359
X16.30590 Y33.69939
X16.84423 Y33.99921
X17.27184 Y34.31019
X17.61039 Y34.60213
X17.91900 Y34.90064
X16.58906 Y35.83111
X16.07275 Y36.48900
X15.89241 Y36.94221
X15.73582 Y37.52565
X15.57128 Y38.05067
X15.48718 Y38.45034
X15.43615 Y38.96743
X15.43346 Y39.07022
X15.69452 Y39.32463
X16.04540 Y39.60479
X16.41113 Y39.84124
X16.90118 Y40.33128
X16.93097 Y40.40324
X17.16567 Y40.74962
X17.38118 Y41.14073
X17.57570 Y41.63458
X17.57570 Y42.43219
G04 P0 ( dwell for no time -- G64 should not smooth over this point )
G00 Z2.00000 ( retract )

G00 X20.11430 Y42.43234 ( rapid move to begin. )
F22.50000
G01 Z-0.13500
G04 P0 ( dwell for no time -- G64 should not smooth over this point )
F45.00000
X20.11430 Y42.43234
X20.10597 Y42.69816
X20.06924 Y42.96689
X19.93571 Y43.50778
X19.88641 Y43.52975
X19.58369 Y43.63676
X19.30102 Y43.70379
X19.03071 Y43.73821
X18.76627 Y43.74375
X18.50181 Y43.72150
X18.23153 Y43.67004
X17.94882 Y43.58512
X17.57570 Y43.42576
X17.57570 Y41.63458
X17.38118 Y41.14073
X17.16567 Y40.74962
X16.93097 Y40.40324
X16.90118 Y40.33128
X16.41113 Y39.84124
X16.04540 Y39.60479
X15.82208 Y39.43357
X15.43346 Y39.07022
X15.48718 Y38.45034
X15.57128 Y38.05067
X15.73582 Y37.52565
X15.89241 Y36.94221
X16.07275 Y36.48900
X16.58906 Y35.83111
X17.91900 Y34.90064
X18.23729 Y34.96327
X18.64080 Y35.26914
X19.08702 Y35.68044
X19.48997 Y36.13891
X19.86028 Y36.66304
X19.99401 Y36.79675
X20.45702 Y37.91455
X20.58689 Y38.27218
X20.69870 Y38.68757
X20.77597 Y39.20609
X20.81321 Y40.25833
X20.62570 Y40.44581
X20.35570 Y40.75262
X20.15921 Y41.05940
X20.03625 Y41.36621
X19.98679 Y41.67299
X20.06924 Y42.00476
X20.11430 Y42.43234
G04 P0 ( dwell for no time -- G64 should not smooth over this point )
G00 Z2.00000 ( retract )

G00 X28.39490 Y40.77753 ( rapid move to begin. )
F22.50000
G01 Z-0.13500
G04 P0 ( dwell for no time -- G64 should not smooth over this point )
F45.00000
X28.39490 Y40.77753
X28.37964 Y41.03494
X28.33742 Y41.29623
X28.17578 Y41.90105
X27.88551 Y41.99793
X27.48584 Y42.08096
X27.15112 Y42.10550
X26.79882 Y42.08518
X26.44810 Y42.01855
X26.27400 Y41.88000
X26.06920 Y41.68244
X25.78107 Y41.31957
X25.62303 Y41.05615
X25.48023 Y40.75323
X25.35399 Y40.39735
X25.24833 Y39.96898
X25.17766 Y39.48833
X24.94571 Y38.92841
X24.94571 Y38.86044
X24.84632 Y38.35730
X24.79725 Y37.71447
X24.82377 Y37.16545
X24.20063 Y35.66106
X23.97154 Y35.21981
X23.77342 Y34.94714
X23.61988 Y34.77694
X20.27158 Y31.42861
X19.35045 Y30.47057
X18.21293 Y29.33306
X18.16099 Y28.83280
X18.10006 Y28.46341
X18.19876 Y27.76842
X18.21951 Y26.95122
X18.18161 Y26.45465
X18.10006 Y25.92341
X18.19876 Y25.22842
X18.22363 Y24.57307
X18.18161 Y23.91465
X18.10006 Y23.38341
X18.19876 Y22.68842
X18.22363 Y22.03307
X18.18161 Y21.37465
X18.10006 Y20.84341
X18.19876 Y20.14842
X18.21951 Y19.33122
X18.18161 Y18.83465
X18.10006 Y18.30341
X18.11047 Y18.24583
X17.87844 Y17.39559
X17.71855 Y16.97870
X17.47501 Y16.47758
X17.20598 Y16.04174
X16.99957 Y15.76209
X16.88830 Y15.11040
X16.76320 Y14.68472
X16.61847 Y14.33248
X16.37748 Y13.90820
X16.09018 Y13.54637
X15.73915 Y13.22773
X13.15135 Y13.22638
X12.90009 Y12.89367
X12.64563 Y12.48064
X12.41536 Y12.00574
X12.18437 Y11.36398
X12.93745 Y11.10731
X14.07255 Y10.68796
X15.91886 Y10.68372
X17.05396 Y10.26436
X19.00770 Y9.58194
X19.79144 Y9.25349
X20.55588 Y8.91069
X23.47817 Y10.12113
X23.76385 Y10.68796
X24.08678 Y11.63185
X24.31145 Y12.17546
X24.59544 Y12.78592
X24.82676 Y13.22016
X25.54596 Y15.75856
X25.55285 Y17.35452
X25.57304 Y17.75167
X25.63265 Y18.29935
X25.58112 Y18.78091
X25.54873 Y19.33770
X25.55285 Y19.89452
X25.57304 Y20.29167
X25.63265 Y20.83935
X25.58112 Y21.32091
X25.54873 Y21.87770
X25.55285 Y22.43452
X25.57304 Y22.83167
X25.63265 Y23.37935
X25.58112 Y23.86091
X25.54873 Y24.41770
X25.55285 Y24.97452
X25.57304 Y25.37167
X25.63265 Y25.91935
X25.58112 Y26.40091
X25.54873 Y26.95770
X25.55285 Y27.51452
X25.57304 Y27.91167
X25.63265 Y28.45935
X25.60294 Y28.70235
X25.87251 Y29.50646
X26.02216 Y29.86864
X26.40433 Y30.64410
X26.62005 Y31.01090
X26.79714 Y31.66719
X27.05185 Y32.35637
X27.33826 Y32.94235
X27.49882 Y33.21791
X27.60146 Y33.63323
X27.73682 Y34.01583
X28.30725 Y35.39296
X28.54748 Y36.03858
X28.68744 Y36.34998
X28.69640 Y36.66929
X28.85586 Y37.15209
X29.12896 Y37.89624
X29.28276 Y38.44124
X28.84347 Y38.71810
X28.57054 Y39.02450
X28.39229 Y39.30317
X28.28098 Y39.58183
X28.23661 Y39.86049
X28.30534 Y40.08150
X28.36201 Y40.34685
X28.39490 Y40.77753
G04 P0 ( dwell for no time -- G64 should not smooth over this point )
G00 Z2.00000 ( retract )

G00 X37.70944 Y37.58338 ( rapid move to begin. )
F22.50000
G01 Z-0.13500
G04 P0 ( dwell for no time -- G64 should not smooth over this point )
F45.00000
X37.70944 Y37.58338
X37.85971 Y37.97226
X37.94137 Y38.24945
X38.06176 Y38.86022
X37.64889 Y39.34078
X37.28023 Y39.67853
X36.86725 Y39.98401
X36.55087 Y40.17761
X36.01932 Y40.44081
X35.77073 Y40.54284
X35.41856 Y40.52084
X35.04061 Y40.47578
X31.90257 Y41.77141
X31.57305 Y41.86930
X31.11032 Y41.92907
X30.96165 Y42.00639
X30.81301 Y42.06163
X30.66437 Y42.09478
X30.51570 Y42.10583
X28.81573 Y42.10583
X28.65576 Y42.09303
X28.49577 Y42.05465
X28.33577 Y41.99064
X28.17578 Y41.90105
X28.33742 Y41.29623
X28.39274 Y40.86296
X28.39056 Y40.60558
X28.36201 Y40.34685
X28.30534 Y40.08150
X28.23661 Y39.86049
X28.28098 Y39.58183
X28.39229 Y39.30317
X28.57054 Y39.02450
X28.84347 Y38.71810
X29.28276 Y38.44124
X29.12896 Y37.89624
X28.85586 Y37.15209
X28.69640 Y36.66929
X28.68744 Y36.34998
X28.54748 Y36.03858
X28.30725 Y35.39296
X27.73682 Y34.01583
X27.60146 Y33.63323
X27.49882 Y33.21791
X28.09036 Y33.23808
X28.79003 Y33.29246
X29.20054 Y33.35748
X29.76628 Y33.50163
X30.02614 Y33.53643
X30.34062 Y33.54349
X30.57450 Y33.52243
X30.83775 Y33.47361
X31.15253 Y33.38624
X31.68464 Y33.41209
X32.11153 Y33.47158
X32.44857 Y33.71125
X32.78560 Y34.01583
X33.52527 Y34.75550
X34.22047 Y34.72588
X34.64917 Y35.05118
X35.30228 Y35.31547
X35.85209 Y35.71646
X36.65816 Y36.26873
X36.91658 Y36.47800
X37.25051 Y36.83007
X37.54048 Y37.25242
X37.70944 Y37.58338
G04 P0 ( dwell for no time -- G64 should not smooth over this point )
G00 Z2.00000 ( retract )

G00 X42.05365 Y38.15600 ( rapid move to begin. )
F22.50000
G01 Z-0.13500
G04 P0 ( dwell for no time -- G64 should not smooth over this point )
F45.00000
X42.05365 Y38.15600
X42.11855 Y38.75730
X41.94311 Y39.06537
X41.60905 Y39.80078
X41.41240 Y40.10400
X41.21009 Y40.33684
X37.57759 Y43.96572
X37.16418 Y44.07720
X36.83235 Y44.10582
X25.99770 Y44.10582
X25.80174 Y44.09516
X25.53547 Y44.05124
X25.16931 Y43.93427
X23.50617 Y43.24537
X22.87675 Y41.72584
X22.75077 Y41.48630
X22.58694 Y41.28460
X22.38524 Y41.12077
X22.14572 Y40.99478
X21.49786 Y40.71137
X21.21242 Y40.54563
X20.81321 Y40.25833
X20.78453 Y39.33659
X20.72469 Y38.81813
X20.58689 Y38.27218
X20.45702 Y37.91455
X19.99401 Y36.79675
X19.86028 Y36.66304
X19.48997 Y36.13891
X19.08702 Y35.68044
X18.64080 Y35.26914
X18.28144 Y34.99360
X18.23729 Y34.96327
X17.91900 Y34.90064
X17.61039 Y34.60213
X17.10999 Y34.18489
X16.68235 Y33.89830
X16.46775 Y33.77879
X16.12688 Y33.62235
X15.91139 Y33.54359
X13.85663 Y33.54359
X13.39364 Y32.77420
X13.21866 Y32.44702
X13.06110 Y32.06135
X12.94675 Y31.68792
X13.18627 Y31.51944
X13.56920 Y31.29132
X14.06173 Y31.07725
X14.85480 Y31.00328
X15.91886 Y31.00372
X16.29358 Y30.85792
X16.65068 Y30.67204
X16.88868 Y30.52315
X17.34931 Y30.17827
X17.89820 Y29.66958
X18.21293 Y29.33306
X19.35045 Y30.47057
X20.27158 Y31.42861
X23.61988 Y34.77694
X23.77342 Y34.94714
X23.97154 Y35.21981
X24.20063 Y35.66106
X24.82377 Y37.16545
X24.79725 Y37.71447
X24.84632 Y38.35730
X24.94571 Y38.86044
X24.94571 Y38.92841
X25.17766 Y39.48833
X25.24833 Y39.96898
X25.29199 Y40.16852
X25.41401 Y40.58053
X25.62303 Y41.05615
X25.88246 Y41.46138
X26.06920 Y41.68244
X26.27400 Y41.88000
X26.44810 Y42.01855
X26.51378 Y42.03555
X26.90296 Y42.09579
X27.31385 Y42.09846
X27.76564 Y42.02907
X28.17578 Y41.90105
X28.33577 Y41.99064
X28.49577 Y42.05465
X28.65576 Y42.09303
X28.81573 Y42.10583
X30.51570 Y42.10583
X30.66437 Y42.09478
X30.81301 Y42.06163
X30.96165 Y42.00639
X31.11032 Y41.92907
X31.57305 Y41.86930
X31.90257 Y41.77141
X35.04061 Y40.47578
X35.41856 Y40.52084
X35.77073 Y40.54284
X36.01932 Y40.44081
X36.55087 Y40.17761
X37.00746 Y39.88767
X37.40779 Y39.56959
X37.76407 Y39.21942
X38.06176 Y38.86022
X37.98716 Y38.44018
X37.85971 Y37.97226
X37.70944 Y37.58338
X37.45061 Y37.10579
X37.14650 Y36.70825
X36.91658 Y36.47800
X36.65816 Y36.26873
X35.85209 Y35.71646
X35.30228 Y35.31547
X34.64917 Y35.05118
X34.22047 Y34.72588
X34.79012 Y34.08497
X35.12448 Y33.76556
X35.54914 Y33.42157
X35.91803 Y33.17867
X36.24729 Y33.00582
X36.54909 Y32.88380
X36.83225 Y32.80097
X37.27573 Y32.73285
X37.67441 Y32.73582
X37.94231 Y32.77191
X38.21889 Y32.83800
X38.45099 Y32.91730
X38.49458 Y32.95771
X38.72800 Y33.21372
X38.72341 Y34.85794
X38.95683 Y35.11394
X39.18617 Y35.31717
X39.44530 Y35.50322
X39.74263 Y35.67338
X40.13057 Y35.84343
X40.47771 Y35.95413
X40.75414 Y36.02151
X41.26663 Y36.10630
X41.70036 Y36.41173
X41.93590 Y36.55285
X42.00270 Y37.30048
X42.05365 Y38.15600
G04 P0 ( dwell for no time -- G64 should not smooth over this point )
G00 Z2.00000 ( retract )

G00 X41.26681 Y34.05743 ( rapid move to begin. )
F22.50000
G01 Z-0.13500
G04 P0 ( dwell for no time -- G64 should not smooth over this point )
F45.00000
X41.26681 Y34.05743
X41.26663 Y36.10630
X40.75414 Y36.02151
X40.47771 Y35.95413
X40.13057 Y35.84343
X39.90753 Y35.75171
X39.44530 Y35.50322
X39.18617 Y35.31717
X38.95683 Y35.11394
X38.72341 Y34.85794
X38.72800 Y33.21372
X38.45099 Y32.91730
X38.21889 Y32.83800
X37.94231 Y32.77191
X37.50243 Y32.72708
X37.10375 Y32.75035
X36.72105 Y32.82982
X36.24729 Y33.00582
X35.91803 Y33.17867
X35.72113 Y33.30183
X35.29649 Y33.61794
X34.79012 Y34.08497
X34.22047 Y34.72588
X33.52527 Y34.75550
X32.78560 Y34.01583
X32.44857 Y33.71125
X32.11153 Y33.47158
X31.68464 Y33.41209
X31.15253 Y33.38624
X30.83775 Y33.47361
X30.57450 Y33.52243
X30.34062 Y33.54349
X30.02614 Y33.53643
X29.76628 Y33.50163
X29.20054 Y33.35748
X28.79003 Y33.29246
X28.09036 Y33.23808
X27.49882 Y33.21791
X27.33826 Y32.94235
X27.05185 Y32.35637
X26.79714 Y31.66719
X26.62005 Y31.01090
X30.68210 Y31.00699
X31.14227 Y30.76597
X31.54697 Y30.69567
X31.70104 Y30.65421
X32.34415 Y30.40087
X38.46080 Y30.40087
X39.11561 Y30.68162
X39.30006 Y30.78947
X39.47774 Y30.91822
X39.63504 Y31.05883
X40.83392 Y32.27288
X41.06861 Y32.62678
X41.26295 Y33.05233
X41.26681 Y34.05743
G04 P0 ( dwell for no time -- G64 should not smooth over this point )
G00 Z2.00000 ( retract )

G00 X43.80681 Y34.05743 ( rapid move to begin. )
F22.50000
G01 Z-0.13500
G04 P0 ( dwell for no time -- G64 should not smooth over this point )
F45.00000
X43.80681 Y34.05743
X43.80328 Y35.75174
X43.47514 Y35.98636
X41.93590 Y36.55285
X41.70036 Y36.41173
X41.26663 Y36.10630
X41.26295 Y33.05233
X41.12955 Y32.75037
X40.91710 Y32.38144
X40.70283 Y32.12665
X39.54903 Y30.97829
X39.30006 Y30.78947
X39.11561 Y30.68162
X38.46080 Y30.40087
X32.34415 Y30.40087
X31.70104 Y30.65421
X31.54697 Y30.69567
X31.14227 Y30.76597
X30.68210 Y31.00699
X26.62005 Y31.01090
X26.40433 Y30.64410
X26.09257 Y30.02711
X25.87251 Y29.50646
X25.60294 Y28.70235
X25.63265 Y28.45935
X26.58584 Y28.47052
X30.80422 Y28.46379
X31.08349 Y28.24820
X31.34824 Y28.16727
X31.72357 Y28.11764
X36.32125 Y28.10547
X36.69357 Y28.03009
X37.51234 Y27.70347
X37.72191 Y27.68259
X38.06918 Y27.62031
X38.56870 Y27.46882
X38.88348 Y27.57421
X39.62132 Y27.77007
X40.32391 Y27.98422
X40.60786 Y28.05346
X41.10748 Y28.13712
X41.53280 Y28.43583
X41.74560 Y28.56392
X41.79292 Y28.95277
X41.85756 Y29.30529
X41.98012 Y29.75660
X42.20110 Y30.29183
X42.46760 Y30.72927
X42.66660 Y30.97593
X43.01558 Y31.30702
X43.27702 Y31.49635
X43.90104 Y31.86028
X43.80902 Y32.73277
X43.80681 Y34.05743
G04 P0 ( dwell for no time -- G64 should not smooth over this point )
G00 Z2.00000 ( retract )

G00 X48.88488 Y34.05753 ( rapid move to begin. )
F22.50000
G01 Z-0.13500
G04 P0 ( dwell for no time -- G64 should not smooth over this point )
F45.00000
X48.88488 Y34.05753
X48.86962 Y34.31494
X48.82740 Y34.57623
X48.71079 Y34.98712
X48.75966 Y35.42802
X48.93266 Y36.18455
X47.29182 Y36.86426
X47.08471 Y36.96299
X46.83949 Y37.11445
X46.58471 Y37.32872
X45.88448 Y38.02349
X45.67211 Y38.18887
X45.39017 Y38.35971
X45.29022 Y38.58209
X45.13488 Y38.79014
X44.94305 Y39.00129
X44.65113 Y39.25277
X44.35215 Y39.31048
X44.07933 Y39.33362
X43.80653 Y39.32808
X43.52766 Y39.29275
X43.12835 Y39.18879
X42.11855 Y38.75730
X42.06264 Y38.32321
X42.00270 Y37.30048
X41.93590 Y36.55285
X43.47514 Y35.98636
X43.80328 Y35.75174
X44.64895 Y35.79024
X44.81598 Y35.73881
X45.11341 Y35.62789
X45.29736 Y35.54160
X45.56363 Y35.39103
X45.79863 Y35.22499
X46.12926 Y34.91864
X46.34808 Y34.64872
X46.34795 Y33.21115
X46.47132 Y33.06668
X46.70251 Y32.84186
X47.14780 Y32.72726
X47.50424 Y32.68835
X47.94262 Y32.70648
X48.29334 Y32.77311
X48.46743 Y32.91166
X48.74201 Y33.18845
X48.85199 Y33.62685
X48.88488 Y34.05753
G04 P0 ( dwell for no time -- G64 should not smooth over this point )
G00 Z2.00000 ( retract )

G00 X48.72489 Y26.05752 ( rapid move to begin. )
F22.50000
G01 Z-0.13500
G04 P0 ( dwell for no time -- G64 should not smooth over this point )
F45.00000
X48.72489 Y26.05752
X48.70962 Y26.31493
X48.66741 Y26.57622
X48.55415 Y26.97622
X48.60759 Y27.25369
X48.72570 Y27.53116
X48.71386 Y27.85666
X48.68638 Y28.06448
X48.55534 Y28.55127
X48.06248 Y29.75259
X46.09647 Y30.57169
X45.89977 Y30.67903
X45.38694 Y31.03115
X45.12855 Y31.16971
X44.75796 Y31.32640
X44.42837 Y31.57270
X43.90104 Y31.86028
X43.27702 Y31.49635
X43.01558 Y31.30702
X42.66660 Y30.97593
X42.46760 Y30.72927
X42.20110 Y30.29183
X41.98012 Y29.75660
X41.85756 Y29.30529
X41.79292 Y28.95277
X41.74560 Y28.56392
X43.64189 Y27.86534
X44.50658 Y28.09722
X44.96871 Y27.92859
X45.19492 Y27.82163
X45.51087 Y27.64096
X45.78966 Y27.44195
X46.03934 Y27.22252
X46.16698 Y27.09153
X46.18842 Y27.03362
X46.18796 Y25.21117
X46.31133 Y25.06670
X46.54252 Y24.84185
X46.98781 Y24.72725
X47.34424 Y24.68834
X47.78260 Y24.70647
X48.13335 Y24.77312
X48.30744 Y24.91165
X48.58201 Y25.18844
X48.69199 Y25.62684
X48.72489 Y26.05752
G04 P0 ( dwell for no time -- G64 should not smooth over this point )
G00 Z2.00000 ( retract )

G00 X43.64682 Y26.05742 ( rapid move to begin. )
F22.50000
G01 Z-0.13500
G04 P0 ( dwell for no time -- G64 should not smooth over this point )
F45.00000
X43.64682 Y26.05742
X43.64189 Y27.86534
X41.74560 Y28.56392
X41.53280 Y28.43583
X41.10748 Y28.13712
X41.10296 Y25.05232
X40.96955 Y24.75036
X40.83107 Y24.49210
X40.58769 Y24.17452
X39.39493 Y22.97874
X39.08556 Y22.72555
X38.68780 Y22.68583
X32.27153 Y22.68799
X31.87483 Y22.74044
X31.50379 Y22.85944
X31.22738 Y23.17020
X30.97692 Y23.38778
X25.63265 Y23.37935
X25.57304 Y22.83167
X25.54873 Y22.27267
X25.54873 Y21.87770
X25.56880 Y21.48276
X25.63265 Y20.83935
X30.17565 Y20.84522
X30.81103 Y20.71133
X31.08436 Y20.63081
X35.29570 Y20.63081
X35.49893 Y20.61989
X35.77993 Y20.57404
X36.07574 Y20.48525
X37.21861 Y20.01535
X37.74274 Y19.93160
X38.10202 Y19.83300
X38.67779 Y19.97359
X39.08693 Y20.02411
X39.43412 Y20.03508
X40.64433 Y20.02363
X41.25792 Y20.42027
X41.77377 Y20.68456
X41.86955 Y21.25723
X42.00199 Y21.74206
X42.15807 Y22.14501
X42.42337 Y22.63454
X42.63061 Y22.92065
X42.98108 Y23.29017
X43.24926 Y23.50691
X43.74209 Y23.85100
X43.64903 Y24.73276
X43.64682 Y26.05742
G04 P0 ( dwell for no time -- G64 should not smooth over this point )
G00 Z2.00000 ( retract )

G00 X41.10682 Y26.05742 ( rapid move to begin. )
F22.50000
G01 Z-0.13500
G04 P0 ( dwell for no time -- G64 should not smooth over this point )
F45.00000
X41.10682 Y26.05742
X41.10748 Y28.13712
X40.60786 Y28.05346
X40.32391 Y27.98422
X39.62132 Y27.77007
X38.88348 Y27.57421
X38.56870 Y27.46882
X38.56801 Y25.21371
X38.42635 Y25.05184
X38.20913 Y24.84145
X37.90766 Y24.75610
X37.62260 Y24.70647
X37.34650 Y24.68712
X37.10759 Y24.69321
X36.82781 Y24.72725
X36.53593 Y24.79372
X36.22491 Y24.89933
X35.88557 Y25.05549
X35.50538 Y25.28120
X35.27741 Y25.44084
X33.06408 Y25.44084
X32.16256 Y25.79979
X31.93686 Y25.86055
X31.59845 Y25.91399
X30.34082 Y25.92760
X25.63265 Y25.91935
X25.57304 Y25.37167
X25.54873 Y24.81267
X25.54873 Y24.41770
X25.56880 Y24.02276
X25.63265 Y23.37935
X30.97692 Y23.38778
X31.22738 Y23.17020
X31.50379 Y22.85944
X31.87483 Y22.74044
X32.27153 Y22.68799
X38.68780 Y22.68583
X39.08556 Y22.72555
X39.36659 Y22.95148
X40.54283 Y24.12664
X40.67392 Y24.27287
X40.83107 Y24.49210
X40.96955 Y24.75036
X41.10296 Y25.05232
X41.10682 Y26.05742
G04 P0 ( dwell for no time -- G64 should not smooth over this point )
G00 Z2.00000 ( retract )

G00 X38.56682 Y26.05742 ( rapid move to begin. )
F22.50000
G01 Z-0.13500
G04 P0 ( dwell for no time -- G64 should not smooth over this point )
F45.00000
X38.56682 Y26.05742
X38.56870 Y27.46882
X38.06918 Y27.62031
X37.72191 Y27.68259
X37.51234 Y27.70347
X36.82410 Y27.98579
X36.43568 Y28.09036
X36.13571 Y28.11581
X31.59307 Y28.12620
X31.34824 Y28.16727
X31.08349 Y28.24820
X30.80422 Y28.46379
X26.58584 Y28.47052
X25.63265 Y28.45935
X25.57304 Y27.91167
X25.54873 Y27.35267
X25.54873 Y26.95770
X25.56880 Y26.56276
X25.63265 Y25.91935
X30.34082 Y25.92760
X31.59845 Y25.91399
X31.93686 Y25.86055
X32.16256 Y25.79979
X33.06408 Y25.44084
X35.27741 Y25.44084
X35.71358 Y25.15095
X36.22491 Y24.89933
X36.53593 Y24.79372
X36.82781 Y24.72725
X37.27032 Y24.68615
X37.51848 Y24.69586
X37.79458 Y24.73281
X38.20804 Y24.84104
X38.42635 Y25.05184
X38.56801 Y25.21371
X38.56682 Y26.05742
G04 P0 ( dwell for no time -- G64 should not smooth over this point )
G00 Z2.00000 ( retract )

G00 X38.10682 Y18.05744 ( rapid move to begin. )
F22.50000
G01 Z-0.13500
G04 P0 ( dwell for no time -- G64 should not smooth over this point )
F45.00000
X38.10682 Y18.05744
X38.10202 Y19.83300
X37.74274 Y19.93160
X37.21861 Y20.01535
X36.16972 Y20.44984
X35.77993 Y20.57404
X35.49893 Y20.61989
X35.29570 Y20.63081
X31.08436 Y20.63081
X30.81103 Y20.71133
X30.17565 Y20.84522
X25.63265 Y20.83935
X25.57304 Y20.29167
X25.54873 Y19.73267
X25.54873 Y19.33770
X25.56880 Y18.94276
X25.63265 Y18.29935
X26.58584 Y18.31052
X34.35771 Y18.30582
X34.75651 Y18.27402
X35.05900 Y18.05703
X35.26835 Y17.86422
X35.50510 Y17.45139
X35.68379 Y17.21647
X35.87909 Y17.00788
X36.15732 Y16.77118
X36.47561 Y16.71070
X36.81033 Y16.68617
X37.16263 Y16.70649
X37.51335 Y16.77311
X37.68744 Y16.91167
X37.89224 Y17.10923
X38.10413 Y17.36547
X38.10682 Y18.05744
G04 P0 ( dwell for no time -- G64 should not smooth over this point )
G00 Z2.00000 ( retract )

G00 X40.64682 Y18.05744 ( rapid move to begin. )
F22.50000
G01 Z-0.13500
G04 P0 ( dwell for no time -- G64 should not smooth over this point )
F45.00000
X40.64682 Y18.05744
X40.64433 Y20.02363
X39.43412 Y20.03508
X39.08693 Y20.02411
X38.67779 Y19.97359
X38.10202 Y19.83300
X38.10413 Y17.36547
X37.81368 Y17.02866
X37.51335 Y16.77311
X37.16263 Y16.70649
X36.88650 Y16.68713
X36.64759 Y16.69320
X36.36781 Y16.72727
X36.15732 Y16.77118
X35.87909 Y17.00788
X35.68379 Y17.21647
X35.50510 Y17.45139
X35.26835 Y17.86422
X35.05900 Y18.05703
X34.75651 Y18.27402
X34.35771 Y18.30582
X26.58584 Y18.31052
X25.63265 Y18.29935
X25.57304 Y17.75167
X25.55285 Y17.35452
X25.54596 Y15.75856
X26.58584 Y15.77052
X33.83170 Y15.76582
X34.27627 Y15.56875
X34.52166 Y15.41721
X34.72852 Y15.24782
X35.11643 Y14.87263
X35.31000 Y14.72554
X35.70772 Y14.68582
X37.96369 Y14.68582
X38.29552 Y14.71447
X38.36070 Y14.72745
X38.41609 Y14.76446
X38.67083 Y14.97873
X40.08284 Y16.39072
X40.29712 Y16.64550
X40.44863 Y16.89084
X40.53699 Y17.07354
X40.64771 Y17.19981
X40.64682 Y18.05744
G04 P0 ( dwell for no time -- G64 should not smooth over this point )
G00 Z2.00000 ( retract )

G00 X43.18682 Y18.05744 ( rapid move to begin. )
F22.50000
G01 Z-0.13500
G04 P0 ( dwell for no time -- G64 should not smooth over this point )
F45.00000
X43.18682 Y18.05744
X43.18253 Y19.94522
X41.77377 Y20.68456
X41.25792 Y20.42027
X40.64433 Y20.02363
X40.64771 Y17.19981
X40.53699 Y17.07354
X40.44863 Y16.89084
X40.29712 Y16.64550
X40.12770 Y16.43859
X38.67083 Y14.97873
X38.36070 Y14.72745
X37.96369 Y14.68582
X35.70772 Y14.68582
X35.31000 Y14.72554
X35.11643 Y14.87263
X34.72852 Y15.24782
X34.52166 Y15.41721
X34.27627 Y15.56875
X33.83170 Y15.76582
X26.58584 Y15.77052
X25.54596 Y15.75856
X24.82676 Y13.22016
X31.46790 Y13.22255
X31.93686 Y13.16055
X32.16269 Y13.09974
X32.42428 Y13.00584
X33.45209 Y13.00584
X34.16406 Y12.71958
X34.46096 Y12.64119
X34.75473 Y12.60482
X38.79214 Y12.60081
X38.99940 Y12.61188
X39.28830 Y12.65882
X39.69099 Y12.78699
X43.19792 Y14.23959
X43.18682 Y18.05744
G04 P0 ( dwell for no time -- G64 should not smooth over this point )
G00 Z2.00000 ( retract )

G00 X48.26489 Y18.05754 ( rapid move to begin. )
F22.50000
G01 Z-0.13500
G04 P0 ( dwell for no time -- G64 should not smooth over this point )
F45.00000
X48.26489 Y18.05754
X48.24963 Y18.31494
X48.20741 Y18.57623
X48.09415 Y18.97623
X48.18201 Y19.45662
X48.34368 Y19.98591
X48.23837 Y20.27849
X47.75509 Y21.44521
X46.06363 Y22.14582
X45.66632 Y22.34430
X45.14077 Y22.95425
X44.79680 Y23.28062
X44.54077 Y23.46578
X44.24979 Y23.63327
X43.74209 Y23.85100
X43.10867 Y23.39911
X42.74247 Y23.05166
X42.52792 Y22.78682
X42.33351 Y22.48788
X42.15807 Y22.14501
X42.06384 Y21.91671
X41.86955 Y21.25723
X41.77377 Y20.68456
X43.18253 Y19.94522
X43.46924 Y19.97554
X43.77531 Y19.91768
X44.18928 Y19.80448
X44.49657 Y19.68964
X44.96566 Y19.44235
X45.34206 Y19.15876
X45.54831 Y18.95576
X45.72565 Y18.74220
X45.72797 Y17.21116
X45.85133 Y17.06669
X46.08252 Y16.84187
X46.52781 Y16.72727
X46.88425 Y16.68835
X47.32263 Y16.70649
X47.67335 Y16.77311
X47.84744 Y16.91167
X48.12202 Y17.18843
X48.23200 Y17.62686
X48.26489 Y18.05754
G04 P0 ( dwell for no time -- G64 should not smooth over this point )
G00 Z2.00000 ( retract )

G00 X54.25406 Y7.12264 ( rapid move to begin. )
F22.50000
G01 Z-0.13500
G04 P0 ( dwell for no time -- G64 should not smooth over this point )
F45.00000
X54.25406 Y7.12264
X54.23219 Y7.64001
X54.18713 Y7.99292
X54.08070 Y8.49800
X54.08070 Y12.10381
X54.06414 Y12.47985
X53.99767 Y12.98265
X53.78307 Y13.77993
X52.98266 Y15.73852
X53.06493 Y16.10034
X53.12371 Y16.46219
X53.15896 Y16.82401
X53.17070 Y17.65279
X53.21401 Y18.13829
X53.22572 Y18.63130
X52.84225 Y19.17994
X52.57784 Y19.62754
X52.31563 Y20.17493
X52.08703 Y20.84174
X51.98482 Y21.31819
X51.93453 Y21.77742
X51.93125 Y22.22972
X51.95361 Y22.52233
X52.07570 Y23.18925
X52.07570 Y24.19413
X52.15229 Y24.44206
X52.20697 Y24.68999
X52.23976 Y24.93792
X52.25071 Y25.18582
X52.23976 Y27.13372
X52.20697 Y27.38165
X52.15229 Y27.62958
X52.07570 Y27.87751
X52.07570 Y28.63019
X52.00050 Y28.88754
X51.90227 Y29.34687
X51.86641 Y29.62777
X51.84710 Y30.06381
X51.89293 Y30.66381
X51.98223 Y31.11370
X52.07570 Y31.43686
X52.07570 Y32.02332
X52.18729 Y32.31395
X52.26697 Y32.60458
X52.31477 Y32.89520
X52.33070 Y33.18583
X52.33070 Y34.88580
X52.31650 Y35.16022
X52.27388 Y35.43464
X52.20283 Y35.70907
X52.10339 Y35.98349
X51.82897 Y36.08293
X51.55455 Y36.15397
X51.28013 Y36.19662
X51.00568 Y36.21082
X49.30571 Y36.21082
X48.93266 Y36.18455
X48.81790 Y35.72362
X48.75966 Y35.42802
X48.71747 Y35.09426
X48.71079 Y34.98712
X48.80431 Y34.67539
X48.85821 Y34.40424
X48.88488 Y34.05753
X48.85199 Y33.62685
X48.74201 Y33.18845
X48.46743 Y32.91166
X48.29334 Y32.77311
X47.94262 Y32.70648
X47.66649 Y32.68713
X47.42758 Y32.69320
X47.14780 Y32.72726
X46.70251 Y32.84186
X46.47132 Y33.06668
X46.34795 Y33.21115
X46.34808 Y34.64872
X46.12926 Y34.91864
X45.79863 Y35.22499
X45.56363 Y35.39103
X45.29736 Y35.54160
X44.99533 Y35.67495
X44.64895 Y35.79024
X43.80328 Y35.75174
X43.80569 Y32.83374
X43.82236 Y32.54529
X43.90104 Y31.86028
X44.42837 Y31.57270
X44.75796 Y31.32640
X45.12855 Y31.16971
X45.38694 Y31.03115
X45.89977 Y30.67903
X46.09647 Y30.57169
X48.06248 Y29.75259
X48.55534 Y28.55127
X48.68638 Y28.06448
X48.71386 Y27.85666
X48.72570 Y27.53116
X48.60759 Y27.25369
X48.55415 Y26.97622
X48.64432 Y26.67538
X48.69822 Y26.40423
X48.72273 Y26.14294
X48.72054 Y25.88557
X48.67520 Y25.53347
X48.58201 Y25.18844
X48.30744 Y24.91165
X48.13335 Y24.77312
X47.78260 Y24.70647
X47.34424 Y24.68834
X46.98781 Y24.72725
X46.54252 Y24.84185
X46.31133 Y25.06670
X46.18796 Y25.21117
X46.18842 Y27.03362
X46.16698 Y27.09153
X45.92207 Y27.33116
X45.51087 Y27.64096
X45.05299 Y27.89115
X44.50658 Y28.09722
X43.64189 Y27.86534
X43.64570 Y24.83373
X43.66236 Y24.54528
X43.74209 Y23.85100
X44.24979 Y23.63327
X44.54077 Y23.46578
X44.79680 Y23.28062
X45.14077 Y22.95425
X45.66632 Y22.34430
X46.06363 Y22.14582
X47.75509 Y21.44521
X48.23837 Y20.27849
X48.34368 Y19.98591
X48.18201 Y19.45662
X48.09415 Y18.97623
X48.20741 Y18.57623
X48.24963 Y18.31494
X48.26489 Y18.05754
X48.23200 Y17.62686
X48.12202 Y17.18843
X47.84744 Y16.91167
X47.67335 Y16.77311
X47.32263 Y16.70649
X46.97033 Y16.68617
X46.52781 Y16.72727
X46.08252 Y16.84187
X45.85133 Y17.06669
X45.72797 Y17.21116
X45.72565 Y18.74220
X45.54831 Y18.95576
X45.34206 Y19.15876
X45.11067 Y19.34413
X44.84727 Y19.51398
X44.58085 Y19.65220
X44.36866 Y19.74065
X43.97059 Y19.86975
X43.47811 Y19.97430
X43.18253 Y19.94522
X43.19792 Y14.23959
X43.29020 Y14.20136
X43.72975 Y13.74693
X44.00061 Y13.42702
X44.69911 Y12.52979
X44.87955 Y12.33083
X45.78245 Y11.42796
X45.92967 Y11.18173
X46.14821 Y10.87919
X46.38763 Y10.61229
X46.65230 Y10.37325
X46.94859 Y10.15720
X47.28542 Y9.96167
X47.67642 Y9.78593
X48.42669 Y9.52845
X49.36392 Y9.84981
X49.71937 Y9.43274
X50.03845 Y8.98171
X50.25976 Y8.58715
X50.43842 Y8.16363
X50.43570 Y4.54624
X50.39791 Y4.43567
X50.39524 Y4.37057
X50.39405 Y2.82742
X50.70908 Y2.46788
X50.98731 Y2.23118
X51.30560 Y2.17070
X51.64032 Y2.14617
X51.99262 Y2.16649
X52.34334 Y2.23311
X52.51744 Y2.37167
X52.72224 Y2.56923
X53.01037 Y2.93209
X53.23641 Y3.33006
X53.37743 Y3.67113
X53.49945 Y4.08315
X53.59813 Y4.62653
X54.08073 Y5.79157
X54.20120 Y6.43066
X54.25406 Y7.12264
G04 P0 ( dwell for no time -- G64 should not smooth over this point )
G00 Z2.00000 ( retract )

G00 X45.31903 Y0.65120 ( rapid move to begin. )
F22.50000
G01 Z-0.13500
G04 P0 ( dwell for no time -- G64 should not smooth over this point )
F45.00000
X45.31903 Y0.65120
X47.35466 Y0.65117
X47.64407 Y1.76626
X47.85313 Y2.48381
X47.85524 Y4.37057
X47.85791 Y4.43567
X47.89570 Y4.54624
X47.89834 Y8.17227
X48.42669 Y9.52845
X47.67642 Y9.78593
X47.28542 Y9.96167
X46.94859 Y10.15720
X46.52474 Y10.48219
X46.14821 Y10.87919
X45.92967 Y11.18173
X45.78245 Y11.42796
X44.78535 Y12.43144
X43.84425 Y13.61638
X43.29020 Y14.20136
X43.19792 Y14.23959
X39.59254 Y12.74988
X39.28830 Y12.65882
X38.86885 Y12.60332
X34.75473 Y12.60482
X34.46096 Y12.64119
X34.16406 Y12.71958
X33.45209 Y13.00584
X32.42428 Y13.00584
X32.16269 Y13.09974
X31.93686 Y13.16055
X31.46790 Y13.22255
X24.82676 Y13.22016
X24.59544 Y12.78592
X24.31145 Y12.17546
X24.08678 Y11.63185
X23.76385 Y10.68796
X30.97692 Y10.68778
X31.11913 Y10.58077
X31.32492 Y10.52243
X31.60442 Y10.47676
X31.80706 Y10.46584
X42.77372 Y10.46584
X43.05921 Y10.44643
X43.33462 Y10.25405
X43.48085 Y10.12296
X44.76284 Y8.84095
X44.97712 Y8.58616
X45.12863 Y8.34082
X45.21486 Y8.16297
X45.35380 Y8.00404
X45.35570 Y4.54624
X45.31791 Y4.43567
X45.31524 Y4.37057
X45.31903 Y0.65120
G04 P0 ( dwell for no time -- G64 should not smooth over this point )
G00 Z2.00000 ( retract )

G00 X43.80861 Y0.65117 ( rapid move to begin. )
F22.50000
G01 Z-0.13500
G04 P0 ( dwell for no time -- G64 should not smooth over this point )
F45.00000
X43.80861 Y0.65117
X45.31905 Y0.65117
X45.31524 Y4.37057
X45.31791 Y4.43567
X45.35570 Y4.54624
X45.35380 Y8.00404
X45.21486 Y8.16297
X45.12863 Y8.34082
X44.97712 Y8.58616
X44.76284 Y8.84095
X43.48085 Y10.12296
X43.33462 Y10.25405
X43.05921 Y10.44643
X42.77372 Y10.46584
X31.80706 Y10.46584
X31.60442 Y10.47676
X31.32492 Y10.52243
X31.11913 Y10.58077
X30.97692 Y10.68778
X23.76385 Y10.68796
X23.47817 Y10.12113
X23.91406 Y9.65563
X24.42214 Y9.14570
X25.09209 Y8.54598
X25.59516 Y8.13897
X26.58584 Y8.15052
X31.15886 Y8.14372
X31.48022 Y8.02083
X32.01953 Y8.02083
X32.23625 Y8.08116
X32.56777 Y8.14280
X33.05931 Y8.16863
X33.54788 Y8.11672
X33.93190 Y8.02083
X34.55578 Y8.02083
X34.78836 Y8.08639
X35.11884 Y8.14786
X35.60932 Y8.17364
X35.93258 Y8.14786
X36.26301 Y8.08639
X36.60868 Y7.98410
X37.04211 Y7.80221
X37.48071 Y8.21270
X37.70571 Y8.35332
X37.93072 Y8.43770
X38.15572 Y8.46581
X39.85569 Y8.46581
X40.01236 Y8.45220
X40.16900 Y8.41131
X40.32566 Y8.34313
X40.48231 Y8.24770
X40.95965 Y8.39891
X41.32802 Y8.45593
X41.65467 Y8.46335
X41.89564 Y8.44148
X42.33028 Y8.34524
X42.62243 Y8.07064
X42.81738 Y7.83427
X42.81570 Y4.54624
X42.77791 Y4.43567
X42.77524 Y4.37057
X42.77301 Y2.49803
X42.86744 Y2.25722
X43.04148 Y1.90256
X43.80861 Y0.65117
G04 P0 ( dwell for no time -- G64 should not smooth over this point )
G00 Z2.00000 ( retract )

G00 X40.27570 Y5.67049 ( rapid move to begin. )
F22.50000
G01 Z-0.13500
G04 P0 ( dwell for no time -- G64 should not smooth over this point )
F45.00000
X40.27570 Y5.67049
X40.39384 Y5.94796
X40.44728 Y6.22543
X40.33402 Y6.62543
X40.29181 Y6.88672
X40.27654 Y7.14412
X40.28751 Y7.40282
X40.32622 Y7.66818
X40.48231 Y8.24770
X40.32566 Y8.34313
X40.16900 Y8.41131
X40.01236 Y8.45220
X39.85569 Y8.46581
X38.15572 Y8.46581
X37.93072 Y8.43770
X37.70571 Y8.35332
X37.48071 Y8.21270
X37.04211 Y7.80221
X37.18234 Y7.26190
X37.22943 Y6.89909
X37.23819 Y6.53981
X37.20703 Y6.00173
X37.22526 Y5.43620
X37.21343 Y5.39930
X36.68333 Y5.18467
X36.31193 Y5.07547
X35.78953 Y4.99249
X35.44208 Y4.98302
X35.09466 Y5.01007
X34.54935 Y5.12582
X33.96599 Y5.12584
X33.75979 Y5.07024
X33.40571 Y5.00501
X32.89208 Y4.97801
X32.35890 Y5.03468
X31.98540 Y5.12582
X30.65380 Y5.12582
X30.18616 Y5.10146
X29.95604 Y5.11299
X29.58802 Y5.16112
X29.20400 Y5.25208
X28.63316 Y5.46412
X28.18667 Y5.69401
X27.68668 Y6.01817
X27.27260 Y6.34004
X27.11073 Y6.47898
X26.42440 Y7.15027
X26.08015 Y7.53308
X25.59516 Y8.13897
X25.09209 Y8.54598
X24.42214 Y9.14570
X23.91406 Y9.65563
X23.47817 Y10.12113
X20.55588 Y8.91069
X20.36231 Y8.73569
X19.26355 Y8.39457
X18.25220 Y8.14105
X14.68180 Y8.14659
X14.23257 Y8.12909
X13.99310 Y7.91954
X13.85127 Y7.76856
X13.74888 Y7.39729
X13.70065 Y7.02256
X13.71147 Y6.59724
X13.77901 Y6.22058
X14.07255 Y5.88665
X14.37484 Y5.63420
X14.78010 Y5.38947
X17.14260 Y3.02696
X17.70064 Y2.80824
X17.95332 Y2.74939
X18.19310 Y2.72638
X35.95961 Y2.72465
X36.25209 Y2.69991
X36.50472 Y2.64109
X36.61693 Y2.60299
X36.72910 Y2.53055
X37.24701 Y2.39526
X37.44800 Y2.32082
X37.52412 Y2.32082
X37.81993 Y2.18958
X37.96783 Y2.15678
X38.11571 Y2.14584
X39.81568 Y2.14584
X40.05391 Y2.17421
X40.29214 Y2.25932
X40.39300 Y2.44050
X40.40727 Y2.55544
X40.29402 Y2.95544
X40.23870 Y3.38871
X40.24088 Y3.64609
X40.26943 Y3.90481
X40.32610 Y4.17017
X40.42175 Y4.49422
X40.37111 Y4.72876
X40.27570 Y4.96331
X40.27570 Y5.67049
G04 P0 ( dwell for no time -- G64 should not smooth over this point )
G00 Z2.00000 ( retract )

G00 X37.23819 Y6.53981 ( rapid move to begin. )
F22.50000
G01 Z-0.13500
G04 P0 ( dwell for no time -- G64 should not smooth over this point )
F45.00000
X37.23819 Y6.53981
X37.22943 Y6.89909
X37.20881 Y7.09467
X37.13794 Y7.47021
X37.04211 Y7.80221
X36.81150 Y7.90600
X36.44147 Y8.03843
X35.93258 Y8.14786
X35.60932 Y8.17364
X35.28608 Y8.16543
X34.95562 Y8.12192
X34.55578 Y8.02083
X33.93190 Y8.02083
X33.54788 Y8.11672
X33.05931 Y8.16863
X32.56777 Y8.14280
X32.23625 Y8.08116
X32.01953 Y8.02083
X31.48022 Y8.02083
X31.15886 Y8.14372
X26.58584 Y8.15052
X25.59516 Y8.13897
X26.08015 Y7.53308
X26.58625 Y6.97999
X27.11073 Y6.47898
X27.68668 Y6.01817
X28.18667 Y5.69401
X28.79503 Y5.39465
X29.20400 Y5.25208
X29.42614 Y5.19440
X29.79416 Y5.12947
X30.18616 Y5.10146
X30.65380 Y5.12582
X31.98540 Y5.12582
X32.35890 Y5.03468
X32.89208 Y4.97801
X33.40571 Y5.00501
X33.75979 Y5.07024
X33.96599 Y5.12584
X34.54935 Y5.12582
X34.90678 Y5.03991
X35.44208 Y4.98302
X35.78953 Y4.99249
X36.14470 Y5.03994
X36.68333 Y5.18467
X37.21343 Y5.39930
X37.22526 Y5.43620
X37.20703 Y6.00173
X37.23819 Y6.53981
G04 P0 ( dwell for no time -- G64 should not smooth over this point )
G00 Z2.00000 ( retract )

G00 X16.68888 Y14.49097 ( rapid move to begin. )
F22.50000
G01 Z-0.13500
G04 P0 ( dwell for no time -- G64 should not smooth over this point )
F45.00000
X16.68888 Y14.49097
X16.81969 Y14.85714
X16.88830 Y15.11040
X16.99957 Y15.76209
X14.47027 Y15.76791
X14.19298 Y15.55521
X13.99991 Y15.36895
X13.72859 Y15.02724
X13.57957 Y14.77888
X13.44502 Y14.49349
X13.32605 Y14.15818
X13.22643 Y13.75432
X13.15135 Y13.22638
X15.73915 Y13.22773
X15.99831 Y13.45214
X16.28202 Y13.77469
X16.54110 Y14.17934
X16.68888 Y14.49097
G04 P0 ( dwell for no time -- G64 should not smooth over this point )
G00 Z2.00000 ( retract )

G00 X18.22363 Y24.57307 ( rapid move to begin. )
F22.50000
G01 Z-0.13500
G04 P0 ( dwell for no time -- G64 should not smooth over this point )
F45.00000
X18.22363 Y24.57307
X18.19876 Y25.22842
X18.10006 Y25.92341
X14.30504 Y25.92356
X14.09813 Y25.98582
X11.10924 Y25.98582
X10.90533 Y26.04645
X8.06149 Y26.04993
X8.02812 Y25.92184
X8.04905 Y25.62453
X8.24828 Y24.95714
X8.39720 Y24.59796
X8.65821 Y24.14071
X8.85402 Y23.88181
X9.06809 Y23.65189
X9.48227 Y23.26774
X10.27340 Y22.47564
X10.56248 Y22.21682
X10.94884 Y22.43886
X11.36679 Y22.73287
X12.64584 Y23.25941
X12.94850 Y23.35529
X13.23684 Y23.41455
X13.49534 Y23.44148
X13.90431 Y23.44582
X14.07255 Y23.38796
X14.21005 Y23.38552
X18.10006 Y23.38341
X18.18161 Y23.91465
X18.22363 Y24.57307
G04 P0 ( dwell for no time -- G64 should not smooth over this point )
G00 Z2.00000 ( retract )

G00 X18.22363 Y27.11307 ( rapid move to begin. )
F22.50000
G01 Z-0.13500
G04 P0 ( dwell for no time -- G64 should not smooth over this point )
F45.00000
X18.22363 Y27.11307
X18.19876 Y27.76842
X18.10006 Y28.46341
X14.54113 Y28.46417
X14.00837 Y28.48820
X13.90431 Y28.52582
X11.28737 Y28.52582
X11.12633 Y28.58668
X8.11072 Y28.58988
X7.75377 Y28.07977
X7.93952 Y26.59804
X8.06149 Y26.04993
X10.90533 Y26.04645
X11.10924 Y25.98582
X14.09813 Y25.98582
X14.30504 Y25.92356
X18.10006 Y25.92341
X18.18161 Y26.45465
X18.22363 Y27.11307
G04 P0 ( dwell for no time -- G64 should not smooth over this point )
G00 Z2.00000 ( retract )

G00 X17.89820 Y29.66958 ( rapid move to begin. )
F22.50000
G01 Z-0.13500
G04 P0 ( dwell for no time -- G64 should not smooth over this point )
F45.00000
X17.89820 Y29.66958
X17.51116 Y30.03930
X17.05053 Y30.41050
X16.65068 Y30.67204
X16.13171 Y30.92739
X15.91886 Y31.00372
X14.85480 Y31.00328
X14.06173 Y31.07725
X13.56920 Y31.29132
X13.18627 Y31.51944
X12.94675 Y31.68792
X12.11584 Y31.34372
X11.85917 Y31.25190
X11.63349 Y31.19114
X11.29522 Y31.13770
X11.10289 Y31.12553
X8.20795 Y31.12856
X8.11072 Y28.58988
X11.12633 Y28.58668
X11.28737 Y28.52582
X13.90431 Y28.52582
X14.00837 Y28.48820
X14.54113 Y28.46417
X18.10006 Y28.46341
X18.16099 Y28.83280
X18.21293 Y29.33306
X17.89820 Y29.66958
G04 P0 ( dwell for no time -- G64 should not smooth over this point )
G00 Z2.00000 ( retract )

G00 X11.47485 Y34.95347 ( rapid move to begin. )
F22.50000
G01 Z-0.13500
G04 P0 ( dwell for no time -- G64 should not smooth over this point )
F45.00000
X11.47485 Y34.95347
X11.44564 Y35.33289
X11.38978 Y35.61405
X11.20243 Y35.84064
X10.97330 Y36.06251
X10.73276 Y36.13243
X10.29756 Y36.19929
X9.91107 Y36.19601
X9.55519 Y36.14092
X9.18839 Y36.03403
X9.05451 Y36.04511
X8.73541 Y35.85722
X8.52850 Y35.68781
X5.54862 Y32.71095
X5.33437 Y32.45622
X5.22375 Y32.28692
X5.20023 Y32.20943
X5.18918 Y32.00382
X5.18918 Y30.85698
X5.08510 Y30.47408
X5.04034 Y30.04954
X5.04913 Y29.79491
X5.08510 Y29.53760
X5.18205 Y29.17370
X5.39274 Y28.96034
X5.61715 Y28.77713
X5.87349 Y28.60972
X6.17209 Y28.45734
X6.71072 Y28.26740
X7.16469 Y28.16979
X7.75377 Y28.07977
X8.11072 Y28.58988
X8.20162 Y30.89523
X8.20795 Y31.12856
X8.18631 Y31.20415
X8.19667 Y31.29470
X8.24831 Y31.60897
X8.35397 Y32.03734
X8.48021 Y32.39322
X8.62301 Y32.69614
X8.78107 Y32.95954
X8.95529 Y33.19312
X9.14775 Y33.40300
X9.45506 Y33.66381
X10.79636 Y33.66785
X10.88905 Y33.73775
X11.18224 Y34.00922
X11.38882 Y34.25804
X11.46260 Y34.67846
X11.47485 Y34.95347
G04 P0 ( dwell for no time -- G64 should not smooth over this point )
G00 Z2.00000 ( retract )

G00 X1.00072 Y18.00905 ( rapid move to begin. )
F22.50000
G01 Z-0.13500
G04 P0 ( dwell for no time -- G64 should not smooth over this point )
F45.00000
X1.00072 Y18.00905
X1.00072 Y17.74873
X2.31116 Y17.76069
X7.48291 Y17.75584
X7.53574 Y17.77771
X7.90345 Y17.96780
X8.13655 Y18.13559
X9.06903 Y19.05253
X9.29464 Y19.31890
X9.41407 Y19.50404
X9.56383 Y19.80582
X10.56248 Y22.21682
X10.27340 Y22.47564
X9.68686 Y23.06754
X8.94803 Y23.77503
X8.65821 Y24.14071
X8.39720 Y24.59796
X8.24828 Y24.95714
X8.04905 Y25.62453
X8.02812 Y25.92184
X8.06149 Y26.04993
X7.93952 Y26.59804
X7.75377 Y28.07977
X7.16469 Y28.16979
X6.71072 Y28.26740
X6.17209 Y28.45734
X5.87349 Y28.60972
X5.61715 Y28.77713
X5.39274 Y28.96034
X5.18205 Y29.17370
X5.10618 Y29.43867
X5.05860 Y29.70484
X5.04034 Y29.96214
X5.04913 Y30.21677
X5.10618 Y30.57301
X5.18918 Y30.85698
X5.18918 Y32.00382
X5.20168 Y32.21936
X5.22375 Y32.28692
X5.41753 Y32.56472
X5.54862 Y32.71095
X8.48062 Y35.64295
X8.62685 Y35.77404
X8.84607 Y35.93119
X9.05451 Y36.04511
X9.18839 Y36.03403
X9.55519 Y36.14092
X9.82331 Y36.18707
X10.08305 Y36.20475
X10.29756 Y36.19929
X10.56075 Y36.16777
X10.83530 Y36.10581
X10.97330 Y36.06251
X11.27767 Y35.75522
X11.38978 Y35.61405
X11.44564 Y35.33289
X11.47226 Y35.05514
X11.46260 Y34.67846
X11.38882 Y34.25804
X11.10368 Y33.92865
X10.79636 Y33.66785
X9.45506 Y33.66381
X9.14775 Y33.40300
X8.95529 Y33.19312
X8.78107 Y32.95954
X8.62301 Y32.69614
X8.48021 Y32.39322
X8.35397 Y32.03734
X8.24831 Y31.60897
X8.18631 Y31.20415
X8.20795 Y31.12856
X11.10289 Y31.12553
X11.29522 Y31.13770
X11.63349 Y31.19114
X11.85917 Y31.25190
X12.11584 Y31.34372
X12.94675 Y31.68792
X13.06110 Y32.06135
X13.21866 Y32.44702
X13.39364 Y32.77420
X13.85663 Y33.54359
X13.67990 Y34.09104
X13.60210 Y34.52047
X13.58663 Y34.80630
X13.60029 Y35.09350
X13.64482 Y35.38834
X13.70906 Y35.64935
X13.67489 Y35.94399
X13.65920 Y36.28537
X13.61388 Y36.57610
X13.33093 Y36.91905
X11.91891 Y38.33103
X11.67319 Y38.54574
X11.59331 Y38.65674
X11.32814 Y38.82135
X11.17741 Y38.89405
X10.74528 Y39.05519
X10.40091 Y39.22021
X10.01165 Y39.46148
X9.67419 Y39.71548
X9.06987 Y39.45427
X8.87942 Y39.34264
X8.70442 Y39.21561
X8.43000 Y38.95938
X7.77115 Y38.60398
X7.32294 Y38.39867
X6.82997 Y38.06542
X6.56520 Y37.92308
X6.23884 Y37.77393
X5.91872 Y38.12412
X5.62899 Y38.49997
X5.42365 Y38.82885
X5.21288 Y39.28620
X5.10648 Y39.65394
X5.06648 Y39.90179
X5.05208 Y40.14586
X5.06254 Y40.39115
X5.09932 Y40.64294
X5.22099 Y41.06730
X5.51273 Y41.33763
X5.74974 Y41.50812
X5.94768 Y41.62635
X7.01859 Y41.57769
X7.11171 Y41.64169
X7.48222 Y41.95757
X7.80297 Y42.33328
X8.08082 Y42.78939
X8.30665 Y43.33638
X8.43340 Y43.80181
X8.52878 Y44.38103
X8.57422 Y45.12754
X8.55232 Y45.88090
X8.47142 Y46.70015
X8.32995 Y47.54181
X8.05596 Y48.06866
X5.28332 Y45.40658
X5.08517 Y45.07298
X4.89315 Y44.79353
X4.69404 Y44.45063
X4.56315 Y44.17351
X4.14730 Y43.16950
X4.00836 Y42.88906
X3.82345 Y42.61972
X3.33361 Y42.10349
X3.18576 Y41.90877
X3.14710 Y41.55163
X3.13633 Y28.67083
X3.18840 Y28.27718
X3.27217 Y28.00004
X4.06574 Y26.07657
X4.06574 Y25.90068
X3.98700 Y25.66446
X3.93074 Y25.42824
X3.89698 Y25.19202
X3.88573 Y24.25654
X4.30024 Y23.25583
X4.43745 Y22.99312
X4.61476 Y22.77054
X4.82657 Y22.69842
X5.03838 Y22.66403
X5.40519 Y22.77092
X5.67331 Y22.81707
X5.93305 Y22.83475
X6.14755 Y22.82929
X6.41075 Y22.79776
X6.68530 Y22.73581
X6.83208 Y22.68976
X6.93493 Y22.59624
X7.22878 Y22.26363
X7.29081 Y21.96111
X7.31727 Y21.68438
X7.31547 Y21.41179
X7.28578 Y21.13775
X7.22626 Y20.85670
X7.07455 Y20.41789
X7.03673 Y20.33559
X6.97933 Y20.29683
X4.97209 Y20.29482
X4.64631 Y20.16368
X4.26295 Y19.96160
X2.85957 Y19.09782
X1.00072 Y18.00905
G04 P0 ( dwell for no time -- G64 should not smooth over this point )
G00 Z2.00000 ( retract )

G00 X1.00072 Y17.74875 ( rapid move to begin. )
F22.50000
G01 Z-0.13500
G04 P0 ( dwell for no time -- G64 should not smooth over this point )
F45.00000
X1.00072 Y17.74875
X1.00072 Y15.20873
X2.31116 Y15.22069
X7.77135 Y15.21581
X8.09240 Y15.35203
X8.35070 Y15.49054
X8.66820 Y15.73387
X13.22028 Y20.28296
X13.47507 Y20.49724
X13.72041 Y20.64875
X14.08462 Y20.81255
X14.12648 Y20.84826
X18.10006 Y20.84341
X18.18161 Y21.37465
X18.22363 Y22.03307
X18.19876 Y22.68842
X18.10006 Y23.38341
X14.21005 Y23.38552
X14.07255 Y23.38796
X13.90431 Y23.44582
X13.34137 Y23.42832
X13.05302 Y23.38039
X12.75036 Y23.29639
X11.36679 Y22.73287
X10.94884 Y22.43886
X10.56248 Y22.21682
X9.56383 Y19.80582
X9.41407 Y19.50404
X9.24722 Y19.25540
X9.06903 Y19.05253
X8.13655 Y18.13559
X7.90345 Y17.96780
X7.48291 Y17.75584
X2.31116 Y17.76069
X1.00072 Y17.74875
G04 P0 ( dwell for no time -- G64 should not smooth over this point )
G00 Z2.00000 ( retract )

G00 X1.00072 Y15.20875 ( rapid move to begin. )
F22.50000
G01 Z-0.13500
G04 P0 ( dwell for no time -- G64 should not smooth over this point )
F45.00000
X1.00072 Y15.20875
X1.00072 Y12.66873
X2.31116 Y12.68069
X8.05979 Y12.67581
X8.38085 Y12.81203
X8.63914 Y12.95054
X8.95664 Y13.19387
X13.50873 Y17.74296
X13.76351 Y17.95724
X14.11269 Y18.15993
X14.28906 Y18.30349
X18.10006 Y18.30341
X18.18161 Y18.83465
X18.22363 Y19.49307
X18.19876 Y20.14842
X18.10006 Y20.84341
X14.12648 Y20.84826
X14.08462 Y20.81255
X13.72041 Y20.64875
X13.47507 Y20.49724
X13.22028 Y20.28296
X8.66820 Y15.73387
X8.35070 Y15.49054
X8.09240 Y15.35203
X7.77135 Y15.21581
X2.31116 Y15.22069
X1.00072 Y15.20875
G04 P0 ( dwell for no time -- G64 should not smooth over this point )
G00 Z2.00000 ( retract )

G00 X1.00072 Y12.66875 ( rapid move to begin. )
F22.50000
G01 Z-0.13500
G04 P0 ( dwell for no time -- G64 should not smooth over this point )
F45.00000
X1.00072 Y12.66875
X1.00072 Y0.65084
X3.24738 Y0.65084
X7.26563 Y5.77181
X7.84872 Y6.55883
X8.58582 Y7.29594
X9.11717 Y7.87067
X9.42700 Y8.24720
X10.43411 Y9.55761
X10.69296 Y9.86612
X12.18437 Y11.36398
X12.41536 Y12.00574
X12.64563 Y12.48064
X12.90009 Y12.89367
X13.15135 Y13.22638
X13.22643 Y13.75432
X13.38256 Y14.33060
X13.57957 Y14.77888
X13.72859 Y15.02724
X13.89272 Y15.24723
X14.19298 Y15.55521
X14.47027 Y15.76791
X16.99957 Y15.76209
X17.20598 Y16.04174
X17.39175 Y16.33194
X17.71855 Y16.97870
X17.93496 Y17.56798
X18.07648 Y18.09041
X18.11047 Y18.24583
X18.10006 Y18.30341
X14.28906 Y18.30349
X14.11269 Y18.15993
X13.76351 Y17.95724
X13.50873 Y17.74296
X8.95664 Y13.19387
X8.63914 Y12.95054
X8.38085 Y12.81203
X8.05979 Y12.67581
X2.31116 Y12.68069
X1.00072 Y12.66875
G04 P0 ( dwell for no time -- G64 should not smooth over this point )
G00 Z2.00000 ( retract )

G00 X3.24738 Y0.65084 ( rapid move to begin. )
F22.50000
G01 Z-0.13500
G04 P0 ( dwell for no time -- G64 should not smooth over this point )
F45.00000
X3.24738 Y0.65084
X43.80864 Y0.65115
X43.04148 Y1.90256
X42.86744 Y2.25722
X42.77301 Y2.49803
X42.77524 Y4.37057
X42.77791 Y4.43567
X42.81570 Y4.54624
X42.81738 Y7.83427
X42.62243 Y8.07064
X42.33028 Y8.34524
X41.89564 Y8.44148
X41.65467 Y8.46335
X41.32802 Y8.45593
X40.95965 Y8.39891
X40.48231 Y8.24770
X40.32622 Y7.66818
X40.28751 Y7.40282
X40.27654 Y7.14412
X40.29181 Y6.88672
X40.33402 Y6.62543
X40.44728 Y6.22543
X40.39384 Y5.94796
X40.27570 Y5.67049
X40.27570 Y4.96331
X40.37111 Y4.72876
X40.42175 Y4.49422
X40.32610 Y4.17017
X40.26943 Y3.90481
X40.24088 Y3.64609
X40.23870 Y3.38871
X40.29402 Y2.95544
X40.40727 Y2.55544
X40.39300 Y2.44050
X40.29214 Y2.25932
X40.05391 Y2.17421
X39.81568 Y2.14584
X38.11571 Y2.14584
X37.96783 Y2.15678
X37.81993 Y2.18958
X37.52412 Y2.32082
X37.44800 Y2.32082
X37.24701 Y2.39526
X36.72910 Y2.53055
X36.61693 Y2.60299
X36.50472 Y2.64109
X36.25209 Y2.69991
X35.95961 Y2.72465
X18.24570 Y2.72465
X18.06259 Y2.73494
X17.70064 Y2.80824
X17.14260 Y3.02696
X14.78010 Y5.38947
X14.51134 Y5.54174
X14.27984 Y5.70577
X14.07255 Y5.88665
X13.88447 Y6.08784
X13.77901 Y6.22058
X13.72496 Y6.49155
X13.69656 Y6.86071
X13.72912 Y7.28736
X13.78645 Y7.55919
X13.85127 Y7.76856
X13.99310 Y7.91954
X14.23257 Y8.12909
X14.68180 Y8.14659
X18.25220 Y8.14105
X19.26355 Y8.39457
X20.36231 Y8.73569
X20.55588 Y8.91069
X19.79144 Y9.25349
X19.00770 Y9.58194
X17.05396 Y10.26436
X15.91886 Y10.68372
X14.07255 Y10.68796
X12.93745 Y11.10731
X12.18437 Y11.36398
X10.69296 Y9.86612
X10.43411 Y9.55761
X9.42700 Y8.24720
X9.11717 Y7.87067
X8.58582 Y7.29594
X7.84872 Y6.55883
X7.26563 Y5.77181
X3.24738 Y0.65084

G04 P0 ( dwell for no time -- G64 should not smooth over this point )
G00 Z10.000 ( retract )

M5 ( Spindle off. )
M9 ( Coolant off. )
M2 ( Program end. )

