( pcb2gcode 1.3.2 )
( Software-independent Gcode )
( This file uses a mill head of 1.00000mm to drill the 3 bit sizes. )
( Bit sizes: [0.01600] [0.03100] [0.03900] )

G94       (Millimeters per minute feed rate.)
G21       (Units == Millimeters.)
G91.1     (Incremental arc distance mode.)
G90       (Absolute coordinates.)
S10000    (RPM spindle speed.)
F100.00000 (Feedrate)
M3        (Spindle on clockwise.)
G00 Z2.00000

G0 X6.04216 Y43.05002
G1 Z-2.50000
G0 Z2.00000

G0 X11.47268 Y40.13664
G1 Z-2.50000
G0 Z2.00000

G0 X16.54506 Y47.24610
G1 Z-2.50000
G0 Z2.00000

G0 X32.62580 Y6.62642
G1 Z-2.50000
G0 Z2.00000

G0 X35.17596 Y6.63658
G1 Z-2.50000
G0 Z2.00000

G0 X47.24350 Y11.81056
G1 Z-2.50000
G0 Z2.00000

G0 X2.62586 Y46.61618
G1 Z-2.50000
G0 Z2.00000

G0 X5.90500 Y40.16458
G1 Z-2.50000
G0 Z2.00000

G0 X12.78586 Y46.61618
G1 Z-2.50000
G0 Z2.00000

G0 X15.95578 Y42.48614
G1 Z-2.50000
G0 Z2.00000

G0 X18.49578 Y42.48614
G1 Z-2.50000
G0 Z2.00000

G0 X21.03578 Y42.48614
G1 Z-2.50000
G0 Z2.00000

G0 X16.64666 Y37.67538
G1 Z-2.50000
G0 Z2.00000

G0 X14.64514 Y34.81534
G1 Z-2.50000
G0 Z2.00000

G0 X14.64514 Y32.27534
G1 Z-2.50000
G0 Z2.00000

G0 X14.64514 Y29.73534
G1 Z-2.50000
G0 Z2.00000

G0 X14.64514 Y27.19534
G1 Z-2.50000
G0 Z2.00000

G0 X14.64514 Y24.65534
G1 Z-2.50000
G0 Z2.00000

G0 X14.64514 Y22.11534
G1 Z-2.50000
G0 Z2.00000

G0 X14.64514 Y19.57534
G1 Z-2.50000
G0 Z2.00000

G0 X14.64514 Y17.03534
G1 Z-2.50000
G0 Z2.00000

G0 X14.64514 Y14.49534
G1 Z-2.50000
G0 Z2.00000

G0 X14.64514 Y11.95534
G1 Z-2.50000
G0 Z2.00000

G0 X14.64514 Y9.41534
G1 Z-2.50000
G0 Z2.00000

G0 X14.64514 Y6.87534
G1 Z-2.50000
G0 Z2.00000

G0 X29.88514 Y6.87534
G1 Z-2.50000
G0 Z2.00000

G0 X29.88514 Y9.41534
G1 Z-2.50000
G0 Z2.00000

G0 X29.88514 Y11.95534
G1 Z-2.50000
G0 Z2.00000

G0 X29.88514 Y14.49534
G1 Z-2.50000
G0 Z2.00000

G0 X29.88514 Y17.03534
G1 Z-2.50000
G0 Z2.00000

G0 X29.88514 Y19.57534
G1 Z-2.50000
G0 Z2.00000

G0 X29.88514 Y22.11534
G1 Z-2.50000
G0 Z2.00000

G0 X29.88514 Y24.65534
G1 Z-2.50000
G0 Z2.00000

G0 X29.88514 Y27.19534
G1 Z-2.50000
G0 Z2.00000

G0 X29.88514 Y29.73534
G1 Z-2.50000
G0 Z2.00000

G0 X29.88514 Y32.27534
G1 Z-2.50000
G0 Z2.00000

G0 X29.88514 Y34.81534
G1 Z-2.50000
G0 Z2.00000

G0 X26.80666 Y37.67538
G1 Z-2.50000
G0 Z2.00000

G0 X35.58490 Y37.68554
G1 Z-2.50000
G0 Z2.00000

G0 X43.64686 Y38.03606
G1 Z-2.50000
G0 Z2.00000

G0 X42.77056 Y44.87120
G1 Z-2.50000
G0 Z2.00000

G0 X53.80686 Y38.03606
G1 Z-2.50000
G0 Z2.00000

G0 X53.64684 Y30.03506
G1 Z-2.50000
G0 Z2.00000

G0 X53.80686 Y22.03660
G1 Z-2.50000
G0 Z2.00000

G0 X43.64686 Y22.03660
G1 Z-2.50000
G0 Z2.00000

G0 X43.48684 Y30.03506
G1 Z-2.50000
G0 Z2.00000

G0 X5.90500 Y30.00458
G1 Z-2.50000
G0 Z2.00000

G0 X5.62560 Y11.40670
G1 Z-2.50000
G0 Z2.00000

G0 X5.62560 Y13.94670
G1 Z-2.50000
G0 Z2.00000

G0 X5.62560 Y16.48670
G1 Z-2.50000
G0 Z2.00000

G0 X5.62560 Y19.02670
G1 Z-2.50000
G0 Z2.00000

G0 X5.62560 Y21.56670
G1 Z-2.50000
G0 Z2.00000

G0 X5.62560 Y24.10670
G1 Z-2.50000
G0 Z2.00000

G0 X9.77596 Y24.77472
G1 Z-2.50000
G0 Z2.00000

G0 X9.77596 Y27.31472
G1 Z-2.50000
G0 Z2.00000

G0 X9.77596 Y29.85472
G1 Z-2.50000
G0 Z2.00000

G0 X9.77596 Y32.39472
G1 Z-2.50000
G0 Z2.00000

G0 X9.77596 Y34.93472
G1 Z-2.50000
G0 Z2.00000

G0 X9.77596 Y37.47472
G1 Z-2.50000
G0 Z2.00000

G0 X26.77618 Y40.75640
G1 Z-2.50000
G0 Z2.00000

G0 X29.31618 Y40.75640
G1 Z-2.50000
G0 Z2.00000

G0 X37.10636 Y34.03556
G1 Z-2.50000
G0 Z2.00000

G0 X39.64636 Y34.03556
G1 Z-2.50000
G0 Z2.00000

G0 X42.18636 Y34.03556
G1 Z-2.50000
G0 Z2.00000

G0 X44.72636 Y34.03556
G1 Z-2.50000
G0 Z2.00000

G0 X47.26636 Y34.03556
G1 Z-2.50000
G0 Z2.00000

G0 X49.80636 Y34.03556
G1 Z-2.50000
G0 Z2.00000

G0 X49.64634 Y26.03456
G1 Z-2.50000
G0 Z2.00000

G0 X47.10634 Y26.03456
G1 Z-2.50000
G0 Z2.00000

G0 X44.56634 Y26.03456
G1 Z-2.50000
G0 Z2.00000

G0 X42.02634 Y26.03456
G1 Z-2.50000
G0 Z2.00000

G0 X39.48634 Y26.03456
G1 Z-2.50000
G0 Z2.00000

G0 X36.94634 Y26.03456
G1 Z-2.50000
G0 Z2.00000

G0 X36.48660 Y18.03610
G1 Z-2.50000
G0 Z2.00000

G0 X39.02660 Y18.03610
G1 Z-2.50000
G0 Z2.00000

G0 X41.56660 Y18.03610
G1 Z-2.50000
G0 Z2.00000

G0 X44.10660 Y18.03610
G1 Z-2.50000
G0 Z2.00000

G0 X46.64660 Y18.03610
G1 Z-2.50000
G0 Z2.00000

G0 X49.18660 Y18.03610
G1 Z-2.50000
G0 Z2.00000

G0 X48.81576 Y7.16490
G1 Z-2.50000
G0 Z2.00000

G0 X46.27576 Y7.16490
G1 Z-2.50000
G0 Z2.00000

G0 X43.73576 Y7.16490
G1 Z-2.50000
G0 Z2.00000

G0 X41.19576 Y7.16490
G1 Z-2.50000
G0 Z2.00000

G0 X38.65576 Y7.16490
G1 Z-2.50000
G0 Z2.00000

G0 X38.61512 Y3.49460
G1 Z-2.50000
G0 Z2.00000

G0 X41.15512 Y3.49460
G1 Z-2.50000
G0 Z2.00000

G0 X43.69512 Y3.49460
G1 Z-2.50000
G0 Z2.00000

G0 X46.23512 Y3.49460
G1 Z-2.50000
G0 Z2.00000

G0 X48.77512 Y3.49460
G1 Z-2.50000
G0 Z2.00000

G0 X51.31512 Y3.49460
G1 Z-2.50000
G0 Z2.00000

G0 X51.35576 Y7.16490
G1 Z-2.50000
G0 Z2.00000

G00 Z10.000 ( All done -- retract )

M5      (Spindle off.)
M9      (Coolant off.)
M2      (Program end.)

