( pcb2gcode 1.1.4 )

G94     ( Inches per minute feed rate. )
G20     ( Units == INCHES.             )
G90     ( Absolute coordinates.        )
S7000  ( RPM spindle speed.           )
M3      ( Spindle on clockwise.        )

G64 P0.00500 ( set maximum deviation from commanded toolpath )

G04 P0 ( dwell for no time -- G64 should not smooth over this point )
G00 Z10.00000 ( retract )

G00 X2.95053 Y-3.35378 ( rapid move to begin. )
G01 Z1.00000 F1.00000 ( plunge. )
G04 P0 ( dwell for no time -- G64 should not smooth over this point )
X2.95053 Y-3.35378
X2.95053 Y-3.37778
X2.95153 Y-3.37778
X2.95153 Y-3.38178
X2.95253 Y-3.38178
X2.95253 Y-3.38278
X2.95353 Y-3.38278
X2.95353 Y-3.38378
X2.95453 Y-3.38378
X2.95453 Y-3.38478
X2.95553 Y-3.38478
X2.95553 Y-3.38578
X2.95753 Y-3.38578
X2.95753 Y-3.48578
X2.95853 Y-3.48578
X2.95853 Y-3.48778
X2.95953 Y-3.48778
X2.95953 Y-3.48878
X2.96053 Y-3.48878
X2.96053 Y-3.48978
X2.96153 Y-3.48978
X2.96153 Y-3.49078
X2.96253 Y-3.49078
X2.96253 Y-3.49178
X2.96353 Y-3.49178
X2.96353 Y-3.49278
X2.96453 Y-3.49278
X2.96453 Y-3.49378
X2.96553 Y-3.49378
X2.96553 Y-3.49478
X2.96653 Y-3.49478
X2.96653 Y-3.49578
X2.96753 Y-3.49578
X2.96753 Y-3.49678
X2.96853 Y-3.49678
X2.96853 Y-3.49778
X2.96953 Y-3.49778
X2.96953 Y-3.49878
X2.97053 Y-3.49878
X2.97053 Y-3.49978
X2.97153 Y-3.49978
X2.97153 Y-3.50078
X2.97253 Y-3.50078
X2.97253 Y-3.50178
X2.97353 Y-3.50178
X2.97353 Y-3.50278
X2.97453 Y-3.50278
X2.97453 Y-3.50378
X2.97553 Y-3.50378
X2.97553 Y-3.50478
X2.97653 Y-3.50478
X2.97653 Y-3.50578
X2.97753 Y-3.50578
X2.97753 Y-3.50678
X2.97853 Y-3.50678
X2.97853 Y-3.50778
X2.97953 Y-3.50778
X2.97953 Y-3.50878
X2.98053 Y-3.50878
X2.98053 Y-3.50978
X2.98153 Y-3.50978
X2.98153 Y-3.51078
X2.98253 Y-3.51078
X2.98253 Y-3.51178
X2.98353 Y-3.51178
X2.98353 Y-3.51278
X2.98453 Y-3.51278
X2.98453 Y-3.51378
X2.98553 Y-3.51378
X2.98553 Y-3.51478
X2.98653 Y-3.51478
X2.98653 Y-3.51578
X2.98753 Y-3.51578
X2.98753 Y-3.51678
X2.98853 Y-3.51678
X2.98853 Y-3.51778
X2.98953 Y-3.51778
X2.98953 Y-3.51878
X2.99053 Y-3.51878
X2.99053 Y-3.51978
X2.99153 Y-3.51978
X2.99153 Y-3.52078
X2.99253 Y-3.52078
X2.99253 Y-3.52178
X2.99353 Y-3.52178
X2.99353 Y-3.52278
X2.99453 Y-3.52278
X2.99453 Y-3.52378
X2.99553 Y-3.52378
X2.99553 Y-3.52478
X2.99653 Y-3.52478
X2.99653 Y-3.52578
X2.99753 Y-3.52578
X2.99753 Y-3.52678
X2.99853 Y-3.52678
X2.99853 Y-3.52778
X2.99953 Y-3.52778
X2.99953 Y-3.52878
X3.00053 Y-3.52878
X3.00053 Y-3.52978
X3.00153 Y-3.52978
X3.00153 Y-3.53078
X3.00253 Y-3.53078
X3.00253 Y-3.53178
X3.00353 Y-3.53178
X3.00353 Y-3.53278
X3.00453 Y-3.53278
X3.00453 Y-3.53378
X3.00553 Y-3.53378
X3.00553 Y-3.53478
X3.00653 Y-3.53478
X3.00653 Y-3.53578
X3.00753 Y-3.53578
X3.00753 Y-3.53678
X3.00853 Y-3.53678
X3.00853 Y-3.53778
X3.00953 Y-3.53778
X3.00953 Y-3.53878
X3.01053 Y-3.53878
X3.01053 Y-3.53978
X3.01153 Y-3.53978
X3.01153 Y-3.54078
X3.01253 Y-3.54078
X3.01253 Y-3.54178
X3.01353 Y-3.54178
X3.01353 Y-3.54278
X3.01453 Y-3.54278
X3.01453 Y-3.54378
X3.01553 Y-3.54378
X3.01553 Y-3.54478
X3.01653 Y-3.54478
X3.01653 Y-3.54578
X3.01753 Y-3.54578
X3.01753 Y-3.54678
X3.01853 Y-3.54678
X3.01853 Y-3.54778
X3.01953 Y-3.54778
X3.01953 Y-3.54878
X3.02053 Y-3.54878
X3.02053 Y-3.54978
X3.02153 Y-3.54978
X3.02153 Y-3.55078
X3.02253 Y-3.55078
X3.02253 Y-3.55178
X3.02353 Y-3.55178
X3.02353 Y-3.55278
X3.02453 Y-3.55278
X3.02453 Y-3.55378
X3.02553 Y-3.55378
X3.02553 Y-3.55478
X3.02653 Y-3.55478
X3.02653 Y-3.55578
X3.02753 Y-3.55578
X3.02753 Y-3.55678
X3.02853 Y-3.55678
X3.02853 Y-3.55778
X3.02953 Y-3.55778
X3.02953 Y-3.55878
X3.03053 Y-3.55878
X3.03053 Y-3.55978
X3.03153 Y-3.55978
X3.03153 Y-3.56078
X3.03253 Y-3.56078
X3.03253 Y-3.56178
X3.03353 Y-3.56178
X3.03353 Y-3.56278
X3.03453 Y-3.56278
X3.03453 Y-3.56378
X3.03553 Y-3.56378
X3.03553 Y-3.56478
X3.03653 Y-3.56478
X3.03653 Y-3.56578
X3.03753 Y-3.56578
X3.03753 Y-3.56678
X3.03853 Y-3.56678
X3.03853 Y-3.56778
X3.03953 Y-3.56778
X3.03953 Y-3.56878
X3.04053 Y-3.56878
X3.04053 Y-3.56978
X3.04153 Y-3.56978
X3.04153 Y-3.57078
X3.04253 Y-3.57078
X3.04253 Y-3.57178
X3.04353 Y-3.57178
X3.04353 Y-3.57278
X3.04453 Y-3.57278
X3.04453 Y-3.57378
X3.04553 Y-3.57378
X3.04553 Y-3.57478
X3.04653 Y-3.57478
X3.04653 Y-3.57578
X3.04753 Y-3.57578
X3.04753 Y-3.57678
X3.04853 Y-3.57678
X3.04853 Y-3.57778
X3.04953 Y-3.57778
X3.04953 Y-3.57878
X3.05053 Y-3.57878
X3.05053 Y-3.57978
X3.05153 Y-3.57978
X3.05153 Y-3.58078
X3.05253 Y-3.58078
X3.05253 Y-3.58178
X3.05353 Y-3.58178
X3.05353 Y-3.58278
X3.05453 Y-3.58278
X3.05453 Y-3.58378
X3.05553 Y-3.58378
X3.05553 Y-3.58478
X3.05653 Y-3.58478
X3.05653 Y-3.58578
X3.05753 Y-3.58578
X3.05753 Y-3.58678
X3.05853 Y-3.58678
X3.05853 Y-3.58778
X3.05953 Y-3.58778
X3.05953 Y-3.58878
X3.06053 Y-3.58878
X3.06053 Y-3.58978
X3.06153 Y-3.58978
X3.06153 Y-3.59078
X3.06253 Y-3.59078
X3.06253 Y-3.59178
X3.06353 Y-3.59178
X3.06353 Y-3.59278
X3.06453 Y-3.59278
X3.06453 Y-3.59378
X3.06553 Y-3.59378
X3.06553 Y-3.59478
X3.06653 Y-3.59478
X3.06653 Y-3.59578
X3.06753 Y-3.59578
X3.06753 Y-3.59678
X3.06853 Y-3.59678
X3.06853 Y-3.59778
X3.06953 Y-3.59778
X3.06953 Y-3.59878
X3.07053 Y-3.59878
X3.07053 Y-3.59978
X3.07153 Y-3.59978
X3.07153 Y-3.60078
X3.07253 Y-3.60078
X3.07253 Y-3.60178
X3.07353 Y-3.60178
X3.07353 Y-3.60278
X3.07453 Y-3.60278
X3.07453 Y-3.60378
X3.07553 Y-3.60378
X3.07553 Y-3.60478
X3.07653 Y-3.60478
X3.07653 Y-3.60578
X3.07753 Y-3.60578
X3.07753 Y-3.60678
X3.07853 Y-3.60678
X3.07853 Y-3.60778
X3.07953 Y-3.60778
X3.07953 Y-3.60878
X3.08053 Y-3.60878
X3.08053 Y-3.60978
X3.08153 Y-3.60978
X3.08153 Y-3.61078
X3.08253 Y-3.61078
X3.08253 Y-3.61178
X3.08353 Y-3.61178
X3.08353 Y-3.61278
X3.08453 Y-3.61278
X3.08453 Y-3.61378
X3.08553 Y-3.61378
X3.08553 Y-3.61478
X3.08653 Y-3.61478
X3.08653 Y-3.61578
X3.08753 Y-3.61578
X3.08753 Y-3.61678
X3.08853 Y-3.61678
X3.08853 Y-3.61778
X3.08953 Y-3.61778
X3.08953 Y-3.61878
X3.09053 Y-3.61878
X3.09053 Y-3.61978
X3.09153 Y-3.61978
X3.09153 Y-3.62078
X3.09253 Y-3.62078
X3.09253 Y-3.62178
X3.09353 Y-3.62178
X3.09353 Y-3.62278
X3.09453 Y-3.62278
X3.09453 Y-3.62378
X3.09553 Y-3.62378
X3.09553 Y-3.62478
X3.09653 Y-3.62478
X3.09653 Y-3.62578
X3.09753 Y-3.62578
X3.09753 Y-3.62678
X3.09853 Y-3.62678
X3.09853 Y-3.62778
X3.09953 Y-3.62778
X3.09953 Y-3.62878
X3.10053 Y-3.62878
X3.10053 Y-3.62978
X3.10153 Y-3.62978
X3.10153 Y-3.63078
X3.10253 Y-3.63078
X3.10253 Y-3.63178
X3.10353 Y-3.63178
X3.10353 Y-3.63278
X3.10453 Y-3.63278
X3.10453 Y-3.63378
X3.10553 Y-3.63378
X3.10553 Y-3.63478
X3.10653 Y-3.63478
X3.10653 Y-3.63578
X3.10753 Y-3.63578
X3.10753 Y-3.63678
X3.10853 Y-3.63678
X3.10853 Y-3.63778
X3.10953 Y-3.63778
X3.10953 Y-3.63878
X3.11053 Y-3.63878
X3.11053 Y-3.63978
X3.11153 Y-3.63978
X3.11153 Y-3.64078
X3.11253 Y-3.64078
X3.11253 Y-3.64178
X3.11353 Y-3.64178
X3.11353 Y-3.64278
X3.11453 Y-3.64278
X3.11453 Y-3.64378
X3.11553 Y-3.64378
X3.11553 Y-3.64478
X3.11653 Y-3.64478
X3.11653 Y-3.64578
X3.11753 Y-3.64578
X3.11753 Y-3.64678
X3.11853 Y-3.64678
X3.11853 Y-3.64778
X3.11953 Y-3.64778
X3.11953 Y-3.64878
X3.12053 Y-3.64878
X3.12053 Y-3.64978
X3.12153 Y-3.64978
X3.12153 Y-3.65078
X3.12253 Y-3.65078
X3.12253 Y-3.65178
X3.12353 Y-3.65178
X3.12353 Y-3.65278
X3.12453 Y-3.65278
X3.12453 Y-3.65378
X3.12553 Y-3.65378
X3.12553 Y-3.65478
X3.12653 Y-3.65478
X3.12653 Y-3.65578
X3.12753 Y-3.65578
X3.12753 Y-3.65678
X3.12853 Y-3.65678
X3.12853 Y-3.65778
X3.12953 Y-3.65778
X3.12953 Y-3.65878
X3.13053 Y-3.65878
X3.13053 Y-3.65978
X3.13153 Y-3.65978
X3.13153 Y-3.66078
X3.13253 Y-3.66078
X3.13253 Y-3.66178
X3.13353 Y-3.66178
X3.13353 Y-3.66278
X3.13453 Y-3.66278
X3.13453 Y-3.66378
X3.13553 Y-3.66378
X3.13553 Y-3.66478
X3.13653 Y-3.66478
X3.13653 Y-3.66578
X3.13753 Y-3.66578
X3.13753 Y-3.66678
X3.13853 Y-3.66678
X3.13853 Y-3.66778
X3.13953 Y-3.66778
X3.13953 Y-3.66878
X3.14053 Y-3.66878
X3.14053 Y-3.66978
X3.14153 Y-3.66978
X3.14153 Y-3.67078
X3.14253 Y-3.67078
X3.14253 Y-3.67178
X3.14353 Y-3.67178
X3.14353 Y-3.67278
X3.14453 Y-3.67278
X3.14453 Y-3.67378
X3.14553 Y-3.67378
X3.14553 Y-3.67478
X3.14653 Y-3.67478
X3.14653 Y-3.67578
X3.14753 Y-3.67578
X3.14753 Y-3.67678
X3.14853 Y-3.67678
X3.14853 Y-3.67778
X3.14953 Y-3.67778
X3.14953 Y-3.67878
X3.15053 Y-3.67878
X3.15053 Y-3.67978
X3.15153 Y-3.67978
X3.15153 Y-3.68078
X3.15253 Y-3.68078
X3.15253 Y-3.70678
X3.26553 Y-3.70678
X3.26553 Y-3.65378
X3.18153 Y-3.65378
X3.18153 Y-3.65278
X3.18053 Y-3.65278
X3.18053 Y-3.65178
X3.17953 Y-3.65178
X3.17953 Y-3.65078
X3.17853 Y-3.65078
X3.17853 Y-3.64978
X3.17753 Y-3.64978
X3.17753 Y-3.64878
X3.17653 Y-3.64878
X3.17653 Y-3.64778
X3.17553 Y-3.64778
X3.17553 Y-3.64678
X3.17453 Y-3.64678
X3.17453 Y-3.64578
X3.17353 Y-3.64578
X3.17353 Y-3.64478
X3.17253 Y-3.64478
X3.17253 Y-3.64378
X3.17153 Y-3.64378
X3.17153 Y-3.64278
X3.17053 Y-3.64278
X3.17053 Y-3.64178
X3.16953 Y-3.64178
X3.16953 Y-3.64078
X3.16853 Y-3.64078
X3.16853 Y-3.63978
X3.16753 Y-3.63978
X3.16753 Y-3.63878
X3.16653 Y-3.63878
X3.16653 Y-3.63778
X3.16553 Y-3.63778
X3.16553 Y-3.63678
X3.16453 Y-3.63678
X3.16453 Y-3.63578
X3.16353 Y-3.63578
X3.16353 Y-3.63478
X3.16253 Y-3.63478
X3.16253 Y-3.63378
X3.16153 Y-3.63378
X3.16153 Y-3.63278
X3.16053 Y-3.63278
X3.16053 Y-3.63178
X3.15953 Y-3.63178
X3.15953 Y-3.63078
X3.15853 Y-3.63078
X3.15853 Y-3.62978
X3.15753 Y-3.62978
X3.15753 Y-3.62878
X3.15653 Y-3.62878
X3.15653 Y-3.62778
X3.15553 Y-3.62778
X3.15553 Y-3.62678
X3.15453 Y-3.62678
X3.15453 Y-3.62578
X3.15353 Y-3.62578
X3.15353 Y-3.62478
X3.15253 Y-3.62478
X3.15253 Y-3.62378
X3.15153 Y-3.62378
X3.15153 Y-3.62278
X3.15053 Y-3.62278
X3.15053 Y-3.62178
X3.14953 Y-3.62178
X3.14953 Y-3.62078
X3.14853 Y-3.62078
X3.14853 Y-3.61978
X3.14753 Y-3.61978
X3.14753 Y-3.61878
X3.14653 Y-3.61878
X3.14653 Y-3.61778
X3.14553 Y-3.61778
X3.14553 Y-3.61678
X3.14453 Y-3.61678
X3.14453 Y-3.61578
X3.14353 Y-3.61578
X3.14353 Y-3.61478
X3.14253 Y-3.61478
X3.14253 Y-3.61378
X3.14153 Y-3.61378
X3.14153 Y-3.61278
X3.14053 Y-3.61278
X3.14053 Y-3.61178
X3.13953 Y-3.61178
X3.13953 Y-3.61078
X3.13853 Y-3.61078
X3.13853 Y-3.60978
X3.13753 Y-3.60978
X3.13753 Y-3.60878
X3.13653 Y-3.60878
X3.13653 Y-3.60778
X3.13553 Y-3.60778
X3.13553 Y-3.60678
X3.13453 Y-3.60678
X3.13453 Y-3.60578
X3.13353 Y-3.60578
X3.13353 Y-3.60478
X3.13253 Y-3.60478
X3.13253 Y-3.60378
X3.13153 Y-3.60378
X3.13153 Y-3.60278
X3.13053 Y-3.60278
X3.13053 Y-3.60178
X3.12953 Y-3.60178
X3.12953 Y-3.60078
X3.12853 Y-3.60078
X3.12853 Y-3.59978
X3.12753 Y-3.59978
X3.12753 Y-3.59878
X3.12653 Y-3.59878
X3.12653 Y-3.59778
X3.12553 Y-3.59778
X3.12553 Y-3.59678
X3.12453 Y-3.59678
X3.12453 Y-3.59578
X3.12353 Y-3.59578
X3.12353 Y-3.59478
X3.12253 Y-3.59478
X3.12253 Y-3.59378
X3.12153 Y-3.59378
X3.12153 Y-3.59278
X3.12053 Y-3.59278
X3.12053 Y-3.59178
X3.11953 Y-3.59178
X3.11953 Y-3.59078
X3.11853 Y-3.59078
X3.11853 Y-3.58978
X3.11753 Y-3.58978
X3.11753 Y-3.58878
X3.11653 Y-3.58878
X3.11653 Y-3.58778
X3.11553 Y-3.58778
X3.11553 Y-3.58678
X3.11453 Y-3.58678
X3.11453 Y-3.58578
X3.11353 Y-3.58578
X3.11353 Y-3.58478
X3.11253 Y-3.58478
X3.11253 Y-3.58378
X3.11153 Y-3.58378
X3.11153 Y-3.58278
X3.11053 Y-3.58278
X3.11053 Y-3.58178
X3.10953 Y-3.58178
X3.10953 Y-3.58078
X3.10853 Y-3.58078
X3.10853 Y-3.57978
X3.10753 Y-3.57978
X3.10753 Y-3.57878
X3.10653 Y-3.57878
X3.10653 Y-3.57778
X3.10553 Y-3.57778
X3.10553 Y-3.57678
X3.10453 Y-3.57678
X3.10453 Y-3.57578
X3.10353 Y-3.57578
X3.10353 Y-3.57478
X3.10253 Y-3.57478
X3.10253 Y-3.57378
X3.10153 Y-3.57378
X3.10153 Y-3.57278
X3.10053 Y-3.57278
X3.10053 Y-3.57178
X3.09953 Y-3.57178
X3.09953 Y-3.57078
X3.09853 Y-3.57078
X3.09853 Y-3.56978
X3.09753 Y-3.56978
X3.09753 Y-3.56878
X3.09653 Y-3.56878
X3.09653 Y-3.56778
X3.09553 Y-3.56778
X3.09553 Y-3.56678
X3.09453 Y-3.56678
X3.09453 Y-3.56578
X3.09353 Y-3.56578
X3.09353 Y-3.56478
X3.09253 Y-3.56478
X3.09253 Y-3.56378
X3.09153 Y-3.56378
X3.09153 Y-3.56278
X3.09053 Y-3.56278
X3.09053 Y-3.56178
X3.08953 Y-3.56178
X3.08953 Y-3.56078
X3.08853 Y-3.56078
X3.08853 Y-3.55978
X3.08753 Y-3.55978
X3.08753 Y-3.55878
X3.08653 Y-3.55878
X3.08653 Y-3.55778
X3.08553 Y-3.55778
X3.08553 Y-3.55678
X3.08453 Y-3.55678
X3.08453 Y-3.55578
X3.08353 Y-3.55578
X3.08353 Y-3.55478
X3.08253 Y-3.55478
X3.08253 Y-3.55378
X3.08153 Y-3.55378
X3.08153 Y-3.55278
X3.08053 Y-3.55278
X3.08053 Y-3.55178
X3.07953 Y-3.55178
X3.07953 Y-3.55078
X3.07853 Y-3.55078
X3.07853 Y-3.54978
X3.07753 Y-3.54978
X3.07753 Y-3.54878
X3.07653 Y-3.54878
X3.07653 Y-3.54778
X3.07553 Y-3.54778
X3.07553 Y-3.54678
X3.07453 Y-3.54678
X3.07453 Y-3.54578
X3.07353 Y-3.54578
X3.07353 Y-3.54478
X3.07253 Y-3.54478
X3.07253 Y-3.54378
X3.07153 Y-3.54378
X3.07153 Y-3.54278
X3.07053 Y-3.54278
X3.07053 Y-3.54178
X3.06953 Y-3.54178
X3.06953 Y-3.54078
X3.06853 Y-3.54078
X3.06853 Y-3.53978
X3.06753 Y-3.53978
X3.06753 Y-3.53878
X3.06653 Y-3.53878
X3.06653 Y-3.53778
X3.06553 Y-3.53778
X3.06553 Y-3.53678
X3.06453 Y-3.53678
X3.06453 Y-3.53578
X3.06353 Y-3.53578
X3.06353 Y-3.53478
X3.06253 Y-3.53478
X3.06253 Y-3.53378
X3.06153 Y-3.53378
X3.06153 Y-3.53278
X3.06053 Y-3.53278
X3.06053 Y-3.53178
X3.05953 Y-3.53178
X3.05953 Y-3.53078
X3.05853 Y-3.53078
X3.05853 Y-3.52978
X3.05753 Y-3.52978
X3.05753 Y-3.52878
X3.05653 Y-3.52878
X3.05653 Y-3.52778
X3.05553 Y-3.52778
X3.05553 Y-3.52678
X3.05453 Y-3.52678
X3.05453 Y-3.52578
X3.05353 Y-3.52578
X3.05353 Y-3.52478
X3.05253 Y-3.52478
X3.05253 Y-3.52378
X3.05153 Y-3.52378
X3.05153 Y-3.52278
X3.05053 Y-3.52278
X3.05053 Y-3.52178
X3.04953 Y-3.52178
X3.04953 Y-3.52078
X3.04853 Y-3.52078
X3.04853 Y-3.51978
X3.04753 Y-3.51978
X3.04753 Y-3.51878
X3.04653 Y-3.51878
X3.04653 Y-3.51778
X3.04553 Y-3.51778
X3.04553 Y-3.51678
X3.04453 Y-3.51678
X3.04453 Y-3.51578
X3.04353 Y-3.51578
X3.04353 Y-3.51478
X3.04253 Y-3.51478
X3.04253 Y-3.51378
X3.04153 Y-3.51378
X3.04153 Y-3.51278
X3.04053 Y-3.51278
X3.04053 Y-3.51178
X3.03953 Y-3.51178
X3.03953 Y-3.51078
X3.03853 Y-3.51078
X3.03853 Y-3.50978
X3.03753 Y-3.50978
X3.03753 Y-3.50878
X3.03653 Y-3.50878
X3.03653 Y-3.50778
X3.03553 Y-3.50778
X3.03553 Y-3.50678
X3.03453 Y-3.50678
X3.03453 Y-3.50578
X3.03353 Y-3.50578
X3.03353 Y-3.50478
X3.03253 Y-3.50478
X3.03253 Y-3.50378
X3.03153 Y-3.50378
X3.03153 Y-3.50278
X3.03053 Y-3.50278
X3.03053 Y-3.50178
X3.02953 Y-3.50178
X3.02953 Y-3.50078
X3.02853 Y-3.50078
X3.02853 Y-3.49978
X3.02753 Y-3.49978
X3.02753 Y-3.49878
X3.02653 Y-3.49878
X3.02653 Y-3.49778
X3.02553 Y-3.49778
X3.02553 Y-3.49678
X3.02453 Y-3.49678
X3.02453 Y-3.49578
X3.02353 Y-3.49578
X3.02353 Y-3.49478
X3.02253 Y-3.49478
X3.02253 Y-3.49378
X3.02153 Y-3.49378
X3.02153 Y-3.49278
X3.02053 Y-3.49278
X3.02053 Y-3.49178
X3.01953 Y-3.49178
X3.01953 Y-3.49078
X3.01853 Y-3.49078
X3.01853 Y-3.48978
X3.01753 Y-3.48978
X3.01753 Y-3.48878
X3.01653 Y-3.48878
X3.01653 Y-3.48778
X3.01553 Y-3.48778
X3.01553 Y-3.48678
X3.01453 Y-3.48678
X3.01453 Y-3.48578
X3.01353 Y-3.48578
X3.01353 Y-3.48478
X3.01253 Y-3.48478
X3.01253 Y-3.48378
X3.01153 Y-3.48378
X3.01153 Y-3.48278
X3.01053 Y-3.48278
X3.01053 Y-3.48178
X3.00953 Y-3.48178
X3.00953 Y-3.48078
X3.00853 Y-3.48078
X3.00853 Y-3.47978
X3.00753 Y-3.47978
X3.00753 Y-3.47878
X3.00653 Y-3.47878
X3.00653 Y-3.47778
X3.00553 Y-3.47778
X3.00553 Y-3.47678
X3.00453 Y-3.47678
X3.00453 Y-3.47578
X3.00353 Y-3.47578
X3.00353 Y-3.47478
X3.00253 Y-3.47478
X3.00253 Y-3.47378
X3.00153 Y-3.47378
X3.00153 Y-3.47278
X3.00053 Y-3.47278
X3.00053 Y-3.47178
X2.99953 Y-3.47178
X2.99953 Y-3.47078
X2.99853 Y-3.47078
X2.99853 Y-3.46978
X2.99753 Y-3.46978
X2.99753 Y-3.46878
X2.99653 Y-3.46878
X2.99653 Y-3.46778
X2.99553 Y-3.46778
X2.99553 Y-3.46678
X2.99453 Y-3.46678
X2.99453 Y-3.46578
X2.99353 Y-3.46578
X2.99353 Y-3.46478
X2.99253 Y-3.46478
X2.99253 Y-3.46378
X2.99153 Y-3.46378
X2.99153 Y-3.46278
X2.99053 Y-3.46278
X2.99053 Y-3.46178
X2.98953 Y-3.46178
X2.98953 Y-3.46078
X2.98853 Y-3.46078
X2.98853 Y-3.38578
X2.99053 Y-3.38578
X2.99053 Y-3.38478
X2.99153 Y-3.38478
X2.99153 Y-3.38378
X2.99253 Y-3.38378
X2.99253 Y-3.38278
X2.99353 Y-3.38278
X2.99353 Y-3.38178
X2.99453 Y-3.38178
X2.99453 Y-3.37778
X2.99553 Y-3.37778
X2.99553 Y-3.35278
X2.99453 Y-3.35278
X2.99453 Y-3.34878
X2.99353 Y-3.34878
X2.99353 Y-3.34778
X2.99253 Y-3.34778
X2.99253 Y-3.34678
X2.99153 Y-3.34678
X2.99153 Y-3.34578
X2.99053 Y-3.34578
X2.99053 Y-3.34478
X2.98853 Y-3.34478
X2.98853 Y-3.34378
X2.98553 Y-3.34378
X2.98553 Y-3.34278
X2.96053 Y-3.34278
X2.96053 Y-3.34378
X2.95753 Y-3.34378
X2.95753 Y-3.34478
X2.95553 Y-3.34478
X2.95553 Y-3.34578
X2.95453 Y-3.34578
X2.95453 Y-3.34678
X2.95353 Y-3.34678
X2.95353 Y-3.34778
X2.95253 Y-3.34778
X2.95253 Y-3.34878
X2.95153 Y-3.34878
X2.95153 Y-3.35278
X2.95053 Y-3.35278
X2.95053 Y-3.35378
G04 P0 ( dwell for no time -- G64 should not smooth over this point )
G00 Z10.00000 ( retract )

G00 X3.26553 Y-3.51078 ( rapid move to begin. )
G01 Z1.00000 F1.00000 ( plunge. )
G04 P0 ( dwell for no time -- G64 should not smooth over this point )
X3.26553 Y-3.51078
X3.26553 Y-3.53478
X3.26653 Y-3.53478
X3.26653 Y-3.53878
X3.26753 Y-3.53878
X3.26753 Y-3.53978
X3.26853 Y-3.53978
X3.26853 Y-3.54078
X3.26953 Y-3.54078
X3.26953 Y-3.54178
X3.27053 Y-3.54178
X3.27053 Y-3.54278
X3.27253 Y-3.54278
X3.27253 Y-3.71278
X3.27353 Y-3.71278
X3.27353 Y-3.71478
X3.27453 Y-3.71478
X3.27453 Y-3.71578
X3.27653 Y-3.71578
X3.27653 Y-3.71678
X3.27753 Y-3.71678
X3.27753 Y-3.71778
X3.27853 Y-3.71778
X3.27853 Y-3.71878
X3.27953 Y-3.71878
X3.27953 Y-3.71978
X3.28053 Y-3.71978
X3.28053 Y-3.72078
X3.28153 Y-3.72078
X3.28153 Y-3.72178
X3.28253 Y-3.72178
X3.28253 Y-3.72278
X3.28353 Y-3.72278
X3.28353 Y-3.72378
X3.28453 Y-3.72378
X3.28453 Y-3.72478
X3.28553 Y-3.72478
X3.28553 Y-3.72578
X3.28653 Y-3.72578
X3.28653 Y-3.73278
X3.24553 Y-3.73278
X3.24553 Y-3.78578
X3.35853 Y-3.78578
X3.35853 Y-3.73278
X3.31753 Y-3.73278
X3.31753 Y-3.70078
X3.31653 Y-3.70078
X3.31653 Y-3.69878
X3.31553 Y-3.69878
X3.31553 Y-3.69778
X3.31353 Y-3.69778
X3.31353 Y-3.69678
X3.31253 Y-3.69678
X3.31253 Y-3.69578
X3.31153 Y-3.69578
X3.31153 Y-3.69478
X3.31053 Y-3.69478
X3.31053 Y-3.69378
X3.30953 Y-3.69378
X3.30953 Y-3.69278
X3.30853 Y-3.69278
X3.30853 Y-3.69178
X3.30753 Y-3.69178
X3.30753 Y-3.69078
X3.30653 Y-3.69078
X3.30653 Y-3.68978
X3.30553 Y-3.68978
X3.30553 Y-3.68878
X3.30453 Y-3.68878
X3.30453 Y-3.68778
X3.30353 Y-3.68778
X3.30353 Y-3.54278
X3.30553 Y-3.54278
X3.30553 Y-3.54178
X3.30653 Y-3.54178
X3.30653 Y-3.54078
X3.30753 Y-3.54078
X3.30753 Y-3.53978
X3.30853 Y-3.53978
X3.30853 Y-3.53878
X3.30953 Y-3.53878
X3.30953 Y-3.53478
X3.31053 Y-3.53478
X3.31053 Y-3.50978
X3.30953 Y-3.50978
X3.30953 Y-3.50578
X3.30853 Y-3.50578
X3.30853 Y-3.50478
X3.30753 Y-3.50478
X3.30753 Y-3.50378
X3.30653 Y-3.50378
X3.30653 Y-3.50278
X3.30553 Y-3.50278
X3.30553 Y-3.50178
X3.30353 Y-3.50178
X3.30353 Y-3.50078
X3.30053 Y-3.50078
X3.30053 Y-3.49978
X3.27553 Y-3.49978
X3.27553 Y-3.50078
X3.27253 Y-3.50078
X3.27253 Y-3.50178
X3.27053 Y-3.50178
X3.27053 Y-3.50278
X3.26953 Y-3.50278
X3.26953 Y-3.50378
X3.26853 Y-3.50378
X3.26853 Y-3.50478
X3.26753 Y-3.50478
X3.26753 Y-3.50578
X3.26653 Y-3.50578
X3.26653 Y-3.50978
X3.26553 Y-3.50978
X3.26553 Y-3.51078
G04 P0 ( dwell for no time -- G64 should not smooth over this point )
G00 Z10.00000 ( retract )

G00 X3.58053 Y-3.70778 ( rapid move to begin. )
G01 Z1.00000 F1.00000 ( plunge. )
G04 P0 ( dwell for no time -- G64 should not smooth over this point )
X3.58053 Y-3.70778
X3.58053 Y-3.71378
X3.57953 Y-3.71378
X3.57953 Y-3.71478
X3.57853 Y-3.71478
X3.57853 Y-3.71578
X3.57753 Y-3.71578
X3.57753 Y-3.71678
X3.57653 Y-3.71678
X3.57653 Y-3.71778
X3.57553 Y-3.71778
X3.57553 Y-3.71878
X3.57453 Y-3.71878
X3.57453 Y-3.71978
X3.57353 Y-3.71978
X3.57353 Y-3.72078
X3.57253 Y-3.72078
X3.57253 Y-3.72178
X3.57153 Y-3.72178
X3.57153 Y-3.72278
X3.57053 Y-3.72278
X3.57053 Y-3.72378
X3.56953 Y-3.72378
X3.56953 Y-3.72478
X3.56853 Y-3.72478
X3.56853 Y-3.72578
X3.56753 Y-3.72578
X3.56753 Y-3.72678
X3.56653 Y-3.72678
X3.56653 Y-3.72778
X3.56553 Y-3.72778
X3.56553 Y-3.72878
X3.56453 Y-3.72878
X3.56453 Y-3.72978
X3.56353 Y-3.72978
X3.56353 Y-3.73078
X3.56253 Y-3.73078
X3.56253 Y-3.73178
X3.56153 Y-3.73178
X3.56153 Y-3.73278
X3.56053 Y-3.73278
X3.56053 Y-3.73378
X3.55953 Y-3.73378
X3.55953 Y-3.73478
X3.55853 Y-3.73478
X3.55853 Y-3.73578
X3.55753 Y-3.73578
X3.55753 Y-3.73678
X3.55653 Y-3.73678
X3.55653 Y-3.73778
X3.55553 Y-3.73778
X3.55553 Y-3.73878
X3.55453 Y-3.73878
X3.55453 Y-3.73978
X3.55353 Y-3.73978
X3.55353 Y-3.74078
X3.55253 Y-3.74078
X3.55253 Y-3.74178
X3.55153 Y-3.74178
X3.55153 Y-3.74278
X3.55053 Y-3.74278
X3.55053 Y-3.74378
X3.54953 Y-3.74378
X3.54953 Y-3.74478
X3.54853 Y-3.74478
X3.54853 Y-3.74578
X3.54753 Y-3.74578
X3.54753 Y-3.74678
X3.54653 Y-3.74678
X3.54653 Y-3.74778
X3.54553 Y-3.74778
X3.54553 Y-3.74878
X3.54453 Y-3.74878
X3.54453 Y-3.74978
X3.54353 Y-3.74978
X3.54353 Y-3.75078
X3.54253 Y-3.75078
X3.54253 Y-3.75178
X3.54153 Y-3.75178
X3.54153 Y-3.75278
X3.54053 Y-3.75278
X3.54053 Y-3.75378
X3.53953 Y-3.75378
X3.53953 Y-3.75478
X3.53853 Y-3.75478
X3.53853 Y-3.75578
X3.53753 Y-3.75578
X3.53753 Y-3.75678
X3.53653 Y-3.75678
X3.53653 Y-3.75778
X3.53553 Y-3.75778
X3.53553 Y-3.75878
X3.53453 Y-3.75878
X3.53453 Y-3.75978
X3.53353 Y-3.75978
X3.53353 Y-3.76078
X3.53253 Y-3.76078
X3.53253 Y-3.76178
X3.53153 Y-3.76178
X3.53153 Y-3.76278
X3.53053 Y-3.76278
X3.53053 Y-3.76378
X3.52953 Y-3.76378
X3.52953 Y-3.76478
X3.52853 Y-3.76478
X3.52853 Y-3.76578
X3.52753 Y-3.76578
X3.52753 Y-3.76678
X3.52653 Y-3.76678
X3.52653 Y-3.76778
X3.52553 Y-3.76778
X3.52553 Y-3.76878
X3.52453 Y-3.76878
X3.52453 Y-3.76978
X3.52353 Y-3.76978
X3.52353 Y-3.77078
X3.52253 Y-3.77078
X3.52253 Y-3.77178
X3.52153 Y-3.77178
X3.52153 Y-3.77278
X3.52053 Y-3.77278
X3.52053 Y-3.77378
X3.51953 Y-3.77378
X3.51953 Y-3.77478
X3.51853 Y-3.77478
X3.51853 Y-3.77578
X3.51753 Y-3.77578
X3.51753 Y-3.77678
X3.51653 Y-3.77678
X3.51653 Y-3.77778
X3.51553 Y-3.77778
X3.51553 Y-3.77878
X3.51453 Y-3.77878
X3.51453 Y-3.77978
X3.51353 Y-3.77978
X3.51353 Y-3.78078
X3.51253 Y-3.78078
X3.51253 Y-3.78178
X3.51153 Y-3.78178
X3.51153 Y-3.78278
X3.51053 Y-3.78278
X3.51053 Y-3.78378
X3.50953 Y-3.78378
X3.50953 Y-3.78478
X3.50853 Y-3.78478
X3.50853 Y-3.78578
X3.50753 Y-3.78578
X3.50753 Y-3.78678
X3.50653 Y-3.78678
X3.50653 Y-3.78778
X3.50553 Y-3.78778
X3.50553 Y-3.78878
X3.50453 Y-3.78878
X3.50453 Y-3.78978
X3.50353 Y-3.78978
X3.50353 Y-3.79078
X3.50253 Y-3.79078
X3.50253 Y-3.79178
X3.50153 Y-3.79178
X3.50153 Y-3.79278
X3.50053 Y-3.79278
X3.50053 Y-3.79378
X3.49953 Y-3.79378
X3.49953 Y-3.79478
X3.49853 Y-3.79478
X3.49853 Y-3.79578
X3.49753 Y-3.79578
X3.49753 Y-3.79678
X3.49653 Y-3.79678
X3.49653 Y-3.79778
X3.49553 Y-3.79778
X3.49553 Y-3.79878
X3.49453 Y-3.79878
X3.49453 Y-3.79978
X3.49353 Y-3.79978
X3.49353 Y-3.80078
X3.49253 Y-3.80078
X3.49253 Y-3.80178
X3.49153 Y-3.80178
X3.49153 Y-3.80278
X3.49053 Y-3.80278
X3.49053 Y-3.80378
X3.48953 Y-3.80378
X3.48953 Y-3.80478
X3.48853 Y-3.80478
X3.48853 Y-3.80578
X3.48753 Y-3.80578
X3.48753 Y-3.80678
X3.48653 Y-3.80678
X3.48653 Y-3.80778
X3.48553 Y-3.80778
X3.48553 Y-3.80878
X3.48453 Y-3.80878
X3.48453 Y-3.80978
X3.48353 Y-3.80978
X3.48353 Y-3.81078
X3.48253 Y-3.81078
X3.48253 Y-3.81178
X3.48153 Y-3.81178
X3.48153 Y-3.81278
X3.48053 Y-3.81278
X3.48053 Y-3.81378
X3.47953 Y-3.81378
X3.47953 Y-3.81478
X3.47853 Y-3.81478
X3.47853 Y-3.81578
X3.47753 Y-3.81578
X3.47753 Y-3.81678
X3.47653 Y-3.81678
X3.47653 Y-3.81778
X3.47553 Y-3.81778
X3.47553 Y-3.81878
X3.47453 Y-3.81878
X3.47453 Y-3.81978
X3.47353 Y-3.81978
X3.47353 Y-3.82078
X3.47253 Y-3.82078
X3.47253 Y-3.82178
X3.26553 Y-3.82178
X3.26553 Y-3.81078
X3.15253 Y-3.81078
X3.15253 Y-3.86378
X3.26553 Y-3.86378
X3.26553 Y-3.85278
X3.49753 Y-3.85278
X3.49753 Y-3.85178
X3.49953 Y-3.85178
X3.49953 Y-3.85078
X3.50053 Y-3.85078
X3.50053 Y-3.84978
X3.50153 Y-3.84978
X3.50153 Y-3.84878
X3.50253 Y-3.84878
X3.50253 Y-3.84778
X3.50353 Y-3.84778
X3.50353 Y-3.84678
X3.50453 Y-3.84678
X3.50453 Y-3.84578
X3.50553 Y-3.84578
X3.50553 Y-3.84478
X3.50653 Y-3.84478
X3.50653 Y-3.84378
X3.50753 Y-3.84378
X3.50753 Y-3.84278
X3.50853 Y-3.84278
X3.50853 Y-3.84178
X3.50953 Y-3.84178
X3.50953 Y-3.84078
X3.51053 Y-3.84078
X3.51053 Y-3.83978
X3.51153 Y-3.83978
X3.51153 Y-3.83878
X3.51253 Y-3.83878
X3.51253 Y-3.83778
X3.51353 Y-3.83778
X3.51353 Y-3.83678
X3.51453 Y-3.83678
X3.51453 Y-3.83578
X3.51553 Y-3.83578
X3.51553 Y-3.83478
X3.51653 Y-3.83478
X3.51653 Y-3.83378
X3.51753 Y-3.83378
X3.51753 Y-3.83278
X3.51853 Y-3.83278
X3.51853 Y-3.83178
X3.51953 Y-3.83178
X3.51953 Y-3.83078
X3.52053 Y-3.83078
X3.52053 Y-3.82978
X3.52153 Y-3.82978
X3.52153 Y-3.82878
X3.52253 Y-3.82878
X3.52253 Y-3.82778
X3.52353 Y-3.82778
X3.52353 Y-3.82678
X3.52453 Y-3.82678
X3.52453 Y-3.82578
X3.52553 Y-3.82578
X3.52553 Y-3.82478
X3.52653 Y-3.82478
X3.52653 Y-3.82378
X3.52753 Y-3.82378
X3.52753 Y-3.82278
X3.52853 Y-3.82278
X3.52853 Y-3.82178
X3.52953 Y-3.82178
X3.52953 Y-3.82078
X3.53053 Y-3.82078
X3.53053 Y-3.81978
X3.53153 Y-3.81978
X3.53153 Y-3.81878
X3.53253 Y-3.81878
X3.53253 Y-3.81778
X3.53353 Y-3.81778
X3.53353 Y-3.81678
X3.53453 Y-3.81678
X3.53453 Y-3.81578
X3.53553 Y-3.81578
X3.53553 Y-3.81478
X3.53653 Y-3.81478
X3.53653 Y-3.81378
X3.53753 Y-3.81378
X3.53753 Y-3.81278
X3.53853 Y-3.81278
X3.53853 Y-3.81178
X3.53953 Y-3.81178
X3.53953 Y-3.81078
X3.54053 Y-3.81078
X3.54053 Y-3.80978
X3.54153 Y-3.80978
X3.54153 Y-3.80878
X3.54253 Y-3.80878
X3.54253 Y-3.80778
X3.54353 Y-3.80778
X3.54353 Y-3.80678
X3.54453 Y-3.80678
X3.54453 Y-3.80578
X3.54553 Y-3.80578
X3.54553 Y-3.80478
X3.54653 Y-3.80478
X3.54653 Y-3.80378
X3.54753 Y-3.80378
X3.54753 Y-3.80278
X3.54853 Y-3.80278
X3.54853 Y-3.80178
X3.54953 Y-3.80178
X3.54953 Y-3.80078
X3.55053 Y-3.80078
X3.55053 Y-3.79978
X3.55153 Y-3.79978
X3.55153 Y-3.79878
X3.55253 Y-3.79878
X3.55253 Y-3.79778
X3.55353 Y-3.79778
X3.55353 Y-3.79678
X3.55453 Y-3.79678
X3.55453 Y-3.79578
X3.55553 Y-3.79578
X3.55553 Y-3.79478
X3.55653 Y-3.79478
X3.55653 Y-3.79378
X3.55753 Y-3.79378
X3.55753 Y-3.79278
X3.55853 Y-3.79278
X3.55853 Y-3.79178
X3.55953 Y-3.79178
X3.55953 Y-3.79078
X3.56053 Y-3.79078
X3.56053 Y-3.78978
X3.56153 Y-3.78978
X3.56153 Y-3.78878
X3.56253 Y-3.78878
X3.56253 Y-3.78778
X3.56353 Y-3.78778
X3.56353 Y-3.78678
X3.56453 Y-3.78678
X3.56453 Y-3.78578
X3.56553 Y-3.78578
X3.56553 Y-3.78478
X3.56653 Y-3.78478
X3.56653 Y-3.78378
X3.56753 Y-3.78378
X3.56753 Y-3.78278
X3.56853 Y-3.78278
X3.56853 Y-3.78178
X3.56953 Y-3.78178
X3.56953 Y-3.78078
X3.57053 Y-3.78078
X3.57053 Y-3.77978
X3.57153 Y-3.77978
X3.57153 Y-3.77878
X3.57253 Y-3.77878
X3.57253 Y-3.77778
X3.57353 Y-3.77778
X3.57353 Y-3.77678
X3.57453 Y-3.77678
X3.57453 Y-3.77578
X3.57553 Y-3.77578
X3.57553 Y-3.77478
X3.57653 Y-3.77478
X3.57653 Y-3.77378
X3.57753 Y-3.77378
X3.57753 Y-3.77278
X3.57853 Y-3.77278
X3.57853 Y-3.77178
X3.57953 Y-3.77178
X3.57953 Y-3.77078
X3.58053 Y-3.77078
X3.58053 Y-3.76978
X3.58153 Y-3.76978
X3.58153 Y-3.76878
X3.58253 Y-3.76878
X3.58253 Y-3.76778
X3.58353 Y-3.76778
X3.58353 Y-3.76678
X3.58453 Y-3.76678
X3.58453 Y-3.76578
X3.58553 Y-3.76578
X3.58553 Y-3.76478
X3.58653 Y-3.76478
X3.58653 Y-3.76378
X3.58753 Y-3.76378
X3.58753 Y-3.76278
X3.58853 Y-3.76278
X3.58853 Y-3.76178
X3.58953 Y-3.76178
X3.58953 Y-3.76078
X3.59053 Y-3.76078
X3.59053 Y-3.75978
X3.59153 Y-3.75978
X3.59153 Y-3.75878
X3.59253 Y-3.75878
X3.59253 Y-3.75778
X3.59353 Y-3.75778
X3.59353 Y-3.75678
X3.59453 Y-3.75678
X3.59453 Y-3.75578
X3.59553 Y-3.75578
X3.59553 Y-3.75478
X3.59653 Y-3.75478
X3.59653 Y-3.75378
X3.59753 Y-3.75378
X3.59753 Y-3.75278
X3.59853 Y-3.75278
X3.59853 Y-3.75178
X3.59953 Y-3.75178
X3.59953 Y-3.75078
X3.60053 Y-3.75078
X3.60053 Y-3.74978
X3.60153 Y-3.74978
X3.60153 Y-3.74878
X3.60253 Y-3.74878
X3.60253 Y-3.74778
X3.60353 Y-3.74778
X3.60353 Y-3.74678
X3.60453 Y-3.74678
X3.60453 Y-3.74578
X3.60553 Y-3.74578
X3.60553 Y-3.74478
X3.60653 Y-3.74478
X3.60653 Y-3.74378
X3.60753 Y-3.74378
X3.60753 Y-3.74278
X3.60853 Y-3.74278
X3.60853 Y-3.74178
X3.61553 Y-3.74178
X3.61553 Y-3.74078
X3.61853 Y-3.74078
X3.61853 Y-3.73978
X3.62053 Y-3.73978
X3.62053 Y-3.73878
X3.62153 Y-3.73878
X3.62153 Y-3.73778
X3.62253 Y-3.73778
X3.62253 Y-3.73678
X3.62353 Y-3.73678
X3.62353 Y-3.73578
X3.62453 Y-3.73578
X3.62453 Y-3.73178
X3.62553 Y-3.73178
X3.62553 Y-3.70678
X3.62453 Y-3.70678
X3.62453 Y-3.70278
X3.62353 Y-3.70278
X3.62353 Y-3.70178
X3.62253 Y-3.70178
X3.62253 Y-3.70078
X3.62153 Y-3.70078
X3.62153 Y-3.69978
X3.62053 Y-3.69978
X3.62053 Y-3.69878
X3.61853 Y-3.69878
X3.61853 Y-3.69778
X3.61553 Y-3.69778
X3.61553 Y-3.69678
X3.59053 Y-3.69678
X3.59053 Y-3.69778
X3.58753 Y-3.69778
X3.58753 Y-3.69878
X3.58553 Y-3.69878
X3.58553 Y-3.69978
X3.58453 Y-3.69978
X3.58453 Y-3.70078
X3.58353 Y-3.70078
X3.58353 Y-3.70178
X3.58253 Y-3.70178
X3.58253 Y-3.70278
X3.58153 Y-3.70278
X3.58153 Y-3.70678
X3.58053 Y-3.70678
X3.58053 Y-3.70778
G04 P0 ( dwell for no time -- G64 should not smooth over this point )
G00 Z10.00000 ( retract )

G00 X3.24553 Y-3.90078 ( rapid move to begin. )
G01 Z1.00000 F1.00000 ( plunge. )
G04 P0 ( dwell for no time -- G64 should not smooth over this point )
X3.24553 Y-3.90078
X2.74753 Y-3.90078
X2.74753 Y-3.90178
X2.74553 Y-3.90178
X2.74553 Y-3.90278
X2.74453 Y-3.90278
X2.74453 Y-3.90378
X2.74353 Y-3.90378
X2.74353 Y-3.90478
X2.74253 Y-3.90478
X2.74253 Y-3.90578
X2.74153 Y-3.90578
X2.74153 Y-3.90678
X2.74053 Y-3.90678
X2.74053 Y-3.90778
X2.73953 Y-3.90778
X2.73953 Y-3.90878
X2.73853 Y-3.90878
X2.73853 Y-3.90978
X2.73753 Y-3.90978
X2.73753 Y-3.91078
X2.73653 Y-3.91078
X2.73653 Y-3.91178
X2.73553 Y-3.91178
X2.73553 Y-3.91278
X2.73453 Y-3.91278
X2.73453 Y-3.91378
X2.73353 Y-3.91378
X2.73353 Y-3.91478
X2.73253 Y-3.91478
X2.73253 Y-3.91578
X2.73153 Y-3.91578
X2.73153 Y-3.91678
X2.73053 Y-3.91678
X2.73053 Y-3.91778
X2.72953 Y-3.91778
X2.72953 Y-3.91878
X2.72853 Y-3.91878
X2.72853 Y-3.91978
X2.72753 Y-3.91978
X2.72753 Y-3.92078
X2.72653 Y-3.92078
X2.72653 Y-3.92178
X2.72553 Y-3.92178
X2.72553 Y-3.92278
X2.72453 Y-3.92278
X2.72453 Y-3.92378
X2.72353 Y-3.92378
X2.72353 Y-3.92478
X2.72253 Y-3.92478
X2.72253 Y-3.92578
X2.72153 Y-3.92578
X2.72153 Y-3.92678
X2.72053 Y-3.92678
X2.72053 Y-3.92778
X2.71953 Y-3.92778
X2.71953 Y-3.92878
X2.71853 Y-3.92878
X2.71853 Y-3.92978
X2.71753 Y-3.92978
X2.71753 Y-3.93078
X2.71653 Y-3.93078
X2.71653 Y-3.93178
X2.71553 Y-3.93178
X2.71553 Y-3.93278
X2.71453 Y-3.93278
X2.71453 Y-3.93378
X2.71353 Y-3.93378
X2.71353 Y-3.93478
X2.71253 Y-3.93478
X2.71253 Y-3.93578
X2.71153 Y-3.93578
X2.71153 Y-3.93678
X2.71053 Y-3.93678
X2.71053 Y-3.93778
X2.70953 Y-3.93778
X2.70953 Y-3.93878
X2.70853 Y-3.93878
X2.70853 Y-3.93978
X2.70753 Y-3.93978
X2.70753 Y-3.94078
X2.70653 Y-3.94078
X2.70653 Y-3.94178
X2.70553 Y-3.94178
X2.70553 Y-3.94278
X2.70453 Y-3.94278
X2.70453 Y-3.94378
X2.70353 Y-3.94378
X2.70353 Y-3.94478
X2.70253 Y-3.94478
X2.70253 Y-3.94578
X2.70153 Y-3.94578
X2.70153 Y-3.94678
X2.70053 Y-3.94678
X2.70053 Y-3.94778
X2.69953 Y-3.94778
X2.69953 Y-3.94878
X2.69853 Y-3.94878
X2.69853 Y-3.94978
X2.69753 Y-3.94978
X2.69753 Y-3.95078
X2.69653 Y-3.95078
X2.69653 Y-3.95178
X2.69553 Y-3.95178
X2.69553 Y-3.95278
X2.69453 Y-3.95278
X2.69453 Y-3.95378
X2.69353 Y-3.95378
X2.69353 Y-3.95478
X2.69253 Y-3.95478
X2.69253 Y-3.95578
X2.69153 Y-3.95578
X2.69153 Y-3.95678
X2.69053 Y-3.95678
X2.69053 Y-3.95778
X2.68953 Y-3.95778
X2.68953 Y-3.95878
X2.68853 Y-3.95878
X2.68853 Y-3.95978
X2.68753 Y-3.95978
X2.68753 Y-3.96078
X2.68653 Y-3.96078
X2.68653 Y-3.96178
X2.68553 Y-3.96178
X2.68553 Y-3.96278
X2.68453 Y-3.96278
X2.68453 Y-3.96378
X2.68353 Y-3.96378
X2.68353 Y-3.96478
X2.68253 Y-3.96478
X2.68253 Y-3.96578
X2.68153 Y-3.96578
X2.68153 Y-3.96678
X2.68053 Y-3.96678
X2.68053 Y-3.96778
X2.67953 Y-3.96778
X2.67953 Y-3.96878
X2.67853 Y-3.96878
X2.67853 Y-3.96978
X2.67753 Y-3.96978
X2.67753 Y-3.97078
X2.67653 Y-3.97078
X2.67653 Y-3.97178
X2.67553 Y-3.97178
X2.67553 Y-3.97278
X2.67453 Y-3.97278
X2.67453 Y-3.97378
X2.67353 Y-3.97378
X2.67353 Y-3.97478
X2.67253 Y-3.97478
X2.67253 Y-3.97578
X2.67153 Y-3.97578
X2.67153 Y-3.97678
X2.67053 Y-3.97678
X2.67053 Y-3.97778
X2.66953 Y-3.97778
X2.66953 Y-3.97878
X2.66853 Y-3.97878
X2.66853 Y-3.97978
X2.66753 Y-3.97978
X2.66753 Y-3.98078
X2.66653 Y-3.98078
X2.66653 Y-3.98178
X2.66553 Y-3.98178
X2.66553 Y-3.98278
X2.66453 Y-3.98278
X2.66453 Y-3.98378
X2.66353 Y-3.98378
X2.66353 Y-3.98478
X2.66253 Y-3.98478
X2.66253 Y-3.98578
X2.66153 Y-3.98578
X2.66153 Y-3.98678
X2.66053 Y-3.98678
X2.66053 Y-3.98778
X2.65953 Y-3.98778
X2.65953 Y-3.98878
X2.65853 Y-3.98878
X2.65853 Y-3.98978
X2.65753 Y-3.98978
X2.65753 Y-3.99078
X2.65653 Y-3.99078
X2.65653 Y-3.99178
X2.65553 Y-3.99178
X2.65553 Y-3.99278
X2.65453 Y-3.99278
X2.65453 Y-3.99378
X2.65353 Y-3.99378
X2.65353 Y-3.99478
X2.65253 Y-3.99478
X2.65253 Y-3.99578
X2.65153 Y-3.99578
X2.65153 Y-3.99678
X2.65053 Y-3.99678
X2.65053 Y-3.99778
X2.64953 Y-3.99778
X2.64953 Y-3.99878
X2.64853 Y-3.99878
X2.64853 Y-3.99978
X2.64753 Y-3.99978
X2.64753 Y-4.00078
X2.64653 Y-4.00078
X2.64653 Y-4.00178
X2.64553 Y-4.00178
X2.64553 Y-4.00278
X2.64453 Y-4.00278
X2.64453 Y-4.00378
X2.64353 Y-4.00378
X2.64353 Y-4.00478
X2.64253 Y-4.00478
X2.64253 Y-4.00578
X2.64153 Y-4.00578
X2.64153 Y-4.00678
X2.64053 Y-4.00678
X2.64053 Y-4.00778
X2.63953 Y-4.00778
X2.63953 Y-4.00878
X2.63853 Y-4.00878
X2.63853 Y-4.00978
X2.63753 Y-4.00978
X2.63753 Y-4.01078
X2.63653 Y-4.01078
X2.63653 Y-4.01178
X2.63553 Y-4.01178
X2.63553 Y-4.01278
X2.63453 Y-4.01278
X2.63453 Y-4.01378
X2.63353 Y-4.01378
X2.63353 Y-4.01478
X2.63253 Y-4.01478
X2.63253 Y-4.01578
X2.63153 Y-4.01578
X2.63153 Y-4.01678
X2.63053 Y-4.01678
X2.63053 Y-4.01778
X2.62953 Y-4.01778
X2.62953 Y-4.01878
X2.62853 Y-4.01878
X2.62853 Y-4.01978
X2.62753 Y-4.01978
X2.62753 Y-4.02078
X2.62653 Y-4.02078
X2.62653 Y-4.02178
X2.62553 Y-4.02178
X2.62553 Y-4.02278
X2.62453 Y-4.02278
X2.62453 Y-4.02378
X2.62353 Y-4.02378
X2.62353 Y-4.02478
X2.62253 Y-4.02478
X2.62253 Y-4.02578
X2.62153 Y-4.02578
X2.62153 Y-4.02678
X2.62053 Y-4.02678
X2.62053 Y-4.02778
X2.61953 Y-4.02778
X2.61953 Y-4.02878
X2.61853 Y-4.02878
X2.61853 Y-4.02978
X2.61753 Y-4.02978
X2.61753 Y-4.03078
X2.61653 Y-4.03078
X2.61653 Y-4.03178
X2.61553 Y-4.03178
X2.61553 Y-4.03278
X2.61453 Y-4.03278
X2.61453 Y-4.03378
X2.61353 Y-4.03378
X2.61353 Y-4.03478
X2.61253 Y-4.03478
X2.61253 Y-4.03578
X2.61153 Y-4.03578
X2.61153 Y-4.03678
X2.61053 Y-4.03678
X2.61053 Y-4.03778
X2.60953 Y-4.03778
X2.60953 Y-4.03878
X2.60853 Y-4.03878
X2.60853 Y-4.03978
X2.60753 Y-4.03978
X2.60753 Y-4.04078
X2.60653 Y-4.04078
X2.60653 Y-4.04178
X2.60553 Y-4.04178
X2.60553 Y-4.04278
X2.60453 Y-4.04278
X2.60453 Y-4.04378
X2.60353 Y-4.04378
X2.60353 Y-4.04478
X2.60253 Y-4.04478
X2.60253 Y-4.04578
X2.60153 Y-4.04578
X2.60153 Y-4.04678
X2.60053 Y-4.04678
X2.60053 Y-4.04778
X2.59953 Y-4.04778
X2.59953 Y-4.04878
X2.59853 Y-4.04878
X2.59853 Y-4.04978
X2.59753 Y-4.04978
X2.59753 Y-4.05078
X2.59653 Y-4.05078
X2.59653 Y-4.05178
X2.59553 Y-4.05178
X2.59553 Y-4.05278
X2.59453 Y-4.05278
X2.59453 Y-4.05378
X2.59353 Y-4.05378
X2.59353 Y-4.05478
X2.59253 Y-4.05478
X2.59253 Y-4.05578
X2.59153 Y-4.05578
X2.59153 Y-4.05678
X2.59053 Y-4.05678
X2.59053 Y-4.05778
X2.58953 Y-4.05778
X2.58953 Y-4.05878
X2.58853 Y-4.05878
X2.58853 Y-4.05978
X2.58753 Y-4.05978
X2.58753 Y-4.06078
X2.58653 Y-4.06078
X2.58653 Y-4.06178
X2.58553 Y-4.06178
X2.58553 Y-4.06278
X2.58453 Y-4.06278
X2.58453 Y-4.06378
X2.58353 Y-4.06378
X2.58353 Y-4.06478
X2.58253 Y-4.06478
X2.58253 Y-4.06578
X2.58153 Y-4.06578
X2.58153 Y-4.06678
X2.58053 Y-4.06678
X2.58053 Y-4.06778
X2.57953 Y-4.06778
X2.57953 Y-4.06878
X2.57853 Y-4.06878
X2.57853 Y-4.06978
X2.57753 Y-4.06978
X2.57753 Y-4.07078
X2.57653 Y-4.07078
X2.57653 Y-4.07178
X2.57553 Y-4.07178
X2.57553 Y-4.07278
X2.57453 Y-4.07278
X2.57453 Y-4.07378
X2.57353 Y-4.07378
X2.57353 Y-4.07478
X2.57253 Y-4.07478
X2.57253 Y-4.07578
X2.57153 Y-4.07578
X2.57153 Y-4.07678
X2.57053 Y-4.07678
X2.57053 Y-4.07778
X2.56953 Y-4.07778
X2.56953 Y-4.07878
X2.56853 Y-4.07878
X2.56853 Y-4.07978
X2.56753 Y-4.07978
X2.56753 Y-4.08078
X2.56653 Y-4.08078
X2.56653 Y-4.08178
X2.56553 Y-4.08178
X2.56553 Y-4.08278
X2.56453 Y-4.08278
X2.56453 Y-4.08378
X2.56353 Y-4.08378
X2.56353 Y-4.08478
X2.56253 Y-4.08478
X2.56253 Y-4.08578
X2.56153 Y-4.08578
X2.56153 Y-4.08678
X2.56053 Y-4.08678
X2.56053 Y-4.08778
X2.55953 Y-4.08778
X2.55953 Y-4.08878
X2.55853 Y-4.08878
X2.55853 Y-4.08978
X2.55753 Y-4.08978
X2.55753 Y-4.09078
X2.55653 Y-4.09078
X2.55653 Y-4.09178
X2.55553 Y-4.09178
X2.55553 Y-4.09278
X2.55453 Y-4.09278
X2.55453 Y-4.09378
X2.55353 Y-4.09378
X2.55353 Y-4.09478
X2.55253 Y-4.09478
X2.55253 Y-4.09578
X2.55153 Y-4.09578
X2.55153 Y-4.09678
X2.55053 Y-4.09678
X2.55053 Y-4.09778
X2.54953 Y-4.09778
X2.54953 Y-4.09878
X2.54853 Y-4.09878
X2.54853 Y-4.09978
X2.54753 Y-4.09978
X2.54753 Y-4.10078
X2.54653 Y-4.10078
X2.54653 Y-4.10178
X2.54553 Y-4.10178
X2.54553 Y-4.10278
X2.54453 Y-4.10278
X2.54453 Y-4.10378
X2.54353 Y-4.10378
X2.54353 Y-4.10478
X2.54253 Y-4.10478
X2.54253 Y-4.10578
X2.54153 Y-4.10578
X2.54153 Y-4.10678
X2.54053 Y-4.10678
X2.54053 Y-4.10778
X2.53953 Y-4.10778
X2.53953 Y-4.10878
X2.53853 Y-4.10878
X2.53853 Y-4.10978
X2.53753 Y-4.10978
X2.53753 Y-4.11078
X2.53653 Y-4.11078
X2.53653 Y-4.11178
X2.53553 Y-4.11178
X2.53553 Y-4.11278
X2.53453 Y-4.11278
X2.53453 Y-4.11378
X2.53353 Y-4.11378
X2.53353 Y-4.11478
X2.53253 Y-4.11478
X2.53253 Y-4.11578
X2.53153 Y-4.11578
X2.53153 Y-4.11678
X2.53053 Y-4.11678
X2.53053 Y-4.11778
X2.52953 Y-4.11778
X2.52953 Y-4.11878
X2.52853 Y-4.11878
X2.52853 Y-4.11978
X2.52753 Y-4.11978
X2.52753 Y-4.12078
X2.52653 Y-4.12078
X2.52653 Y-4.12178
X2.52553 Y-4.12178
X2.52553 Y-4.12278
X2.52453 Y-4.12278
X2.52453 Y-4.12378
X2.52353 Y-4.12378
X2.52353 Y-4.12478
X2.52253 Y-4.12478
X2.52253 Y-4.12578
X2.52153 Y-4.12578
X2.52153 Y-4.12678
X2.52053 Y-4.12678
X2.52053 Y-4.12778
X2.51953 Y-4.12778
X2.51953 Y-4.12878
X2.51853 Y-4.12878
X2.51853 Y-4.12978
X2.51753 Y-4.12978
X2.51753 Y-4.13078
X2.51653 Y-4.13078
X2.51653 Y-4.13178
X2.51553 Y-4.13178
X2.51553 Y-4.13278
X2.51453 Y-4.13278
X2.51453 Y-4.13378
X2.51353 Y-4.13378
X2.51353 Y-4.13478
X2.51253 Y-4.13478
X2.51253 Y-4.13578
X2.51153 Y-4.13578
X2.51153 Y-4.13678
X2.51053 Y-4.13678
X2.51053 Y-4.13778
X2.50953 Y-4.13778
X2.50953 Y-4.13878
X2.50853 Y-4.13878
X2.50853 Y-4.13978
X2.50753 Y-4.13978
X2.50753 Y-4.14078
X2.50653 Y-4.14078
X2.50653 Y-4.14178
X2.50553 Y-4.14178
X2.50553 Y-4.14278
X2.50453 Y-4.14278
X2.50453 Y-4.14378
X2.50353 Y-4.14378
X2.50353 Y-4.14478
X2.50253 Y-4.14478
X2.50253 Y-4.14578
X2.50153 Y-4.14578
X2.50153 Y-4.14678
X2.50053 Y-4.14678
X2.50053 Y-4.14778
X2.49953 Y-4.14778
X2.49953 Y-4.14878
X2.49853 Y-4.14878
X2.49853 Y-4.14978
X2.49753 Y-4.14978
X2.49753 Y-4.15078
X2.49653 Y-4.15078
X2.49653 Y-4.15178
X2.49553 Y-4.15178
X2.49553 Y-4.15278
X2.49453 Y-4.15278
X2.49453 Y-4.15378
X2.49353 Y-4.15378
X2.49353 Y-4.15478
X2.49253 Y-4.15478
X2.49253 Y-4.15578
X2.49153 Y-4.15578
X2.49153 Y-4.15678
X2.49053 Y-4.15678
X2.49053 Y-4.15778
X2.48953 Y-4.15778
X2.48953 Y-4.15878
X2.48853 Y-4.15878
X2.48853 Y-4.15978
X2.48753 Y-4.15978
X2.48753 Y-4.16078
X2.48653 Y-4.16078
X2.48653 Y-4.16178
X2.48553 Y-4.16178
X2.48553 Y-4.16278
X2.48453 Y-4.16278
X2.48453 Y-4.16378
X2.48353 Y-4.16378
X2.48353 Y-4.16478
X2.48253 Y-4.16478
X2.48253 Y-4.16578
X2.48153 Y-4.16578
X2.48153 Y-4.16678
X2.48053 Y-4.16678
X2.48053 Y-4.16778
X2.47953 Y-4.16778
X2.47953 Y-4.16878
X2.47853 Y-4.16878
X2.47853 Y-4.16978
X2.47753 Y-4.16978
X2.47753 Y-4.17078
X2.47653 Y-4.17078
X2.47653 Y-4.17178
X2.47553 Y-4.17178
X2.47553 Y-4.17278
X2.47453 Y-4.17278
X2.47453 Y-4.17378
X2.47353 Y-4.17378
X2.47353 Y-4.17478
X2.47253 Y-4.17478
X2.47253 Y-4.17578
X2.47153 Y-4.17578
X2.47153 Y-4.17678
X2.47053 Y-4.17678
X2.47053 Y-4.17778
X2.46953 Y-4.17778
X2.46953 Y-4.17878
X2.46853 Y-4.17878
X2.46853 Y-4.17978
X2.46753 Y-4.17978
X2.46753 Y-4.18078
X2.46653 Y-4.18078
X2.46653 Y-4.18278
X2.46553 Y-4.18278
X2.46553 Y-4.19078
X2.46353 Y-4.19078
X2.46353 Y-4.19178
X2.46253 Y-4.19178
X2.46253 Y-4.19278
X2.46153 Y-4.19278
X2.46153 Y-4.19378
X2.46053 Y-4.19378
X2.46053 Y-4.19478
X2.45953 Y-4.19478
X2.45953 Y-4.19878
X2.45853 Y-4.19878
X2.45853 Y-4.22378
X2.45953 Y-4.22378
X2.45953 Y-4.22778
X2.46053 Y-4.22778
X2.46053 Y-4.22878
X2.46153 Y-4.22878
X2.46153 Y-4.22978
X2.46253 Y-4.22978
X2.46253 Y-4.23078
X2.46353 Y-4.23078
X2.46353 Y-4.23178
X2.46553 Y-4.23178
X2.46553 Y-4.23278
X2.46853 Y-4.23278
X2.46853 Y-4.23378
X2.49353 Y-4.23378
X2.49353 Y-4.23278
X2.49653 Y-4.23278
X2.49653 Y-4.23178
X2.49853 Y-4.23178
X2.49853 Y-4.23078
X2.49953 Y-4.23078
X2.49953 Y-4.22978
X2.50053 Y-4.22978
X2.50053 Y-4.22878
X2.50153 Y-4.22878
X2.50153 Y-4.22778
X2.50253 Y-4.22778
X2.50253 Y-4.22378
X2.50353 Y-4.22378
X2.50353 Y-4.20078
X2.50453 Y-4.20078
X2.50453 Y-4.19978
X2.50553 Y-4.19978
X2.50553 Y-4.19878
X2.50653 Y-4.19878
X2.50653 Y-4.19778
X2.50753 Y-4.19778
X2.50753 Y-4.19678
X2.50853 Y-4.19678
X2.50853 Y-4.19578
X2.50953 Y-4.19578
X2.50953 Y-4.19478
X2.51053 Y-4.19478
X2.51053 Y-4.19378
X2.51153 Y-4.19378
X2.51153 Y-4.19278
X2.51253 Y-4.19278
X2.51253 Y-4.19178
X2.51353 Y-4.19178
X2.51353 Y-4.19078
X2.51453 Y-4.19078
X2.51453 Y-4.18978
X2.51553 Y-4.18978
X2.51553 Y-4.18878
X2.51653 Y-4.18878
X2.51653 Y-4.18778
X2.51753 Y-4.18778
X2.51753 Y-4.18678
X2.51853 Y-4.18678
X2.51853 Y-4.18578
X2.51953 Y-4.18578
X2.51953 Y-4.18478
X2.52053 Y-4.18478
X2.52053 Y-4.18378
X2.52153 Y-4.18378
X2.52153 Y-4.18278
X2.52253 Y-4.18278
X2.52253 Y-4.18178
X2.52353 Y-4.18178
X2.52353 Y-4.18078
X2.52453 Y-4.18078
X2.52453 Y-4.17978
X2.52553 Y-4.17978
X2.52553 Y-4.17878
X2.52653 Y-4.17878
X2.52653 Y-4.17778
X2.52753 Y-4.17778
X2.52753 Y-4.17678
X2.52853 Y-4.17678
X2.52853 Y-4.17578
X2.52953 Y-4.17578
X2.52953 Y-4.17478
X2.53053 Y-4.17478
X2.53053 Y-4.17378
X2.53153 Y-4.17378
X2.53153 Y-4.17278
X2.53253 Y-4.17278
X2.53253 Y-4.17178
X2.53353 Y-4.17178
X2.53353 Y-4.17078
X2.53453 Y-4.17078
X2.53453 Y-4.16978
X2.53553 Y-4.16978
X2.53553 Y-4.16878
X2.53653 Y-4.16878
X2.53653 Y-4.16778
X2.53753 Y-4.16778
X2.53753 Y-4.16678
X2.53853 Y-4.16678
X2.53853 Y-4.16578
X2.53953 Y-4.16578
X2.53953 Y-4.16478
X2.54053 Y-4.16478
X2.54053 Y-4.16378
X2.54153 Y-4.16378
X2.54153 Y-4.16278
X2.54253 Y-4.16278
X2.54253 Y-4.16178
X2.54353 Y-4.16178
X2.54353 Y-4.16078
X2.54453 Y-4.16078
X2.54453 Y-4.15978
X2.54553 Y-4.15978
X2.54553 Y-4.15878
X2.54653 Y-4.15878
X2.54653 Y-4.15778
X2.54753 Y-4.15778
X2.54753 Y-4.15678
X2.54853 Y-4.15678
X2.54853 Y-4.15578
X2.54953 Y-4.15578
X2.54953 Y-4.15478
X2.55053 Y-4.15478
X2.55053 Y-4.15378
X2.55153 Y-4.15378
X2.55153 Y-4.15278
X2.55253 Y-4.15278
X2.55253 Y-4.15178
X2.55353 Y-4.15178
X2.55353 Y-4.15078
X2.55453 Y-4.15078
X2.55453 Y-4.14978
X2.55553 Y-4.14978
X2.55553 Y-4.14878
X2.55653 Y-4.14878
X2.55653 Y-4.14778
X2.55753 Y-4.14778
X2.55753 Y-4.14678
X2.55853 Y-4.14678
X2.55853 Y-4.14578
X2.55953 Y-4.14578
X2.55953 Y-4.14478
X2.56053 Y-4.14478
X2.56053 Y-4.14378
X2.56153 Y-4.14378
X2.56153 Y-4.14278
X2.56253 Y-4.14278
X2.56253 Y-4.14178
X2.56353 Y-4.14178
X2.56353 Y-4.14078
X2.56453 Y-4.14078
X2.56453 Y-4.13978
X2.56553 Y-4.13978
X2.56553 Y-4.13878
X2.56653 Y-4.13878
X2.56653 Y-4.13778
X2.56753 Y-4.13778
X2.56753 Y-4.13678
X2.56853 Y-4.13678
X2.56853 Y-4.13578
X2.56953 Y-4.13578
X2.56953 Y-4.13478
X2.57053 Y-4.13478
X2.57053 Y-4.13378
X2.57153 Y-4.13378
X2.57153 Y-4.13278
X2.57253 Y-4.13278
X2.57253 Y-4.13178
X2.57353 Y-4.13178
X2.57353 Y-4.13078
X2.57453 Y-4.13078
X2.57453 Y-4.12978
X2.57553 Y-4.12978
X2.57553 Y-4.12878
X2.57653 Y-4.12878
X2.57653 Y-4.12778
X2.57753 Y-4.12778
X2.57753 Y-4.12678
X2.57853 Y-4.12678
X2.57853 Y-4.12578
X2.57953 Y-4.12578
X2.57953 Y-4.12478
X2.58053 Y-4.12478
X2.58053 Y-4.12378
X2.58153 Y-4.12378
X2.58153 Y-4.12278
X2.58253 Y-4.12278
X2.58253 Y-4.12178
X2.58353 Y-4.12178
X2.58353 Y-4.12078
X2.58453 Y-4.12078
X2.58453 Y-4.11978
X2.58553 Y-4.11978
X2.58553 Y-4.11878
X2.58653 Y-4.11878
X2.58653 Y-4.11778
X2.58753 Y-4.11778
X2.58753 Y-4.11678
X2.58853 Y-4.11678
X2.58853 Y-4.11578
X2.58953 Y-4.11578
X2.58953 Y-4.11478
X2.59053 Y-4.11478
X2.59053 Y-4.11378
X2.59153 Y-4.11378
X2.59153 Y-4.11278
X2.59253 Y-4.11278
X2.59253 Y-4.11178
X2.59353 Y-4.11178
X2.59353 Y-4.11078
X2.59453 Y-4.11078
X2.59453 Y-4.10978
X2.59553 Y-4.10978
X2.59553 Y-4.10878
X2.59653 Y-4.10878
X2.59653 Y-4.10778
X2.59753 Y-4.10778
X2.59753 Y-4.10678
X2.59853 Y-4.10678
X2.59853 Y-4.10578
X2.59953 Y-4.10578
X2.59953 Y-4.10478
X2.60053 Y-4.10478
X2.60053 Y-4.10378
X2.60153 Y-4.10378
X2.60153 Y-4.10278
X2.60253 Y-4.10278
X2.60253 Y-4.10178
X2.60353 Y-4.10178
X2.60353 Y-4.10078
X2.60453 Y-4.10078
X2.60453 Y-4.09978
X2.60553 Y-4.09978
X2.60553 Y-4.09878
X2.60653 Y-4.09878
X2.60653 Y-4.09778
X2.60753 Y-4.09778
X2.60753 Y-4.09678
X2.60853 Y-4.09678
X2.60853 Y-4.09578
X2.60953 Y-4.09578
X2.60953 Y-4.09478
X2.61053 Y-4.09478
X2.61053 Y-4.09378
X2.61153 Y-4.09378
X2.61153 Y-4.09278
X2.61253 Y-4.09278
X2.61253 Y-4.09178
X2.61353 Y-4.09178
X2.61353 Y-4.09078
X2.61453 Y-4.09078
X2.61453 Y-4.08978
X2.61553 Y-4.08978
X2.61553 Y-4.08878
X2.61653 Y-4.08878
X2.61653 Y-4.08778
X2.61753 Y-4.08778
X2.61753 Y-4.08678
X2.61853 Y-4.08678
X2.61853 Y-4.08578
X2.61953 Y-4.08578
X2.61953 Y-4.08478
X2.62053 Y-4.08478
X2.62053 Y-4.08378
X2.62153 Y-4.08378
X2.62153 Y-4.08278
X2.62253 Y-4.08278
X2.62253 Y-4.08178
X2.62353 Y-4.08178
X2.62353 Y-4.08078
X2.62453 Y-4.08078
X2.62453 Y-4.07978
X2.62553 Y-4.07978
X2.62553 Y-4.07878
X2.62653 Y-4.07878
X2.62653 Y-4.07778
X2.62753 Y-4.07778
X2.62753 Y-4.07678
X2.62853 Y-4.07678
X2.62853 Y-4.07578
X2.62953 Y-4.07578
X2.62953 Y-4.07478
X2.63053 Y-4.07478
X2.63053 Y-4.07378
X2.63153 Y-4.07378
X2.63153 Y-4.07278
X2.63253 Y-4.07278
X2.63253 Y-4.07178
X2.63353 Y-4.07178
X2.63353 Y-4.07078
X2.63453 Y-4.07078
X2.63453 Y-4.06978
X2.63553 Y-4.06978
X2.63553 Y-4.06878
X2.63653 Y-4.06878
X2.63653 Y-4.06778
X2.63753 Y-4.06778
X2.63753 Y-4.06678
X2.63853 Y-4.06678
X2.63853 Y-4.06578
X2.63953 Y-4.06578
X2.63953 Y-4.06478
X2.64053 Y-4.06478
X2.64053 Y-4.06378
X2.64153 Y-4.06378
X2.64153 Y-4.06278
X2.64253 Y-4.06278
X2.64253 Y-4.06178
X2.64353 Y-4.06178
X2.64353 Y-4.06078
X2.64453 Y-4.06078
X2.64453 Y-4.05978
X2.64553 Y-4.05978
X2.64553 Y-4.05878
X2.64653 Y-4.05878
X2.64653 Y-4.05778
X2.64753 Y-4.05778
X2.64753 Y-4.05678
X2.64853 Y-4.05678
X2.64853 Y-4.05578
X2.64953 Y-4.05578
X2.64953 Y-4.05478
X2.65053 Y-4.05478
X2.65053 Y-4.05378
X2.65153 Y-4.05378
X2.65153 Y-4.05278
X2.65253 Y-4.05278
X2.65253 Y-4.05178
X2.65353 Y-4.05178
X2.65353 Y-4.05078
X2.65453 Y-4.05078
X2.65453 Y-4.04978
X2.65553 Y-4.04978
X2.65553 Y-4.04878
X2.65653 Y-4.04878
X2.65653 Y-4.04778
X2.65753 Y-4.04778
X2.65753 Y-4.04678
X2.65853 Y-4.04678
X2.65853 Y-4.04578
X2.65953 Y-4.04578
X2.65953 Y-4.04478
X2.66053 Y-4.04478
X2.66053 Y-4.04378
X2.66153 Y-4.04378
X2.66153 Y-4.04278
X2.66253 Y-4.04278
X2.66253 Y-4.04178
X2.66353 Y-4.04178
X2.66353 Y-4.04078
X2.66453 Y-4.04078
X2.66453 Y-4.03978
X2.66553 Y-4.03978
X2.66553 Y-4.03878
X2.66653 Y-4.03878
X2.66653 Y-4.03778
X2.66753 Y-4.03778
X2.66753 Y-4.03678
X2.66853 Y-4.03678
X2.66853 Y-4.03578
X2.66953 Y-4.03578
X2.66953 Y-4.03478
X2.67053 Y-4.03478
X2.67053 Y-4.03378
X2.67153 Y-4.03378
X2.67153 Y-4.03278
X2.67253 Y-4.03278
X2.67253 Y-4.03178
X2.67353 Y-4.03178
X2.67353 Y-4.03078
X2.67453 Y-4.03078
X2.67453 Y-4.02978
X2.67553 Y-4.02978
X2.67553 Y-4.02878
X2.67653 Y-4.02878
X2.67653 Y-4.02778
X2.67753 Y-4.02778
X2.67753 Y-4.02678
X2.67853 Y-4.02678
X2.67853 Y-4.02578
X2.67953 Y-4.02578
X2.67953 Y-4.02478
X2.68053 Y-4.02478
X2.68053 Y-4.02378
X2.68153 Y-4.02378
X2.68153 Y-4.02278
X2.68253 Y-4.02278
X2.68253 Y-4.02178
X2.68353 Y-4.02178
X2.68353 Y-4.02078
X2.68453 Y-4.02078
X2.68453 Y-4.01978
X2.68553 Y-4.01978
X2.68553 Y-4.01878
X2.68653 Y-4.01878
X2.68653 Y-4.01778
X2.68753 Y-4.01778
X2.68753 Y-4.01678
X2.68853 Y-4.01678
X2.68853 Y-4.01578
X2.68953 Y-4.01578
X2.68953 Y-4.01478
X2.69053 Y-4.01478
X2.69053 Y-4.01378
X2.69153 Y-4.01378
X2.69153 Y-4.01278
X2.69253 Y-4.01278
X2.69253 Y-4.01178
X2.69353 Y-4.01178
X2.69353 Y-4.01078
X2.69453 Y-4.01078
X2.69453 Y-4.00978
X2.69553 Y-4.00978
X2.69553 Y-4.00878
X2.69653 Y-4.00878
X2.69653 Y-4.00778
X2.69753 Y-4.00778
X2.69753 Y-4.00678
X2.69853 Y-4.00678
X2.69853 Y-4.00578
X2.69953 Y-4.00578
X2.69953 Y-4.00478
X2.70053 Y-4.00478
X2.70053 Y-4.00378
X2.70153 Y-4.00378
X2.70153 Y-4.00278
X2.70253 Y-4.00278
X2.70253 Y-4.00178
X2.70353 Y-4.00178
X2.70353 Y-4.00078
X2.70453 Y-4.00078
X2.70453 Y-3.99978
X2.70553 Y-3.99978
X2.70553 Y-3.99878
X2.70653 Y-3.99878
X2.70653 Y-3.99778
X2.70753 Y-3.99778
X2.70753 Y-3.99678
X2.70853 Y-3.99678
X2.70853 Y-3.99578
X2.70953 Y-3.99578
X2.70953 Y-3.99478
X2.71053 Y-3.99478
X2.71053 Y-3.99378
X2.71153 Y-3.99378
X2.71153 Y-3.99278
X2.71253 Y-3.99278
X2.71253 Y-3.99178
X2.71353 Y-3.99178
X2.71353 Y-3.99078
X2.71453 Y-3.99078
X2.71453 Y-3.98978
X2.71553 Y-3.98978
X2.71553 Y-3.98878
X2.71653 Y-3.98878
X2.71653 Y-3.98778
X2.71753 Y-3.98778
X2.71753 Y-3.98678
X2.71853 Y-3.98678
X2.71853 Y-3.98578
X2.71953 Y-3.98578
X2.71953 Y-3.98478
X2.72053 Y-3.98478
X2.72053 Y-3.98378
X2.72153 Y-3.98378
X2.72153 Y-3.98278
X2.72253 Y-3.98278
X2.72253 Y-3.98178
X2.72353 Y-3.98178
X2.72353 Y-3.98078
X2.72453 Y-3.98078
X2.72453 Y-3.97978
X2.72553 Y-3.97978
X2.72553 Y-3.97878
X2.72653 Y-3.97878
X2.72653 Y-3.97778
X2.72753 Y-3.97778
X2.72753 Y-3.97678
X2.72853 Y-3.97678
X2.72853 Y-3.97578
X2.72953 Y-3.97578
X2.72953 Y-3.97478
X2.73053 Y-3.97478
X2.73053 Y-3.97378
X2.73153 Y-3.97378
X2.73153 Y-3.97278
X2.73253 Y-3.97278
X2.73253 Y-3.97178
X2.73353 Y-3.97178
X2.73353 Y-3.97078
X2.73453 Y-3.97078
X2.73453 Y-3.96978
X2.73553 Y-3.96978
X2.73553 Y-3.96878
X2.73653 Y-3.96878
X2.73653 Y-3.96778
X2.73753 Y-3.96778
X2.73753 Y-3.96678
X2.73853 Y-3.96678
X2.73853 Y-3.96578
X2.73953 Y-3.96578
X2.73953 Y-3.96478
X2.74053 Y-3.96478
X2.74053 Y-3.96378
X2.74153 Y-3.96378
X2.74153 Y-3.96278
X2.74253 Y-3.96278
X2.74253 Y-3.96178
X2.74353 Y-3.96178
X2.74353 Y-3.96078
X2.74453 Y-3.96078
X2.74453 Y-3.95978
X2.74553 Y-3.95978
X2.74553 Y-3.95878
X2.74653 Y-3.95878
X2.74653 Y-3.95778
X2.74753 Y-3.95778
X2.74753 Y-3.95678
X2.74853 Y-3.95678
X2.74853 Y-3.95578
X2.74953 Y-3.95578
X2.74953 Y-3.95478
X2.75053 Y-3.95478
X2.75053 Y-3.95378
X2.75153 Y-3.95378
X2.75153 Y-3.95278
X2.75253 Y-3.95278
X2.75253 Y-3.95178
X2.75353 Y-3.95178
X2.75353 Y-3.95078
X2.75453 Y-3.95078
X2.75453 Y-3.94978
X2.75553 Y-3.94978
X2.75553 Y-3.94878
X2.75653 Y-3.94878
X2.75653 Y-3.94778
X2.75753 Y-3.94778
X2.75753 Y-3.94678
X2.75853 Y-3.94678
X2.75853 Y-3.94578
X2.75953 Y-3.94578
X2.75953 Y-3.94478
X2.76053 Y-3.94478
X2.76053 Y-3.94378
X2.76153 Y-3.94378
X2.76153 Y-3.94278
X2.76253 Y-3.94278
X2.76253 Y-3.94178
X2.76353 Y-3.94178
X2.76353 Y-3.94078
X2.76453 Y-3.94078
X2.76453 Y-3.93978
X2.76553 Y-3.93978
X2.76553 Y-3.93878
X2.76653 Y-3.93878
X2.76653 Y-3.93778
X2.76753 Y-3.93778
X2.76753 Y-3.93678
X2.76853 Y-3.93678
X2.76853 Y-3.93578
X2.76953 Y-3.93578
X2.76953 Y-3.93478
X2.77053 Y-3.93478
X2.77053 Y-3.93378
X2.77153 Y-3.93378
X2.77153 Y-3.93278
X2.77253 Y-3.93278
X2.77253 Y-3.93178
X3.24553 Y-3.93178
X3.24553 Y-3.94278
X3.35853 Y-3.94278
X3.35853 Y-3.88978
X3.24553 Y-3.88978
X3.24553 Y-3.90078
G04 P0 ( dwell for no time -- G64 should not smooth over this point )
G00 Z10.00000 ( retract )

G00 X3.15253 Y-3.97978 ( rapid move to begin. )
G01 Z1.00000 F1.00000 ( plunge. )
G04 P0 ( dwell for no time -- G64 should not smooth over this point )
X3.15253 Y-3.97978
X2.75553 Y-3.97978
X2.75553 Y-3.98078
X2.75353 Y-3.98078
X2.75353 Y-3.98178
X2.75253 Y-3.98178
X2.75253 Y-3.98278
X2.75153 Y-3.98278
X2.75153 Y-3.98378
X2.75053 Y-3.98378
X2.75053 Y-3.98478
X2.74953 Y-3.98478
X2.74953 Y-3.98578
X2.74853 Y-3.98578
X2.74853 Y-3.98678
X2.74753 Y-3.98678
X2.74753 Y-3.98778
X2.74653 Y-3.98778
X2.74653 Y-3.98878
X2.74553 Y-3.98878
X2.74553 Y-3.98978
X2.74453 Y-3.98978
X2.74453 Y-3.99078
X2.74353 Y-3.99078
X2.74353 Y-3.99178
X2.74253 Y-3.99178
X2.74253 Y-3.99278
X2.74153 Y-3.99278
X2.74153 Y-3.99378
X2.74053 Y-3.99378
X2.74053 Y-3.99478
X2.73953 Y-3.99478
X2.73953 Y-3.99578
X2.73853 Y-3.99578
X2.73853 Y-3.99678
X2.73753 Y-3.99678
X2.73753 Y-3.99778
X2.73653 Y-3.99778
X2.73653 Y-3.99878
X2.73553 Y-3.99878
X2.73553 Y-3.99978
X2.73453 Y-3.99978
X2.73453 Y-4.00078
X2.73353 Y-4.00078
X2.73353 Y-4.00178
X2.73253 Y-4.00178
X2.73253 Y-4.00278
X2.73153 Y-4.00278
X2.73153 Y-4.00378
X2.73053 Y-4.00378
X2.73053 Y-4.00478
X2.72953 Y-4.00478
X2.72953 Y-4.00578
X2.72853 Y-4.00578
X2.72853 Y-4.00678
X2.72753 Y-4.00678
X2.72753 Y-4.00778
X2.72653 Y-4.00778
X2.72653 Y-4.00878
X2.72553 Y-4.00878
X2.72553 Y-4.00978
X2.72453 Y-4.00978
X2.72453 Y-4.01078
X2.72353 Y-4.01078
X2.72353 Y-4.01178
X2.72253 Y-4.01178
X2.72253 Y-4.01278
X2.72153 Y-4.01278
X2.72153 Y-4.01378
X2.72053 Y-4.01378
X2.72053 Y-4.01478
X2.71953 Y-4.01478
X2.71953 Y-4.01578
X2.71853 Y-4.01578
X2.71853 Y-4.01678
X2.71753 Y-4.01678
X2.71753 Y-4.01778
X2.71653 Y-4.01778
X2.71653 Y-4.01878
X2.71553 Y-4.01878
X2.71553 Y-4.01978
X2.71453 Y-4.01978
X2.71453 Y-4.02078
X2.71353 Y-4.02078
X2.71353 Y-4.02178
X2.71253 Y-4.02178
X2.71253 Y-4.02278
X2.71153 Y-4.02278
X2.71153 Y-4.02378
X2.71053 Y-4.02378
X2.71053 Y-4.02478
X2.70953 Y-4.02478
X2.70953 Y-4.02578
X2.70853 Y-4.02578
X2.70853 Y-4.02678
X2.70753 Y-4.02678
X2.70753 Y-4.02778
X2.70653 Y-4.02778
X2.70653 Y-4.02878
X2.70553 Y-4.02878
X2.70553 Y-4.02978
X2.70453 Y-4.02978
X2.70453 Y-4.03078
X2.70353 Y-4.03078
X2.70353 Y-4.03178
X2.70253 Y-4.03178
X2.70253 Y-4.03278
X2.70153 Y-4.03278
X2.70153 Y-4.03378
X2.70053 Y-4.03378
X2.70053 Y-4.03478
X2.69953 Y-4.03478
X2.69953 Y-4.03578
X2.69853 Y-4.03578
X2.69853 Y-4.03678
X2.69753 Y-4.03678
X2.69753 Y-4.03778
X2.69653 Y-4.03778
X2.69653 Y-4.03878
X2.69553 Y-4.03878
X2.69553 Y-4.03978
X2.69453 Y-4.03978
X2.69453 Y-4.04078
X2.69353 Y-4.04078
X2.69353 Y-4.04178
X2.69253 Y-4.04178
X2.69253 Y-4.04278
X2.69153 Y-4.04278
X2.69153 Y-4.04378
X2.69053 Y-4.04378
X2.69053 Y-4.04478
X2.68953 Y-4.04478
X2.68953 Y-4.04578
X2.68853 Y-4.04578
X2.68853 Y-4.04678
X2.68753 Y-4.04678
X2.68753 Y-4.04778
X2.68653 Y-4.04778
X2.68653 Y-4.04878
X2.68553 Y-4.04878
X2.68553 Y-4.04978
X2.68453 Y-4.04978
X2.68453 Y-4.05078
X2.68353 Y-4.05078
X2.68353 Y-4.05178
X2.68253 Y-4.05178
X2.68253 Y-4.05278
X2.68153 Y-4.05278
X2.68153 Y-4.05378
X2.68053 Y-4.05378
X2.68053 Y-4.05478
X2.67953 Y-4.05478
X2.67953 Y-4.05578
X2.67853 Y-4.05578
X2.67853 Y-4.05678
X2.67753 Y-4.05678
X2.67753 Y-4.05778
X2.67653 Y-4.05778
X2.67653 Y-4.05878
X2.67553 Y-4.05878
X2.67553 Y-4.05978
X2.67453 Y-4.05978
X2.67453 Y-4.06078
X2.67353 Y-4.06078
X2.67353 Y-4.06178
X2.67253 Y-4.06178
X2.67253 Y-4.06278
X2.67153 Y-4.06278
X2.67153 Y-4.06378
X2.67053 Y-4.06378
X2.67053 Y-4.06478
X2.66953 Y-4.06478
X2.66953 Y-4.06578
X2.66853 Y-4.06578
X2.66853 Y-4.06678
X2.66753 Y-4.06678
X2.66753 Y-4.06778
X2.66653 Y-4.06778
X2.66653 Y-4.06878
X2.66553 Y-4.06878
X2.66553 Y-4.06978
X2.66453 Y-4.06978
X2.66453 Y-4.07078
X2.66353 Y-4.07078
X2.66353 Y-4.07178
X2.66253 Y-4.07178
X2.66253 Y-4.07278
X2.66153 Y-4.07278
X2.66153 Y-4.07378
X2.66053 Y-4.07378
X2.66053 Y-4.07478
X2.65953 Y-4.07478
X2.65953 Y-4.07578
X2.65853 Y-4.07578
X2.65853 Y-4.07678
X2.65753 Y-4.07678
X2.65753 Y-4.07778
X2.65653 Y-4.07778
X2.65653 Y-4.07878
X2.65553 Y-4.07878
X2.65553 Y-4.07978
X2.65353 Y-4.07978
X2.65353 Y-4.08078
X2.65253 Y-4.08078
X2.65253 Y-4.08178
X2.65153 Y-4.08178
X2.65153 Y-4.08278
X2.65053 Y-4.08278
X2.65053 Y-4.08378
X2.64953 Y-4.08378
X2.64953 Y-4.08478
X2.64853 Y-4.08478
X2.64853 Y-4.08578
X2.64753 Y-4.08578
X2.64753 Y-4.08778
X2.64653 Y-4.08778
X2.64653 Y-4.08878
X2.64553 Y-4.08878
X2.64553 Y-4.08978
X2.63853 Y-4.08978
X2.63853 Y-4.09078
X2.63553 Y-4.09078
X2.63553 Y-4.09178
X2.63353 Y-4.09178
X2.63353 Y-4.09278
X2.63253 Y-4.09278
X2.63253 Y-4.09378
X2.63153 Y-4.09378
X2.63153 Y-4.09478
X2.63053 Y-4.09478
X2.63053 Y-4.09578
X2.62953 Y-4.09578
X2.62953 Y-4.09978
X2.62853 Y-4.09978
X2.62853 Y-4.12478
X2.62953 Y-4.12478
X2.62953 Y-4.12878
X2.63053 Y-4.12878
X2.63053 Y-4.12978
X2.63153 Y-4.12978
X2.63153 Y-4.13078
X2.63253 Y-4.13078
X2.63253 Y-4.13178
X2.63353 Y-4.13178
X2.63353 Y-4.13278
X2.63553 Y-4.13278
X2.63553 Y-4.13378
X2.63853 Y-4.13378
X2.63853 Y-4.13478
X2.66353 Y-4.13478
X2.66353 Y-4.13378
X2.66653 Y-4.13378
X2.66653 Y-4.13278
X2.66853 Y-4.13278
X2.66853 Y-4.13178
X2.66953 Y-4.13178
X2.66953 Y-4.13078
X2.67053 Y-4.13078
X2.67053 Y-4.12978
X2.67153 Y-4.12978
X2.67153 Y-4.12878
X2.67253 Y-4.12878
X2.67253 Y-4.12478
X2.67353 Y-4.12478
X2.67353 Y-4.11678
X2.67453 Y-4.11678
X2.67453 Y-4.11578
X2.67553 Y-4.11578
X2.67553 Y-4.11478
X2.67653 Y-4.11478
X2.67653 Y-4.11378
X2.67753 Y-4.11378
X2.67753 Y-4.11278
X2.67853 Y-4.11278
X2.67853 Y-4.11178
X2.67953 Y-4.11178
X2.67953 Y-4.11078
X2.68053 Y-4.11078
X2.68053 Y-4.10978
X2.68153 Y-4.10978
X2.68153 Y-4.10878
X2.68253 Y-4.10878
X2.68253 Y-4.10778
X2.68353 Y-4.10778
X2.68353 Y-4.10678
X2.68453 Y-4.10678
X2.68453 Y-4.10578
X2.68553 Y-4.10578
X2.68553 Y-4.10478
X2.68653 Y-4.10478
X2.68653 Y-4.10378
X2.68753 Y-4.10378
X2.68753 Y-4.10278
X2.68853 Y-4.10278
X2.68853 Y-4.10178
X2.68953 Y-4.10178
X2.68953 Y-4.10078
X2.69053 Y-4.10078
X2.69053 Y-4.09978
X2.69153 Y-4.09978
X2.69153 Y-4.09878
X2.69253 Y-4.09878
X2.69253 Y-4.09778
X2.69353 Y-4.09778
X2.69353 Y-4.09678
X2.69453 Y-4.09678
X2.69453 Y-4.09578
X2.69553 Y-4.09578
X2.69553 Y-4.09478
X2.69653 Y-4.09478
X2.69653 Y-4.09378
X2.69753 Y-4.09378
X2.69753 Y-4.09278
X2.69853 Y-4.09278
X2.69853 Y-4.09178
X2.69953 Y-4.09178
X2.69953 Y-4.09078
X2.70053 Y-4.09078
X2.70053 Y-4.08978
X2.70153 Y-4.08978
X2.70153 Y-4.08878
X2.70253 Y-4.08878
X2.70253 Y-4.08778
X2.70353 Y-4.08778
X2.70353 Y-4.08678
X2.70453 Y-4.08678
X2.70453 Y-4.08578
X2.70553 Y-4.08578
X2.70553 Y-4.08478
X2.70653 Y-4.08478
X2.70653 Y-4.08378
X2.70753 Y-4.08378
X2.70753 Y-4.08278
X2.70853 Y-4.08278
X2.70853 Y-4.08178
X2.70953 Y-4.08178
X2.70953 Y-4.08078
X2.71053 Y-4.08078
X2.71053 Y-4.07978
X2.71153 Y-4.07978
X2.71153 Y-4.07878
X2.71253 Y-4.07878
X2.71253 Y-4.07778
X2.71353 Y-4.07778
X2.71353 Y-4.07678
X2.71453 Y-4.07678
X2.71453 Y-4.07578
X2.71553 Y-4.07578
X2.71553 Y-4.07478
X2.71653 Y-4.07478
X2.71653 Y-4.07378
X2.71753 Y-4.07378
X2.71753 Y-4.07278
X2.71853 Y-4.07278
X2.71853 Y-4.07178
X2.71953 Y-4.07178
X2.71953 Y-4.07078
X2.72053 Y-4.07078
X2.72053 Y-4.06978
X2.72153 Y-4.06978
X2.72153 Y-4.06878
X2.72253 Y-4.06878
X2.72253 Y-4.06778
X2.72353 Y-4.06778
X2.72353 Y-4.06678
X2.72453 Y-4.06678
X2.72453 Y-4.06578
X2.72553 Y-4.06578
X2.72553 Y-4.06478
X2.72653 Y-4.06478
X2.72653 Y-4.06378
X2.72753 Y-4.06378
X2.72753 Y-4.06278
X2.72853 Y-4.06278
X2.72853 Y-4.06178
X2.72953 Y-4.06178
X2.72953 Y-4.06078
X2.73053 Y-4.06078
X2.73053 Y-4.05978
X2.73153 Y-4.05978
X2.73153 Y-4.05878
X2.73253 Y-4.05878
X2.73253 Y-4.05778
X2.73353 Y-4.05778
X2.73353 Y-4.05678
X2.73453 Y-4.05678
X2.73453 Y-4.05578
X2.73553 Y-4.05578
X2.73553 Y-4.05478
X2.73653 Y-4.05478
X2.73653 Y-4.05378
X2.73753 Y-4.05378
X2.73753 Y-4.05278
X2.73853 Y-4.05278
X2.73853 Y-4.05178
X2.73953 Y-4.05178
X2.73953 Y-4.05078
X2.74053 Y-4.05078
X2.74053 Y-4.04978
X2.74153 Y-4.04978
X2.74153 Y-4.04878
X2.74253 Y-4.04878
X2.74253 Y-4.04778
X2.74353 Y-4.04778
X2.74353 Y-4.04678
X2.74453 Y-4.04678
X2.74453 Y-4.04578
X2.74553 Y-4.04578
X2.74553 Y-4.04478
X2.74653 Y-4.04478
X2.74653 Y-4.04378
X2.74753 Y-4.04378
X2.74753 Y-4.04278
X2.74853 Y-4.04278
X2.74853 Y-4.04178
X2.74953 Y-4.04178
X2.74953 Y-4.04078
X2.75053 Y-4.04078
X2.75053 Y-4.03978
X2.75153 Y-4.03978
X2.75153 Y-4.03878
X2.75253 Y-4.03878
X2.75253 Y-4.03778
X2.75353 Y-4.03778
X2.75353 Y-4.03678
X2.75453 Y-4.03678
X2.75453 Y-4.03578
X2.75553 Y-4.03578
X2.75553 Y-4.03478
X2.75653 Y-4.03478
X2.75653 Y-4.03378
X2.75753 Y-4.03378
X2.75753 Y-4.03278
X2.75853 Y-4.03278
X2.75853 Y-4.03178
X2.75953 Y-4.03178
X2.75953 Y-4.03078
X2.76053 Y-4.03078
X2.76053 Y-4.02978
X2.76153 Y-4.02978
X2.76153 Y-4.02878
X2.76253 Y-4.02878
X2.76253 Y-4.02778
X2.76353 Y-4.02778
X2.76353 Y-4.02678
X2.76453 Y-4.02678
X2.76453 Y-4.02578
X2.76553 Y-4.02578
X2.76553 Y-4.02478
X2.76653 Y-4.02478
X2.76653 Y-4.02378
X2.76753 Y-4.02378
X2.76753 Y-4.02278
X2.76853 Y-4.02278
X2.76853 Y-4.02178
X2.76953 Y-4.02178
X2.76953 Y-4.02078
X2.77053 Y-4.02078
X2.77053 Y-4.01978
X2.77153 Y-4.01978
X2.77153 Y-4.01878
X2.77253 Y-4.01878
X2.77253 Y-4.01778
X2.77453 Y-4.01778
X2.77453 Y-4.01678
X2.77553 Y-4.01678
X2.77553 Y-4.01578
X2.77653 Y-4.01578
X2.77653 Y-4.01478
X2.77753 Y-4.01478
X2.77753 Y-4.01378
X2.77853 Y-4.01378
X2.77853 Y-4.01278
X2.77953 Y-4.01278
X2.77953 Y-4.01178
X2.78053 Y-4.01178
X2.78053 Y-4.01078
X3.15253 Y-4.01078
X3.15253 Y-4.02178
X3.26553 Y-4.02178
X3.26553 Y-3.96878
X3.15253 Y-3.96878
X3.15253 Y-3.97978
G04 P0 ( dwell for no time -- G64 should not smooth over this point )
G00 Z10.00000 ( retract )

G00 X3.24553 Y-4.05878 ( rapid move to begin. )
G01 Z1.00000 F1.00000 ( plunge. )
G04 P0 ( dwell for no time -- G64 should not smooth over this point )
X3.24553 Y-4.05878
X2.97453 Y-4.05878
X2.97453 Y-4.05778
X2.97353 Y-4.05778
X2.97353 Y-4.05678
X2.97253 Y-4.05678
X2.97253 Y-4.05578
X2.97153 Y-4.05578
X2.97153 Y-4.05478
X2.97053 Y-4.05478
X2.97053 Y-4.05378
X2.96853 Y-4.05378
X2.96853 Y-4.05278
X2.96553 Y-4.05278
X2.96553 Y-4.05178
X2.94053 Y-4.05178
X2.94053 Y-4.05278
X2.93753 Y-4.05278
X2.93753 Y-4.05378
X2.93553 Y-4.05378
X2.93553 Y-4.05478
X2.93453 Y-4.05478
X2.93453 Y-4.05578
X2.93353 Y-4.05578
X2.93353 Y-4.05678
X2.93253 Y-4.05678
X2.93253 Y-4.05778
X2.93153 Y-4.05778
X2.93153 Y-4.06178
X2.93053 Y-4.06178
X2.93053 Y-4.08678
X2.93153 Y-4.08678
X2.93153 Y-4.09078
X2.93253 Y-4.09078
X2.93253 Y-4.09178
X2.93353 Y-4.09178
X2.93353 Y-4.09278
X2.93453 Y-4.09278
X2.93453 Y-4.09378
X2.93553 Y-4.09378
X2.93553 Y-4.09478
X2.93753 Y-4.09478
X2.93753 Y-4.09578
X2.94053 Y-4.09578
X2.94053 Y-4.09678
X2.96553 Y-4.09678
X2.96553 Y-4.09578
X2.96853 Y-4.09578
X2.96853 Y-4.09478
X2.97053 Y-4.09478
X2.97053 Y-4.09378
X2.97153 Y-4.09378
X2.97153 Y-4.09278
X2.97253 Y-4.09278
X2.97253 Y-4.09178
X2.97353 Y-4.09178
X2.97353 Y-4.09078
X2.97453 Y-4.09078
X2.97453 Y-4.08978
X3.24553 Y-4.08978
X3.24553 Y-4.10078
X3.35853 Y-4.10078
X3.35853 Y-4.04778
X3.24553 Y-4.04778
X3.24553 Y-4.05878
G04 P0 ( dwell for no time -- G64 should not smooth over this point )
G00 Z10.00000 ( retract )

G00 X3.15253 Y-4.13678 ( rapid move to begin. )
G01 Z1.00000 F1.00000 ( plunge. )
G04 P0 ( dwell for no time -- G64 should not smooth over this point )
X3.15253 Y-4.13678
X3.15253 Y-4.17878
X3.26553 Y-4.17878
X3.26553 Y-4.16778
X3.43353 Y-4.16778
X3.43353 Y-4.16878
X3.43453 Y-4.16878
X3.43453 Y-4.16978
X3.43553 Y-4.16978
X3.43553 Y-4.17078
X3.43653 Y-4.17078
X3.43653 Y-4.17178
X3.43753 Y-4.17178
X3.43753 Y-4.17278
X3.43853 Y-4.17278
X3.43853 Y-4.17378
X3.43953 Y-4.17378
X3.43953 Y-4.17478
X3.44053 Y-4.17478
X3.44053 Y-4.17578
X3.44153 Y-4.17578
X3.44153 Y-4.17678
X3.44253 Y-4.17678
X3.44253 Y-4.17778
X3.44353 Y-4.17778
X3.44353 Y-4.17878
X3.44453 Y-4.17878
X3.44453 Y-4.17978
X3.44553 Y-4.17978
X3.44553 Y-4.18078
X3.44653 Y-4.18078
X3.44653 Y-4.18178
X3.44753 Y-4.18178
X3.44753 Y-4.18278
X3.44853 Y-4.18278
X3.44853 Y-4.18378
X3.44953 Y-4.18378
X3.44953 Y-4.18478
X3.45053 Y-4.18478
X3.45053 Y-4.18578
X3.45153 Y-4.18578
X3.45153 Y-4.18678
X3.45253 Y-4.18678
X3.45253 Y-4.18778
X3.45353 Y-4.18778
X3.45353 Y-4.18878
X3.45453 Y-4.18878
X3.45453 Y-4.18978
X3.45553 Y-4.18978
X3.45553 Y-4.19078
X3.45653 Y-4.19078
X3.45653 Y-4.19178
X3.45753 Y-4.19178
X3.45753 Y-4.19278
X3.45853 Y-4.19278
X3.45853 Y-4.19378
X3.45953 Y-4.19378
X3.45953 Y-4.19478
X3.46053 Y-4.19478
X3.46053 Y-4.19578
X3.46153 Y-4.19578
X3.46153 Y-4.19678
X3.46253 Y-4.19678
X3.46253 Y-4.19778
X3.46353 Y-4.19778
X3.46353 Y-4.19878
X3.46453 Y-4.19878
X3.46453 Y-4.19978
X3.46553 Y-4.19978
X3.46553 Y-4.20078
X3.46653 Y-4.20078
X3.46653 Y-4.20178
X3.46753 Y-4.20178
X3.46753 Y-4.20278
X3.46853 Y-4.20278
X3.46853 Y-4.20378
X3.46953 Y-4.20378
X3.46953 Y-4.20478
X3.47053 Y-4.20478
X3.47053 Y-4.20578
X3.47153 Y-4.20578
X3.47153 Y-4.20678
X3.47253 Y-4.20678
X3.47253 Y-4.20778
X3.47353 Y-4.20778
X3.47353 Y-4.20878
X3.47453 Y-4.20878
X3.47453 Y-4.20978
X3.47553 Y-4.20978
X3.47553 Y-4.21078
X3.47653 Y-4.21078
X3.47653 Y-4.21178
X3.47753 Y-4.21178
X3.47753 Y-4.21278
X3.47853 Y-4.21278
X3.47853 Y-4.21378
X3.47953 Y-4.21378
X3.47953 Y-4.21478
X3.48053 Y-4.21478
X3.48053 Y-4.21578
X3.48153 Y-4.21578
X3.48153 Y-4.21678
X3.48253 Y-4.21678
X3.48253 Y-4.21778
X3.48353 Y-4.21778
X3.48353 Y-4.21878
X3.48453 Y-4.21878
X3.48453 Y-4.21978
X3.48553 Y-4.21978
X3.48553 Y-4.22078
X3.48653 Y-4.22078
X3.48653 Y-4.22178
X3.48753 Y-4.22178
X3.48753 Y-4.22278
X3.48853 Y-4.22278
X3.48853 Y-4.22378
X3.48953 Y-4.22378
X3.48953 Y-4.22478
X3.49053 Y-4.22478
X3.49053 Y-4.22578
X3.49153 Y-4.22578
X3.49153 Y-4.22678
X3.49253 Y-4.22678
X3.49253 Y-4.22778
X3.49353 Y-4.22778
X3.49353 Y-4.22878
X3.49453 Y-4.22878
X3.49453 Y-4.22978
X3.49553 Y-4.22978
X3.49553 Y-4.23078
X3.49653 Y-4.23078
X3.49653 Y-4.23178
X3.49753 Y-4.23178
X3.49753 Y-4.23278
X3.49853 Y-4.23278
X3.49853 Y-4.23378
X3.49953 Y-4.23378
X3.49953 Y-4.23478
X3.50053 Y-4.23478
X3.50053 Y-4.23578
X3.50153 Y-4.23578
X3.50153 Y-4.23678
X3.50253 Y-4.23678
X3.50253 Y-4.23778
X3.50353 Y-4.23778
X3.50353 Y-4.23878
X3.50453 Y-4.23878
X3.50453 Y-4.23978
X3.50553 Y-4.23978
X3.50553 Y-4.24078
X3.50653 Y-4.24078
X3.50653 Y-4.24178
X3.50753 Y-4.24178
X3.50753 Y-4.24278
X3.50853 Y-4.24278
X3.50853 Y-4.24378
X3.50953 Y-4.24378
X3.50953 Y-4.24478
X3.51053 Y-4.24478
X3.51053 Y-4.24578
X3.51153 Y-4.24578
X3.51153 Y-4.24678
X3.51253 Y-4.24678
X3.51253 Y-4.24778
X3.51353 Y-4.24778
X3.51353 Y-4.24878
X3.51453 Y-4.24878
X3.51453 Y-4.24978
X3.51553 Y-4.24978
X3.51553 Y-4.25078
X3.51653 Y-4.25078
X3.51653 Y-4.25178
X3.51753 Y-4.25178
X3.51753 Y-4.25278
X3.51853 Y-4.25278
X3.51853 Y-4.25378
X3.51953 Y-4.25378
X3.51953 Y-4.25478
X3.52053 Y-4.25478
X3.52053 Y-4.25578
X3.52153 Y-4.25578
X3.52153 Y-4.25678
X3.52253 Y-4.25678
X3.52253 Y-4.25778
X3.52353 Y-4.25778
X3.52353 Y-4.25878
X3.52453 Y-4.25878
X3.52453 Y-4.25978
X3.52553 Y-4.25978
X3.52553 Y-4.26078
X3.52653 Y-4.26078
X3.52653 Y-4.26178
X3.52753 Y-4.26178
X3.52753 Y-4.26278
X3.52853 Y-4.26278
X3.52853 Y-4.26378
X3.52953 Y-4.26378
X3.52953 Y-4.26478
X3.53053 Y-4.26478
X3.53053 Y-4.26578
X3.53153 Y-4.26578
X3.53153 Y-4.26678
X3.53253 Y-4.26678
X3.53253 Y-4.26778
X3.53353 Y-4.26778
X3.53353 Y-4.26878
X3.53453 Y-4.26878
X3.53453 Y-4.26978
X3.53553 Y-4.26978
X3.53553 Y-4.27078
X3.53653 Y-4.27078
X3.53653 Y-4.27178
X3.53753 Y-4.27178
X3.53753 Y-4.27278
X3.53853 Y-4.27278
X3.53853 Y-4.27378
X3.53953 Y-4.27378
X3.53953 Y-4.27478
X3.54053 Y-4.27478
X3.54053 Y-4.27578
X3.54153 Y-4.27578
X3.54153 Y-4.27678
X3.54253 Y-4.27678
X3.54253 Y-4.27778
X3.54353 Y-4.27778
X3.54353 Y-4.27878
X3.54453 Y-4.27878
X3.54453 Y-4.27978
X3.54553 Y-4.27978
X3.54553 Y-4.28078
X3.54653 Y-4.28078
X3.54653 Y-4.28178
X3.54753 Y-4.28178
X3.54753 Y-4.28278
X3.54853 Y-4.28278
X3.54853 Y-4.28378
X3.54953 Y-4.28378
X3.54953 Y-4.28478
X3.55053 Y-4.28478
X3.55053 Y-4.28578
X3.55153 Y-4.28578
X3.55153 Y-4.28678
X3.55253 Y-4.28678
X3.55253 Y-4.28778
X3.55353 Y-4.28778
X3.55353 Y-4.28878
X3.55453 Y-4.28878
X3.55453 Y-4.28978
X3.55553 Y-4.28978
X3.55553 Y-4.29078
X3.55653 Y-4.29078
X3.55653 Y-4.29178
X3.55753 Y-4.29178
X3.55753 Y-4.29278
X3.55853 Y-4.29278
X3.55853 Y-4.29378
X3.55953 Y-4.29378
X3.55953 Y-4.29478
X3.56053 Y-4.29478
X3.56053 Y-4.29578
X3.56153 Y-4.29578
X3.56153 Y-4.29678
X3.56253 Y-4.29678
X3.56253 Y-4.29778
X3.56353 Y-4.29778
X3.56353 Y-4.29878
X3.56453 Y-4.29878
X3.56453 Y-4.29978
X3.56553 Y-4.29978
X3.56553 Y-4.30078
X3.56653 Y-4.30078
X3.56653 Y-4.30178
X3.56753 Y-4.30178
X3.56753 Y-4.30278
X3.56853 Y-4.30278
X3.56853 Y-4.30378
X3.56953 Y-4.30378
X3.56953 Y-4.30478
X3.57053 Y-4.30478
X3.57053 Y-4.30578
X3.57153 Y-4.30578
X3.57153 Y-4.30678
X3.57253 Y-4.30678
X3.57253 Y-4.30778
X3.57353 Y-4.30778
X3.57353 Y-4.30878
X3.57453 Y-4.30878
X3.57453 Y-4.30978
X3.57553 Y-4.30978
X3.57553 Y-4.31078
X3.57653 Y-4.31078
X3.57653 Y-4.31178
X3.57753 Y-4.31178
X3.57753 Y-4.31278
X3.57853 Y-4.31278
X3.57853 Y-4.31378
X3.57953 Y-4.31378
X3.57953 Y-4.31478
X3.58053 Y-4.31478
X3.58053 Y-4.31578
X3.58153 Y-4.31578
X3.58153 Y-4.31678
X3.58253 Y-4.31678
X3.58253 Y-4.31778
X3.58353 Y-4.31778
X3.58353 Y-4.31878
X3.58453 Y-4.31878
X3.58453 Y-4.31978
X3.58553 Y-4.31978
X3.58553 Y-4.32078
X3.58653 Y-4.32078
X3.58653 Y-4.32178
X3.58753 Y-4.32178
X3.58753 Y-4.32278
X3.58853 Y-4.32278
X3.58853 Y-4.32378
X3.58953 Y-4.32378
X3.58953 Y-4.32478
X3.59053 Y-4.32478
X3.59053 Y-4.32578
X3.59153 Y-4.32578
X3.59153 Y-4.32678
X3.59253 Y-4.32678
X3.59253 Y-4.32778
X3.59353 Y-4.32778
X3.59353 Y-4.32878
X3.59453 Y-4.32878
X3.59453 Y-4.32978
X3.59553 Y-4.32978
X3.59553 Y-4.33078
X3.59653 Y-4.33078
X3.59653 Y-4.33178
X3.59753 Y-4.33178
X3.59753 Y-4.33278
X3.59853 Y-4.33278
X3.59853 Y-4.33378
X3.59953 Y-4.33378
X3.59953 Y-4.33478
X3.60053 Y-4.33478
X3.60053 Y-4.33578
X3.60153 Y-4.33578
X3.60153 Y-4.33678
X3.60253 Y-4.33678
X3.60253 Y-4.33778
X3.60353 Y-4.33778
X3.60353 Y-4.33878
X3.60453 Y-4.33878
X3.60453 Y-4.33978
X3.60553 Y-4.33978
X3.60553 Y-4.34078
X3.60653 Y-4.34078
X3.60653 Y-4.34178
X3.60753 Y-4.34178
X3.60753 Y-4.34278
X3.60853 Y-4.34278
X3.60853 Y-4.34378
X3.60953 Y-4.34378
X3.60953 Y-4.34478
X3.61053 Y-4.34478
X3.61053 Y-4.34578
X3.61153 Y-4.34578
X3.61153 Y-4.34678
X3.61253 Y-4.34678
X3.61253 Y-4.34778
X3.61353 Y-4.34778
X3.61353 Y-4.34878
X3.61453 Y-4.34878
X3.61453 Y-4.35078
X3.61553 Y-4.35078
X3.61553 Y-4.35178
X3.61653 Y-4.35178
X3.61653 Y-4.35278
X3.61753 Y-4.35278
X3.61753 Y-4.35378
X3.61853 Y-4.35378
X3.61853 Y-4.35478
X3.61953 Y-4.35478
X3.61953 Y-4.36178
X3.62053 Y-4.36178
X3.62053 Y-4.36578
X3.62153 Y-4.36578
X3.62153 Y-4.36678
X3.62253 Y-4.36678
X3.62253 Y-4.36778
X3.62353 Y-4.36778
X3.62353 Y-4.36878
X3.62453 Y-4.36878
X3.62453 Y-4.36978
X3.62653 Y-4.36978
X3.62653 Y-4.37078
X3.62953 Y-4.37078
X3.62953 Y-4.37178
X3.65453 Y-4.37178
X3.65453 Y-4.37078
X3.65753 Y-4.37078
X3.65753 Y-4.36978
X3.65953 Y-4.36978
X3.65953 Y-4.36878
X3.66053 Y-4.36878
X3.66053 Y-4.36778
X3.66153 Y-4.36778
X3.66153 Y-4.36678
X3.66253 Y-4.36678
X3.66253 Y-4.36578
X3.66353 Y-4.36578
X3.66353 Y-4.36178
X3.66453 Y-4.36178
X3.66453 Y-4.33678
X3.66353 Y-4.33678
X3.66353 Y-4.33278
X3.66253 Y-4.33278
X3.66253 Y-4.33178
X3.66153 Y-4.33178
X3.66153 Y-4.33078
X3.66053 Y-4.33078
X3.66053 Y-4.32978
X3.65953 Y-4.32978
X3.65953 Y-4.32878
X3.65753 Y-4.32878
X3.65753 Y-4.32778
X3.65453 Y-4.32778
X3.65453 Y-4.32678
X3.64753 Y-4.32678
X3.64753 Y-4.32578
X3.64653 Y-4.32578
X3.64653 Y-4.32478
X3.64553 Y-4.32478
X3.64553 Y-4.32378
X3.64453 Y-4.32378
X3.64453 Y-4.32278
X3.64353 Y-4.32278
X3.64353 Y-4.32178
X3.64253 Y-4.32178
X3.64253 Y-4.32078
X3.64153 Y-4.32078
X3.64153 Y-4.31978
X3.64053 Y-4.31978
X3.64053 Y-4.31878
X3.63953 Y-4.31878
X3.63953 Y-4.31778
X3.63853 Y-4.31778
X3.63853 Y-4.31678
X3.63753 Y-4.31678
X3.63753 Y-4.31578
X3.63653 Y-4.31578
X3.63653 Y-4.31478
X3.63553 Y-4.31478
X3.63553 Y-4.31378
X3.63453 Y-4.31378
X3.63453 Y-4.31278
X3.63353 Y-4.31278
X3.63353 Y-4.31178
X3.63253 Y-4.31178
X3.63253 Y-4.31078
X3.63153 Y-4.31078
X3.63153 Y-4.30978
X3.63053 Y-4.30978
X3.63053 Y-4.30878
X3.62953 Y-4.30878
X3.62953 Y-4.30778
X3.62853 Y-4.30778
X3.62853 Y-4.30678
X3.62753 Y-4.30678
X3.62753 Y-4.30578
X3.62653 Y-4.30578
X3.62653 Y-4.30478
X3.62553 Y-4.30478
X3.62553 Y-4.30378
X3.62453 Y-4.30378
X3.62453 Y-4.30278
X3.62353 Y-4.30278
X3.62353 Y-4.30178
X3.62253 Y-4.30178
X3.62253 Y-4.30078
X3.62153 Y-4.30078
X3.62153 Y-4.29978
X3.62053 Y-4.29978
X3.62053 Y-4.29878
X3.61953 Y-4.29878
X3.61953 Y-4.29778
X3.61853 Y-4.29778
X3.61853 Y-4.29678
X3.61753 Y-4.29678
X3.61753 Y-4.29578
X3.61653 Y-4.29578
X3.61653 Y-4.29478
X3.61553 Y-4.29478
X3.61553 Y-4.29378
X3.61453 Y-4.29378
X3.61453 Y-4.29278
X3.61353 Y-4.29278
X3.61353 Y-4.29178
X3.61253 Y-4.29178
X3.61253 Y-4.29078
X3.61153 Y-4.29078
X3.61153 Y-4.28978
X3.61053 Y-4.28978
X3.61053 Y-4.28878
X3.60953 Y-4.28878
X3.60953 Y-4.28778
X3.60853 Y-4.28778
X3.60853 Y-4.28678
X3.60753 Y-4.28678
X3.60753 Y-4.28578
X3.60653 Y-4.28578
X3.60653 Y-4.28478
X3.60553 Y-4.28478
X3.60553 Y-4.28378
X3.60453 Y-4.28378
X3.60453 Y-4.28278
X3.60353 Y-4.28278
X3.60353 Y-4.28178
X3.60253 Y-4.28178
X3.60253 Y-4.28078
X3.60153 Y-4.28078
X3.60153 Y-4.27978
X3.60053 Y-4.27978
X3.60053 Y-4.27878
X3.59953 Y-4.27878
X3.59953 Y-4.27778
X3.59853 Y-4.27778
X3.59853 Y-4.27678
X3.59753 Y-4.27678
X3.59753 Y-4.27578
X3.59653 Y-4.27578
X3.59653 Y-4.27478
X3.59553 Y-4.27478
X3.59553 Y-4.27378
X3.59453 Y-4.27378
X3.59453 Y-4.27278
X3.59353 Y-4.27278
X3.59353 Y-4.27178
X3.59253 Y-4.27178
X3.59253 Y-4.27078
X3.59153 Y-4.27078
X3.59153 Y-4.26978
X3.59053 Y-4.26978
X3.59053 Y-4.26878
X3.58953 Y-4.26878
X3.58953 Y-4.26778
X3.58853 Y-4.26778
X3.58853 Y-4.26678
X3.58753 Y-4.26678
X3.58753 Y-4.26578
X3.58653 Y-4.26578
X3.58653 Y-4.26478
X3.58553 Y-4.26478
X3.58553 Y-4.26378
X3.58453 Y-4.26378
X3.58453 Y-4.26278
X3.58353 Y-4.26278
X3.58353 Y-4.26178
X3.58253 Y-4.26178
X3.58253 Y-4.26078
X3.58153 Y-4.26078
X3.58153 Y-4.25978
X3.58053 Y-4.25978
X3.58053 Y-4.25878
X3.57953 Y-4.25878
X3.57953 Y-4.25778
X3.57853 Y-4.25778
X3.57853 Y-4.25678
X3.57753 Y-4.25678
X3.57753 Y-4.25578
X3.57653 Y-4.25578
X3.57653 Y-4.25478
X3.57553 Y-4.25478
X3.57553 Y-4.25378
X3.57453 Y-4.25378
X3.57453 Y-4.25278
X3.57353 Y-4.25278
X3.57353 Y-4.25178
X3.57253 Y-4.25178
X3.57253 Y-4.25078
X3.57153 Y-4.25078
X3.57153 Y-4.24978
X3.57053 Y-4.24978
X3.57053 Y-4.24878
X3.56953 Y-4.24878
X3.56953 Y-4.24778
X3.56853 Y-4.24778
X3.56853 Y-4.24678
X3.56753 Y-4.24678
X3.56753 Y-4.24578
X3.56653 Y-4.24578
X3.56653 Y-4.24478
X3.56553 Y-4.24478
X3.56553 Y-4.24378
X3.56453 Y-4.24378
X3.56453 Y-4.24278
X3.56353 Y-4.24278
X3.56353 Y-4.24178
X3.56253 Y-4.24178
X3.56253 Y-4.24078
X3.56153 Y-4.24078
X3.56153 Y-4.23978
X3.56053 Y-4.23978
X3.56053 Y-4.23878
X3.55953 Y-4.23878
X3.55953 Y-4.23778
X3.55853 Y-4.23778
X3.55853 Y-4.23678
X3.55753 Y-4.23678
X3.55753 Y-4.23578
X3.55653 Y-4.23578
X3.55653 Y-4.23478
X3.55553 Y-4.23478
X3.55553 Y-4.23378
X3.55453 Y-4.23378
X3.55453 Y-4.23278
X3.55353 Y-4.23278
X3.55353 Y-4.23178
X3.55253 Y-4.23178
X3.55253 Y-4.23078
X3.55153 Y-4.23078
X3.55153 Y-4.22978
X3.55053 Y-4.22978
X3.55053 Y-4.22878
X3.54953 Y-4.22878
X3.54953 Y-4.22778
X3.54853 Y-4.22778
X3.54853 Y-4.22678
X3.54753 Y-4.22678
X3.54753 Y-4.22578
X3.54653 Y-4.22578
X3.54653 Y-4.22478
X3.54553 Y-4.22478
X3.54553 Y-4.22378
X3.54453 Y-4.22378
X3.54453 Y-4.22278
X3.54353 Y-4.22278
X3.54353 Y-4.22178
X3.54253 Y-4.22178
X3.54253 Y-4.22078
X3.54153 Y-4.22078
X3.54153 Y-4.21978
X3.54053 Y-4.21978
X3.54053 Y-4.21878
X3.53953 Y-4.21878
X3.53953 Y-4.21778
X3.53853 Y-4.21778
X3.53853 Y-4.21678
X3.53753 Y-4.21678
X3.53753 Y-4.21578
X3.53653 Y-4.21578
X3.53653 Y-4.21478
X3.53553 Y-4.21478
X3.53553 Y-4.21378
X3.53453 Y-4.21378
X3.53453 Y-4.21278
X3.53353 Y-4.21278
X3.53353 Y-4.21178
X3.53253 Y-4.21178
X3.53253 Y-4.21078
X3.53153 Y-4.21078
X3.53153 Y-4.20978
X3.53053 Y-4.20978
X3.53053 Y-4.20878
X3.52953 Y-4.20878
X3.52953 Y-4.20778
X3.52853 Y-4.20778
X3.52853 Y-4.20678
X3.52753 Y-4.20678
X3.52753 Y-4.20578
X3.52653 Y-4.20578
X3.52653 Y-4.20478
X3.52553 Y-4.20478
X3.52553 Y-4.20378
X3.52453 Y-4.20378
X3.52453 Y-4.20278
X3.52353 Y-4.20278
X3.52353 Y-4.20178
X3.52253 Y-4.20178
X3.52253 Y-4.20078
X3.52153 Y-4.20078
X3.52153 Y-4.19978
X3.52053 Y-4.19978
X3.52053 Y-4.19878
X3.51953 Y-4.19878
X3.51953 Y-4.19778
X3.51853 Y-4.19778
X3.51853 Y-4.19678
X3.51753 Y-4.19678
X3.51753 Y-4.19578
X3.51653 Y-4.19578
X3.51653 Y-4.19478
X3.51553 Y-4.19478
X3.51553 Y-4.19378
X3.51453 Y-4.19378
X3.51453 Y-4.19278
X3.51353 Y-4.19278
X3.51353 Y-4.19178
X3.51253 Y-4.19178
X3.51253 Y-4.19078
X3.51153 Y-4.19078
X3.51153 Y-4.18978
X3.51053 Y-4.18978
X3.51053 Y-4.18878
X3.50953 Y-4.18878
X3.50953 Y-4.18778
X3.50853 Y-4.18778
X3.50853 Y-4.18678
X3.50753 Y-4.18678
X3.50753 Y-4.18578
X3.50653 Y-4.18578
X3.50653 Y-4.18478
X3.50553 Y-4.18478
X3.50553 Y-4.18378
X3.50453 Y-4.18378
X3.50453 Y-4.18278
X3.50353 Y-4.18278
X3.50353 Y-4.18178
X3.50253 Y-4.18178
X3.50253 Y-4.18078
X3.50153 Y-4.18078
X3.50153 Y-4.17978
X3.50053 Y-4.17978
X3.50053 Y-4.17878
X3.49953 Y-4.17878
X3.49953 Y-4.17778
X3.49853 Y-4.17778
X3.49853 Y-4.17678
X3.49753 Y-4.17678
X3.49753 Y-4.17578
X3.49653 Y-4.17578
X3.49653 Y-4.17478
X3.49553 Y-4.17478
X3.49553 Y-4.17378
X3.49453 Y-4.17378
X3.49453 Y-4.17278
X3.49353 Y-4.17278
X3.49353 Y-4.17178
X3.49253 Y-4.17178
X3.49253 Y-4.17078
X3.49153 Y-4.17078
X3.49153 Y-4.16978
X3.49053 Y-4.16978
X3.49053 Y-4.16878
X3.48953 Y-4.16878
X3.48953 Y-4.16778
X3.48853 Y-4.16778
X3.48853 Y-4.16678
X3.48753 Y-4.16678
X3.48753 Y-4.16578
X3.48653 Y-4.16578
X3.48653 Y-4.16478
X3.48553 Y-4.16478
X3.48553 Y-4.16378
X3.48453 Y-4.16378
X3.48453 Y-4.16278
X3.48353 Y-4.16278
X3.48353 Y-4.16178
X3.48253 Y-4.16178
X3.48253 Y-4.16078
X3.48153 Y-4.16078
X3.48153 Y-4.15978
X3.48053 Y-4.15978
X3.48053 Y-4.15878
X3.47953 Y-4.15878
X3.47953 Y-4.15778
X3.47853 Y-4.15778
X3.47853 Y-4.15678
X3.47753 Y-4.15678
X3.47753 Y-4.15578
X3.47653 Y-4.15578
X3.47653 Y-4.15478
X3.47553 Y-4.15478
X3.47553 Y-4.15378
X3.47453 Y-4.15378
X3.47453 Y-4.15278
X3.47353 Y-4.15278
X3.47353 Y-4.15078
X3.47253 Y-4.15078
X3.47253 Y-4.14978
X3.47153 Y-4.14978
X3.47153 Y-4.14878
X3.47053 Y-4.14878
X3.47053 Y-4.14778
X3.46953 Y-4.14778
X3.46953 Y-4.14678
X3.46853 Y-4.14678
X3.46853 Y-4.14578
X3.46753 Y-4.14578
X3.46753 Y-4.14478
X3.46653 Y-4.14478
X3.46653 Y-4.14378
X3.46553 Y-4.14378
X3.46553 Y-4.14278
X3.46453 Y-4.14278
X3.46453 Y-4.14178
X3.46353 Y-4.14178
X3.46353 Y-4.14078
X3.46253 Y-4.14078
X3.46253 Y-4.13978
X3.46153 Y-4.13978
X3.46153 Y-4.13878
X3.46053 Y-4.13878
X3.46053 Y-4.13778
X3.45853 Y-4.13778
X3.45853 Y-4.13678
X3.26553 Y-4.13678
X3.26553 Y-4.12578
X3.15253 Y-4.12578
X3.15253 Y-4.13678
G04 P0 ( dwell for no time -- G64 should not smooth over this point )
G00 Z10.00000 ( retract )

G00 X3.08853 Y-4.19978 ( rapid move to begin. )
G01 Z1.00000 F1.00000 ( plunge. )
G04 P0 ( dwell for no time -- G64 should not smooth over this point )
X3.08853 Y-4.19978
X3.08853 Y-4.22378
X3.08953 Y-4.22378
X3.08953 Y-4.22778
X3.09053 Y-4.22778
X3.09053 Y-4.22878
X3.09153 Y-4.22878
X3.09153 Y-4.22978
X3.09253 Y-4.22978
X3.09253 Y-4.23078
X3.09353 Y-4.23078
X3.09353 Y-4.23178
X3.09553 Y-4.23178
X3.09553 Y-4.23278
X3.09853 Y-4.23278
X3.09853 Y-4.23378
X3.12353 Y-4.23378
X3.12353 Y-4.23278
X3.12653 Y-4.23278
X3.12653 Y-4.23178
X3.12853 Y-4.23178
X3.12853 Y-4.23078
X3.12953 Y-4.23078
X3.12953 Y-4.22978
X3.13053 Y-4.22978
X3.13053 Y-4.22878
X3.13153 Y-4.22878
X3.13153 Y-4.22778
X3.13253 Y-4.22778
X3.13253 Y-4.22678
X3.18453 Y-4.22678
X3.18453 Y-4.22778
X3.18553 Y-4.22778
X3.18553 Y-4.22878
X3.18653 Y-4.22878
X3.18653 Y-4.22978
X3.18753 Y-4.22978
X3.18753 Y-4.23078
X3.18853 Y-4.23078
X3.18853 Y-4.23178
X3.18953 Y-4.23178
X3.18953 Y-4.23278
X3.19053 Y-4.23278
X3.19053 Y-4.23378
X3.19153 Y-4.23378
X3.19153 Y-4.23478
X3.19253 Y-4.23478
X3.19253 Y-4.23578
X3.19353 Y-4.23578
X3.19353 Y-4.23678
X3.19453 Y-4.23678
X3.19453 Y-4.23778
X3.19553 Y-4.23778
X3.19553 Y-4.23878
X3.19653 Y-4.23878
X3.19653 Y-4.23978
X3.19753 Y-4.23978
X3.19753 Y-4.24078
X3.19853 Y-4.24078
X3.19853 Y-4.24178
X3.19953 Y-4.24178
X3.19953 Y-4.24278
X3.20053 Y-4.24278
X3.20053 Y-4.24378
X3.20153 Y-4.24378
X3.20153 Y-4.24478
X3.20253 Y-4.24478
X3.20253 Y-4.24578
X3.20353 Y-4.24578
X3.20353 Y-4.24678
X3.20453 Y-4.24678
X3.20453 Y-4.24778
X3.20553 Y-4.24778
X3.20553 Y-4.24878
X3.20653 Y-4.24878
X3.20653 Y-4.24978
X3.20753 Y-4.24978
X3.20753 Y-4.25078
X3.20853 Y-4.25078
X3.20853 Y-4.25178
X3.20953 Y-4.25178
X3.20953 Y-4.25278
X3.21053 Y-4.25278
X3.21053 Y-4.25378
X3.21153 Y-4.25378
X3.21153 Y-4.25478
X3.21253 Y-4.25478
X3.21253 Y-4.25578
X3.21353 Y-4.25578
X3.21353 Y-4.25678
X3.21453 Y-4.25678
X3.21453 Y-4.25778
X3.21553 Y-4.25778
X3.21553 Y-4.25878
X3.21653 Y-4.25878
X3.21653 Y-4.25978
X3.21753 Y-4.25978
X3.21753 Y-4.26078
X3.21853 Y-4.26078
X3.21853 Y-4.26178
X3.21953 Y-4.26178
X3.21953 Y-4.26278
X3.22053 Y-4.26278
X3.22053 Y-4.26378
X3.22153 Y-4.26378
X3.22153 Y-4.26478
X3.22253 Y-4.26478
X3.22253 Y-4.26578
X3.22353 Y-4.26578
X3.22353 Y-4.26678
X3.22453 Y-4.26678
X3.22453 Y-4.26778
X3.22553 Y-4.26778
X3.22553 Y-4.26878
X3.22653 Y-4.26878
X3.22653 Y-4.26978
X3.22753 Y-4.26978
X3.22753 Y-4.27078
X3.22853 Y-4.27078
X3.22853 Y-4.27178
X3.22953 Y-4.27178
X3.22953 Y-4.27278
X3.23053 Y-4.27278
X3.23053 Y-4.27378
X3.23153 Y-4.27378
X3.23153 Y-4.27478
X3.23253 Y-4.27478
X3.23253 Y-4.27578
X3.23353 Y-4.27578
X3.23353 Y-4.27678
X3.23453 Y-4.27678
X3.23453 Y-4.27778
X3.23553 Y-4.27778
X3.23553 Y-4.27878
X3.23653 Y-4.27878
X3.23653 Y-4.27978
X3.23753 Y-4.27978
X3.23753 Y-4.28078
X3.23853 Y-4.28078
X3.23853 Y-4.28178
X3.23953 Y-4.28178
X3.23953 Y-4.28278
X3.24053 Y-4.28278
X3.24053 Y-4.28378
X3.24153 Y-4.28378
X3.24153 Y-4.28478
X3.24453 Y-4.28478
X3.24453 Y-4.28578
X3.24753 Y-4.28578
X3.24753 Y-4.28678
X3.25053 Y-4.28678
X3.25053 Y-4.28778
X3.25353 Y-4.28778
X3.25353 Y-4.28878
X3.25653 Y-4.28878
X3.25653 Y-4.28978
X3.25953 Y-4.28978
X3.25953 Y-4.29278
X3.26053 Y-4.29278
X3.26053 Y-4.29578
X3.26153 Y-4.29578
X3.26153 Y-4.29878
X3.26253 Y-4.29878
X3.26253 Y-4.30178
X3.26353 Y-4.30178
X3.26353 Y-4.30478
X3.26453 Y-4.30478
X3.26453 Y-4.30778
X3.26553 Y-4.30778
X3.26553 Y-4.30878
X3.26653 Y-4.30878
X3.26653 Y-4.30978
X3.26753 Y-4.30978
X3.26753 Y-4.31078
X3.26853 Y-4.31078
X3.26853 Y-4.31178
X3.26953 Y-4.31178
X3.26953 Y-4.31278
X3.27053 Y-4.31278
X3.27053 Y-4.31378
X3.27153 Y-4.31378
X3.27153 Y-4.31478
X3.27253 Y-4.31478
X3.27253 Y-4.31578
X3.27353 Y-4.31578
X3.27353 Y-4.31678
X3.27453 Y-4.31678
X3.27453 Y-4.31778
X3.27553 Y-4.31778
X3.27553 Y-4.31878
X3.27653 Y-4.31878
X3.27653 Y-4.31978
X3.27753 Y-4.31978
X3.27753 Y-4.32078
X3.27853 Y-4.32078
X3.27853 Y-4.32178
X3.27953 Y-4.32178
X3.27953 Y-4.32278
X3.28053 Y-4.32278
X3.28053 Y-4.32378
X3.28153 Y-4.32378
X3.28153 Y-4.32478
X3.28253 Y-4.32478
X3.28253 Y-4.32578
X3.28353 Y-4.32578
X3.28353 Y-4.32678
X3.28453 Y-4.32678
X3.28453 Y-4.32778
X3.28553 Y-4.32778
X3.28553 Y-4.32878
X3.28653 Y-4.32878
X3.28653 Y-4.36278
X3.24553 Y-4.36278
X3.24553 Y-4.41578
X3.35853 Y-4.41578
X3.35853 Y-4.36278
X3.31753 Y-4.36278
X3.31753 Y-4.30378
X3.31653 Y-4.30378
X3.31653 Y-4.30178
X3.31553 Y-4.30178
X3.31553 Y-4.30078
X3.31453 Y-4.30078
X3.31453 Y-4.29978
X3.31353 Y-4.29978
X3.31353 Y-4.29878
X3.31253 Y-4.29878
X3.31253 Y-4.29778
X3.31153 Y-4.29778
X3.31153 Y-4.29678
X3.31053 Y-4.29678
X3.31053 Y-4.29578
X3.30953 Y-4.29578
X3.30953 Y-4.29478
X3.30853 Y-4.29478
X3.30853 Y-4.29378
X3.30753 Y-4.29378
X3.30753 Y-4.29278
X3.30653 Y-4.29278
X3.30653 Y-4.29178
X3.30553 Y-4.29178
X3.30553 Y-4.29078
X3.30453 Y-4.29078
X3.30453 Y-4.28978
X3.30353 Y-4.28978
X3.30353 Y-4.28878
X3.30253 Y-4.28878
X3.30253 Y-4.28778
X3.30153 Y-4.28778
X3.30153 Y-4.28678
X3.30053 Y-4.28678
X3.30053 Y-4.28578
X3.29953 Y-4.28578
X3.29953 Y-4.28478
X3.29853 Y-4.28478
X3.29853 Y-4.28378
X3.29753 Y-4.28378
X3.29753 Y-4.28278
X3.29653 Y-4.28278
X3.29653 Y-4.28178
X3.29553 Y-4.28178
X3.29553 Y-4.28078
X3.29453 Y-4.28078
X3.29453 Y-4.27978
X3.29353 Y-4.27978
X3.29353 Y-4.27878
X3.29253 Y-4.27878
X3.29253 Y-4.27778
X3.29153 Y-4.27778
X3.29153 Y-4.27678
X3.29053 Y-4.27678
X3.29053 Y-4.27578
X3.28953 Y-4.27578
X3.28953 Y-4.27478
X3.28853 Y-4.27478
X3.28853 Y-4.27378
X3.28753 Y-4.27378
X3.28753 Y-4.27278
X3.28653 Y-4.27278
X3.28653 Y-4.27178
X3.28553 Y-4.27178
X3.28553 Y-4.27078
X3.28453 Y-4.27078
X3.28453 Y-4.26978
X3.28353 Y-4.26978
X3.28353 Y-4.26878
X3.28253 Y-4.26878
X3.28253 Y-4.26778
X3.28153 Y-4.26778
X3.28153 Y-4.26678
X3.28053 Y-4.26678
X3.28053 Y-4.26578
X3.27953 Y-4.26578
X3.27953 Y-4.26478
X3.27853 Y-4.26478
X3.27853 Y-4.26378
X3.27753 Y-4.26378
X3.27753 Y-4.26278
X3.27653 Y-4.26278
X3.27653 Y-4.26178
X3.27553 Y-4.26178
X3.27553 Y-4.26078
X3.27453 Y-4.26078
X3.27453 Y-4.25978
X3.27353 Y-4.25978
X3.27353 Y-4.25878
X3.27253 Y-4.25878
X3.27253 Y-4.25778
X3.27153 Y-4.25778
X3.27153 Y-4.25678
X3.26853 Y-4.25678
X3.26853 Y-4.25578
X3.26553 Y-4.25578
X3.26553 Y-4.25478
X3.26253 Y-4.25478
X3.26253 Y-4.25378
X3.25953 Y-4.25378
X3.25953 Y-4.25278
X3.25653 Y-4.25278
X3.25653 Y-4.25178
X3.25353 Y-4.25178
X3.25353 Y-4.25078
X3.25253 Y-4.25078
X3.25253 Y-4.24978
X3.25153 Y-4.24978
X3.25153 Y-4.24678
X3.25053 Y-4.24678
X3.25053 Y-4.24378
X3.24953 Y-4.24378
X3.24953 Y-4.24078
X3.24853 Y-4.24078
X3.24853 Y-4.23778
X3.24753 Y-4.23778
X3.24753 Y-4.23478
X3.24653 Y-4.23478
X3.24653 Y-4.23178
X3.24553 Y-4.23178
X3.24553 Y-4.23078
X3.24453 Y-4.23078
X3.24453 Y-4.22978
X3.24353 Y-4.22978
X3.24353 Y-4.22878
X3.24253 Y-4.22878
X3.24253 Y-4.22778
X3.24153 Y-4.22778
X3.24153 Y-4.22678
X3.24053 Y-4.22678
X3.24053 Y-4.22578
X3.23953 Y-4.22578
X3.23953 Y-4.22478
X3.23853 Y-4.22478
X3.23853 Y-4.22378
X3.23753 Y-4.22378
X3.23753 Y-4.22278
X3.23653 Y-4.22278
X3.23653 Y-4.22178
X3.23553 Y-4.22178
X3.23553 Y-4.22078
X3.23453 Y-4.22078
X3.23453 Y-4.21978
X3.23353 Y-4.21978
X3.23353 Y-4.21878
X3.23253 Y-4.21878
X3.23253 Y-4.21778
X3.23153 Y-4.21778
X3.23153 Y-4.21678
X3.23053 Y-4.21678
X3.23053 Y-4.21578
X3.22953 Y-4.21578
X3.22953 Y-4.21478
X3.22853 Y-4.21478
X3.22853 Y-4.21378
X3.22753 Y-4.21378
X3.22753 Y-4.21278
X3.22653 Y-4.21278
X3.22653 Y-4.21178
X3.22553 Y-4.21178
X3.22553 Y-4.21078
X3.22453 Y-4.21078
X3.22453 Y-4.20978
X3.22353 Y-4.20978
X3.22353 Y-4.20878
X3.22253 Y-4.20878
X3.22253 Y-4.20778
X3.22153 Y-4.20778
X3.22153 Y-4.20678
X3.22053 Y-4.20678
X3.22053 Y-4.20578
X3.21953 Y-4.20578
X3.21953 Y-4.20478
X3.21853 Y-4.20478
X3.21853 Y-4.20378
X3.21753 Y-4.20378
X3.21753 Y-4.20278
X3.21653 Y-4.20278
X3.21653 Y-4.20178
X3.21553 Y-4.20178
X3.21553 Y-4.20078
X3.21453 Y-4.20078
X3.21453 Y-4.19978
X3.21353 Y-4.19978
X3.21353 Y-4.19878
X3.21253 Y-4.19878
X3.21253 Y-4.19778
X3.21153 Y-4.19778
X3.21153 Y-4.19678
X3.20953 Y-4.19678
X3.20953 Y-4.19578
X3.13253 Y-4.19578
X3.13253 Y-4.19478
X3.13153 Y-4.19478
X3.13153 Y-4.19378
X3.13053 Y-4.19378
X3.13053 Y-4.19278
X3.12953 Y-4.19278
X3.12953 Y-4.19178
X3.12853 Y-4.19178
X3.12853 Y-4.19078
X3.12653 Y-4.19078
X3.12653 Y-4.18978
X3.12353 Y-4.18978
X3.12353 Y-4.18878
X3.09853 Y-4.18878
X3.09853 Y-4.18978
X3.09553 Y-4.18978
X3.09553 Y-4.19078
X3.09353 Y-4.19078
X3.09353 Y-4.19178
X3.09253 Y-4.19178
X3.09253 Y-4.19278
X3.09153 Y-4.19278
X3.09153 Y-4.19378
X3.09053 Y-4.19378
X3.09053 Y-4.19478
X3.08953 Y-4.19478
X3.08953 Y-4.19878
X3.08853 Y-4.19878
X3.08853 Y-4.19978
G04 P0 ( dwell for no time -- G64 should not smooth over this point )
G00 Z10.00000 ( retract )

G00 X3.24553 Y-4.21578 ( rapid move to begin. )
G01 Z1.00000 F1.00000 ( plunge. )
G04 P0 ( dwell for no time -- G64 should not smooth over this point )
X3.24553 Y-4.21578
X3.24553 Y-4.23178
X3.24653 Y-4.23178
X3.24653 Y-4.23478
X3.24753 Y-4.23478
X3.24753 Y-4.23778
X3.24853 Y-4.23778
X3.24853 Y-4.24078
X3.24953 Y-4.24078
X3.24953 Y-4.24378
X3.25053 Y-4.24378
X3.25053 Y-4.24678
X3.25153 Y-4.24678
X3.25153 Y-4.24978
X3.25253 Y-4.24978
X3.25253 Y-4.25078
X3.25353 Y-4.25078
X3.25353 Y-4.25178
X3.25653 Y-4.25178
X3.25653 Y-4.25278
X3.25953 Y-4.25278
X3.25953 Y-4.25378
X3.26253 Y-4.25378
X3.26253 Y-4.25478
X3.26553 Y-4.25478
X3.26553 Y-4.25578
X3.26853 Y-4.25578
X3.26853 Y-4.25678
X3.27153 Y-4.25678
X3.27153 Y-4.25778
X3.32953 Y-4.25778
X3.32953 Y-4.25878
X3.33053 Y-4.25878
X3.33053 Y-4.25978
X3.33153 Y-4.25978
X3.33153 Y-4.26078
X3.33253 Y-4.26078
X3.33253 Y-4.26178
X3.33353 Y-4.26178
X3.33353 Y-4.26278
X3.33453 Y-4.26278
X3.33453 Y-4.26378
X3.33553 Y-4.26378
X3.33553 Y-4.26478
X3.33653 Y-4.26478
X3.33653 Y-4.26578
X3.33753 Y-4.26578
X3.33753 Y-4.26678
X3.33853 Y-4.26678
X3.33853 Y-4.26778
X3.33953 Y-4.26778
X3.33953 Y-4.26878
X3.34053 Y-4.26878
X3.34053 Y-4.26978
X3.34153 Y-4.26978
X3.34153 Y-4.27078
X3.34253 Y-4.27078
X3.34253 Y-4.27178
X3.34353 Y-4.27178
X3.34353 Y-4.27278
X3.34453 Y-4.27278
X3.34453 Y-4.27378
X3.34553 Y-4.27378
X3.34553 Y-4.27478
X3.34653 Y-4.27478
X3.34653 Y-4.27578
X3.34753 Y-4.27578
X3.34753 Y-4.27678
X3.34853 Y-4.27678
X3.34853 Y-4.27778
X3.34953 Y-4.27778
X3.34953 Y-4.27878
X3.35053 Y-4.27878
X3.35053 Y-4.27978
X3.35153 Y-4.27978
X3.35153 Y-4.28078
X3.35253 Y-4.28078
X3.35253 Y-4.28178
X3.35353 Y-4.28178
X3.35353 Y-4.28278
X3.35453 Y-4.28278
X3.35453 Y-4.28378
X3.35553 Y-4.28378
X3.35553 Y-4.28478
X3.35653 Y-4.28478
X3.35653 Y-4.28578
X3.35753 Y-4.28578
X3.35753 Y-4.28678
X3.35853 Y-4.28678
X3.35853 Y-4.28778
X3.35953 Y-4.28778
X3.35953 Y-4.28878
X3.36053 Y-4.28878
X3.36053 Y-4.28978
X3.36153 Y-4.28978
X3.36153 Y-4.29078
X3.36253 Y-4.29078
X3.36253 Y-4.29178
X3.36353 Y-4.29178
X3.36353 Y-4.29278
X3.36453 Y-4.29278
X3.36453 Y-4.29378
X3.36553 Y-4.29378
X3.36553 Y-4.29478
X3.36653 Y-4.29478
X3.36653 Y-4.29578
X3.36753 Y-4.29578
X3.36753 Y-4.29678
X3.36853 Y-4.29678
X3.36853 Y-4.29778
X3.36953 Y-4.29778
X3.36953 Y-4.29878
X3.37053 Y-4.29878
X3.37053 Y-4.29978
X3.37153 Y-4.29978
X3.37153 Y-4.30078
X3.37253 Y-4.30078
X3.37253 Y-4.30178
X3.37353 Y-4.30178
X3.37353 Y-4.30278
X3.37453 Y-4.30278
X3.37453 Y-4.30378
X3.37553 Y-4.30378
X3.37553 Y-4.30478
X3.37653 Y-4.30478
X3.37653 Y-4.30578
X3.37753 Y-4.30578
X3.37753 Y-4.30678
X3.37853 Y-4.30678
X3.37853 Y-4.30778
X3.37953 Y-4.30778
X3.37953 Y-4.30878
X3.38053 Y-4.30878
X3.38053 Y-4.30978
X3.38153 Y-4.30978
X3.38153 Y-4.31078
X3.38253 Y-4.31078
X3.38253 Y-4.31178
X3.38353 Y-4.31178
X3.38353 Y-4.31278
X3.38453 Y-4.31278
X3.38453 Y-4.31378
X3.38553 Y-4.31378
X3.38553 Y-4.31478
X3.38653 Y-4.31478
X3.38653 Y-4.31578
X3.38753 Y-4.31578
X3.38753 Y-4.31678
X3.38853 Y-4.31678
X3.38853 Y-4.31778
X3.38953 Y-4.31778
X3.38953 Y-4.31878
X3.39053 Y-4.31878
X3.39053 Y-4.31978
X3.39153 Y-4.31978
X3.39153 Y-4.32078
X3.39253 Y-4.32078
X3.39253 Y-4.32178
X3.39353 Y-4.32178
X3.39353 Y-4.32278
X3.39453 Y-4.32278
X3.39453 Y-4.32378
X3.39553 Y-4.32378
X3.39553 Y-4.32478
X3.39653 Y-4.32478
X3.39653 Y-4.32578
X3.39753 Y-4.32578
X3.39753 Y-4.32678
X3.39853 Y-4.32678
X3.39853 Y-4.32778
X3.39953 Y-4.32778
X3.39953 Y-4.32878
X3.40053 Y-4.32878
X3.40053 Y-4.32978
X3.40153 Y-4.32978
X3.40153 Y-4.33078
X3.40253 Y-4.33078
X3.40253 Y-4.33178
X3.40353 Y-4.33178
X3.40353 Y-4.33278
X3.40453 Y-4.33278
X3.40453 Y-4.33378
X3.40553 Y-4.33378
X3.40553 Y-4.33478
X3.40653 Y-4.33478
X3.40653 Y-4.33578
X3.40753 Y-4.33578
X3.40753 Y-4.33678
X3.40853 Y-4.33678
X3.40853 Y-4.33778
X3.40953 Y-4.33778
X3.40953 Y-4.33878
X3.41053 Y-4.33878
X3.41053 Y-4.33978
X3.41153 Y-4.33978
X3.41153 Y-4.34078
X3.41253 Y-4.34078
X3.41253 Y-4.34178
X3.41353 Y-4.34178
X3.41353 Y-4.34278
X3.41453 Y-4.34278
X3.41453 Y-4.34378
X3.41553 Y-4.34378
X3.41553 Y-4.34478
X3.41653 Y-4.34478
X3.41653 Y-4.34578
X3.41753 Y-4.34578
X3.41753 Y-4.34678
X3.41853 Y-4.34678
X3.41853 Y-4.34778
X3.41953 Y-4.34778
X3.41953 Y-4.34878
X3.42053 Y-4.34878
X3.42053 Y-4.34978
X3.42153 Y-4.34978
X3.42153 Y-4.35078
X3.42253 Y-4.35078
X3.42253 Y-4.35178
X3.42353 Y-4.35178
X3.42353 Y-4.35278
X3.42453 Y-4.35278
X3.42453 Y-4.35378
X3.42553 Y-4.35378
X3.42553 Y-4.35478
X3.42653 Y-4.35478
X3.42653 Y-4.35578
X3.42753 Y-4.35578
X3.42753 Y-4.35678
X3.42853 Y-4.35678
X3.42853 Y-4.35778
X3.42953 Y-4.35778
X3.42953 Y-4.35878
X3.43053 Y-4.35878
X3.43053 Y-4.35978
X3.43153 Y-4.35978
X3.43153 Y-4.36078
X3.43253 Y-4.36078
X3.43253 Y-4.36178
X3.43353 Y-4.36178
X3.43353 Y-4.36278
X3.43453 Y-4.36278
X3.43453 Y-4.36378
X3.43553 Y-4.36378
X3.43553 Y-4.36478
X3.43653 Y-4.36478
X3.43653 Y-4.36578
X3.43753 Y-4.36578
X3.43753 Y-4.36678
X3.43853 Y-4.36678
X3.43853 Y-4.36778
X3.43953 Y-4.36778
X3.43953 Y-4.36878
X3.44053 Y-4.36878
X3.44053 Y-4.36978
X3.44153 Y-4.36978
X3.44153 Y-4.37078
X3.44253 Y-4.37078
X3.44253 Y-4.37178
X3.44353 Y-4.37178
X3.44353 Y-4.37278
X3.44453 Y-4.37278
X3.44453 Y-4.37378
X3.44553 Y-4.37378
X3.44553 Y-4.37478
X3.44653 Y-4.37478
X3.44653 Y-4.37578
X3.44753 Y-4.37578
X3.44753 Y-4.37678
X3.44853 Y-4.37678
X3.44853 Y-4.37778
X3.44753 Y-4.37778
X3.44753 Y-4.37878
X3.44653 Y-4.37878
X3.44653 Y-4.37978
X3.44553 Y-4.37978
X3.44553 Y-4.38078
X3.44453 Y-4.38078
X3.44453 Y-4.38178
X3.44353 Y-4.38178
X3.44353 Y-4.38278
X3.44253 Y-4.38278
X3.44253 Y-4.38378
X3.44153 Y-4.38378
X3.44153 Y-4.38478
X3.44053 Y-4.38478
X3.44053 Y-4.38578
X3.43953 Y-4.38578
X3.43953 Y-4.38678
X3.43853 Y-4.38678
X3.43853 Y-4.38778
X3.43753 Y-4.38778
X3.43753 Y-4.38878
X3.43653 Y-4.38878
X3.43653 Y-4.38978
X3.43553 Y-4.38978
X3.43553 Y-4.39078
X3.43453 Y-4.39078
X3.43453 Y-4.39178
X3.43353 Y-4.39178
X3.43353 Y-4.39278
X3.43253 Y-4.39278
X3.43253 Y-4.39378
X3.43153 Y-4.39378
X3.43153 Y-4.39478
X3.43053 Y-4.39478
X3.43053 Y-4.39578
X3.42953 Y-4.39578
X3.42953 Y-4.39678
X3.42853 Y-4.39678
X3.42853 Y-4.39778
X3.42753 Y-4.39778
X3.42753 Y-4.39878
X3.42653 Y-4.39878
X3.42653 Y-4.39978
X3.42553 Y-4.39978
X3.42553 Y-4.40078
X3.42453 Y-4.40078
X3.42453 Y-4.40178
X3.42353 Y-4.40178
X3.42353 Y-4.40278
X3.42253 Y-4.40278
X3.42253 Y-4.40378
X3.42153 Y-4.40378
X3.42153 Y-4.40478
X3.42053 Y-4.40478
X3.42053 Y-4.40578
X3.41953 Y-4.40578
X3.41953 Y-4.40678
X3.41853 Y-4.40678
X3.41853 Y-4.40778
X3.41753 Y-4.40778
X3.41753 Y-4.40878
X3.41653 Y-4.40878
X3.41653 Y-4.40978
X3.41553 Y-4.40978
X3.41553 Y-4.41078
X3.41453 Y-4.41078
X3.41453 Y-4.41178
X3.41353 Y-4.41178
X3.41353 Y-4.41278
X3.41253 Y-4.41278
X3.41253 Y-4.41378
X3.41153 Y-4.41378
X3.41153 Y-4.41478
X3.41053 Y-4.41478
X3.41053 Y-4.41578
X3.40953 Y-4.41578
X3.40953 Y-4.41678
X3.40853 Y-4.41678
X3.40853 Y-4.41778
X3.40753 Y-4.41778
X3.40753 Y-4.41878
X3.40653 Y-4.41878
X3.40653 Y-4.41978
X3.40553 Y-4.41978
X3.40553 Y-4.42078
X3.40453 Y-4.42078
X3.40453 Y-4.42178
X3.40353 Y-4.42178
X3.40353 Y-4.42278
X3.40253 Y-4.42278
X3.40253 Y-4.42378
X3.40153 Y-4.42378
X3.40153 Y-4.42478
X3.40053 Y-4.42478
X3.40053 Y-4.42578
X3.39953 Y-4.42578
X3.39953 Y-4.42678
X3.39853 Y-4.42678
X3.39853 Y-4.42778
X3.39753 Y-4.42778
X3.39753 Y-4.42878
X3.39653 Y-4.42878
X3.39653 Y-4.42978
X3.39553 Y-4.42978
X3.39553 Y-4.43078
X3.39453 Y-4.43078
X3.39453 Y-4.43178
X3.39353 Y-4.43178
X3.39353 Y-4.43278
X3.39253 Y-4.43278
X3.39253 Y-4.43378
X3.39153 Y-4.43378
X3.39153 Y-4.43478
X3.39053 Y-4.43478
X3.39053 Y-4.43578
X3.38953 Y-4.43578
X3.38953 Y-4.43678
X3.38853 Y-4.43678
X3.38853 Y-4.43778
X3.38753 Y-4.43778
X3.38753 Y-4.43878
X3.38653 Y-4.43878
X3.38653 Y-4.43978
X3.38553 Y-4.43978
X3.38553 Y-4.44078
X3.38453 Y-4.44078
X3.38453 Y-4.44178
X3.38353 Y-4.44178
X3.38353 Y-4.44278
X3.38253 Y-4.44278
X3.38253 Y-4.44378
X3.38153 Y-4.44378
X3.38153 Y-4.44478
X3.38053 Y-4.44478
X3.38053 Y-4.44578
X3.37953 Y-4.44578
X3.37953 Y-4.44678
X3.37853 Y-4.44678
X3.37853 Y-4.44778
X3.37753 Y-4.44778
X3.37753 Y-4.44878
X3.37653 Y-4.44878
X3.37653 Y-4.44978
X3.37553 Y-4.44978
X3.37553 Y-4.45078
X3.37453 Y-4.45078
X3.37453 Y-4.45178
X3.37353 Y-4.45178
X3.37353 Y-4.45278
X3.37253 Y-4.45278
X3.37253 Y-4.45378
X3.37153 Y-4.45378
X3.37153 Y-4.45478
X3.37053 Y-4.45478
X3.37053 Y-4.45578
X3.36953 Y-4.45578
X3.36953 Y-4.45678
X3.36853 Y-4.45678
X3.36853 Y-4.45778
X3.36753 Y-4.45778
X3.36753 Y-4.45878
X3.36653 Y-4.45878
X3.36653 Y-4.45978
X3.36553 Y-4.45978
X3.36553 Y-4.46078
X3.36453 Y-4.46078
X3.36453 Y-4.46178
X3.36353 Y-4.46178
X3.36353 Y-4.46278
X3.36253 Y-4.46278
X3.36253 Y-4.46378
X3.36153 Y-4.46378
X3.36153 Y-4.46478
X3.36053 Y-4.46478
X3.36053 Y-4.46578
X3.35953 Y-4.46578
X3.35953 Y-4.46678
X3.35853 Y-4.46678
X3.35853 Y-4.46778
X3.35753 Y-4.46778
X3.35753 Y-4.46878
X3.35653 Y-4.46878
X3.35653 Y-4.46978
X3.35553 Y-4.46978
X3.35553 Y-4.47078
X3.35453 Y-4.47078
X3.35453 Y-4.47178
X3.35353 Y-4.47178
X3.35353 Y-4.47278
X3.35253 Y-4.47278
X3.35253 Y-4.47378
X3.35153 Y-4.47378
X3.35153 Y-4.47478
X3.35053 Y-4.47478
X3.35053 Y-4.47578
X3.34953 Y-4.47578
X3.34953 Y-4.47678
X3.34853 Y-4.47678
X3.34853 Y-4.47778
X3.34753 Y-4.47778
X3.34753 Y-4.47878
X3.34653 Y-4.47878
X3.34653 Y-4.47978
X3.34553 Y-4.47978
X3.34553 Y-4.48078
X3.34453 Y-4.48078
X3.34453 Y-4.48178
X3.34353 Y-4.48178
X3.34353 Y-4.48278
X3.34253 Y-4.48278
X3.34253 Y-4.48378
X3.34153 Y-4.48378
X3.34153 Y-4.48478
X3.34053 Y-4.48478
X3.34053 Y-4.48578
X3.33953 Y-4.48578
X3.33953 Y-4.48678
X3.33853 Y-4.48678
X3.33853 Y-4.48778
X3.33753 Y-4.48778
X3.33753 Y-4.48878
X3.33653 Y-4.48878
X3.33653 Y-4.48978
X3.33553 Y-4.48978
X3.33553 Y-4.49078
X3.33453 Y-4.49078
X3.33453 Y-4.49178
X3.33353 Y-4.49178
X3.33353 Y-4.49278
X3.33253 Y-4.49278
X3.33253 Y-4.49378
X3.33153 Y-4.49378
X3.33153 Y-4.49478
X3.33053 Y-4.49478
X3.33053 Y-4.49578
X3.32953 Y-4.49578
X3.32953 Y-4.49678
X3.32853 Y-4.49678
X3.32853 Y-4.49778
X3.32753 Y-4.49778
X3.32753 Y-4.49878
X3.32653 Y-4.49878
X3.32653 Y-4.49978
X3.32553 Y-4.49978
X3.32553 Y-4.50078
X3.32453 Y-4.50078
X3.32453 Y-4.50178
X3.32353 Y-4.50178
X3.32353 Y-4.50278
X3.32253 Y-4.50278
X3.32253 Y-4.50378
X3.32153 Y-4.50378
X3.32153 Y-4.50478
X3.32053 Y-4.50478
X3.32053 Y-4.50578
X3.31953 Y-4.50578
X3.31953 Y-4.50678
X3.31853 Y-4.50678
X3.31853 Y-4.50778
X3.31753 Y-4.50778
X3.31753 Y-4.50878
X3.31653 Y-4.50878
X3.31653 Y-4.50978
X3.31553 Y-4.50978
X3.31553 Y-4.51078
X3.31453 Y-4.51078
X3.31453 Y-4.51178
X3.31353 Y-4.51178
X3.31353 Y-4.51278
X3.31253 Y-4.51278
X3.31253 Y-4.51378
X3.31153 Y-4.51378
X3.31153 Y-4.51478
X3.31053 Y-4.51478
X3.31053 Y-4.51578
X3.30953 Y-4.51578
X3.30953 Y-4.51678
X3.30853 Y-4.51678
X3.30853 Y-4.51778
X3.30753 Y-4.51778
X3.30753 Y-4.51878
X3.30653 Y-4.51878
X3.30653 Y-4.51978
X3.30553 Y-4.51978
X3.30553 Y-4.52078
X3.30453 Y-4.52078
X3.30453 Y-4.52178
X3.30353 Y-4.52178
X3.30353 Y-4.52278
X3.30253 Y-4.52278
X3.30253 Y-4.52378
X3.29553 Y-4.52378
X3.29553 Y-4.52478
X3.29253 Y-4.52478
X3.29253 Y-4.52578
X3.29053 Y-4.52578
X3.29053 Y-4.52678
X3.28953 Y-4.52678
X3.28953 Y-4.52778
X3.28853 Y-4.52778
X3.28853 Y-4.52878
X3.28753 Y-4.52878
X3.28753 Y-4.52978
X3.28653 Y-4.52978
X3.28653 Y-4.53378
X3.28553 Y-4.53378
X3.28553 Y-4.55878
X3.28653 Y-4.55878
X3.28653 Y-4.56278
X3.28753 Y-4.56278
X3.28753 Y-4.56378
X3.28853 Y-4.56378
X3.28853 Y-4.56478
X3.28953 Y-4.56478
X3.28953 Y-4.56578
X3.29053 Y-4.56578
X3.29053 Y-4.56678
X3.29253 Y-4.56678
X3.29253 Y-4.56778
X3.29553 Y-4.56778
X3.29553 Y-4.56878
X3.32053 Y-4.56878
X3.32053 Y-4.56778
X3.32353 Y-4.56778
X3.32353 Y-4.56678
X3.32553 Y-4.56678
X3.32553 Y-4.56578
X3.32653 Y-4.56578
X3.32653 Y-4.56478
X3.32753 Y-4.56478
X3.32753 Y-4.56378
X3.32853 Y-4.56378
X3.32853 Y-4.56278
X3.32953 Y-4.56278
X3.32953 Y-4.55878
X3.33053 Y-4.55878
X3.33053 Y-4.55178
X3.33153 Y-4.55178
X3.33153 Y-4.55078
X3.33253 Y-4.55078
X3.33253 Y-4.54978
X3.33353 Y-4.54978
X3.33353 Y-4.54878
X3.33453 Y-4.54878
X3.33453 Y-4.54778
X3.33553 Y-4.54778
X3.33553 Y-4.54678
X3.33653 Y-4.54678
X3.33653 Y-4.54578
X3.33753 Y-4.54578
X3.33753 Y-4.54478
X3.33853 Y-4.54478
X3.33853 Y-4.54378
X3.33953 Y-4.54378
X3.33953 Y-4.54278
X3.34053 Y-4.54278
X3.34053 Y-4.54178
X3.34153 Y-4.54178
X3.34153 Y-4.54078
X3.34253 Y-4.54078
X3.34253 Y-4.53978
X3.34353 Y-4.53978
X3.34353 Y-4.53878
X3.34453 Y-4.53878
X3.34453 Y-4.53778
X3.34553 Y-4.53778
X3.34553 Y-4.53678
X3.34653 Y-4.53678
X3.34653 Y-4.53578
X3.34753 Y-4.53578
X3.34753 Y-4.53478
X3.34853 Y-4.53478
X3.34853 Y-4.53378
X3.34953 Y-4.53378
X3.34953 Y-4.53278
X3.35053 Y-4.53278
X3.35053 Y-4.53178
X3.35153 Y-4.53178
X3.35153 Y-4.53078
X3.35253 Y-4.53078
X3.35253 Y-4.52978
X3.35353 Y-4.52978
X3.35353 Y-4.52878
X3.35453 Y-4.52878
X3.35453 Y-4.52778
X3.35553 Y-4.52778
X3.35553 Y-4.52678
X3.35653 Y-4.52678
X3.35653 Y-4.52578
X3.35753 Y-4.52578
X3.35753 Y-4.52478
X3.35853 Y-4.52478
X3.35853 Y-4.52378
X3.35953 Y-4.52378
X3.35953 Y-4.52278
X3.36053 Y-4.52278
X3.36053 Y-4.52178
X3.36153 Y-4.52178
X3.36153 Y-4.52078
X3.36253 Y-4.52078
X3.36253 Y-4.51978
X3.36353 Y-4.51978
X3.36353 Y-4.51878
X3.36453 Y-4.51878
X3.36453 Y-4.51778
X3.36553 Y-4.51778
X3.36553 Y-4.51678
X3.36653 Y-4.51678
X3.36653 Y-4.51578
X3.36753 Y-4.51578
X3.36753 Y-4.51478
X3.36853 Y-4.51478
X3.36853 Y-4.51378
X3.36953 Y-4.51378
X3.36953 Y-4.51278
X3.37053 Y-4.51278
X3.37053 Y-4.51178
X3.37153 Y-4.51178
X3.37153 Y-4.51078
X3.37253 Y-4.51078
X3.37253 Y-4.50978
X3.37353 Y-4.50978
X3.37353 Y-4.50878
X3.37453 Y-4.50878
X3.37453 Y-4.50778
X3.37553 Y-4.50778
X3.37553 Y-4.50678
X3.37653 Y-4.50678
X3.37653 Y-4.50578
X3.37753 Y-4.50578
X3.37753 Y-4.50478
X3.37853 Y-4.50478
X3.37853 Y-4.50378
X3.37953 Y-4.50378
X3.37953 Y-4.50278
X3.38053 Y-4.50278
X3.38053 Y-4.50178
X3.38153 Y-4.50178
X3.38153 Y-4.50078
X3.38253 Y-4.50078
X3.38253 Y-4.49978
X3.38353 Y-4.49978
X3.38353 Y-4.49878
X3.38453 Y-4.49878
X3.38453 Y-4.49778
X3.38553 Y-4.49778
X3.38553 Y-4.49678
X3.38653 Y-4.49678
X3.38653 Y-4.49578
X3.38753 Y-4.49578
X3.38753 Y-4.49478
X3.38853 Y-4.49478
X3.38853 Y-4.49378
X3.38953 Y-4.49378
X3.38953 Y-4.49278
X3.39053 Y-4.49278
X3.39053 Y-4.49178
X3.39153 Y-4.49178
X3.39153 Y-4.49078
X3.39253 Y-4.49078
X3.39253 Y-4.48978
X3.39353 Y-4.48978
X3.39353 Y-4.48878
X3.39453 Y-4.48878
X3.39453 Y-4.48778
X3.39553 Y-4.48778
X3.39553 Y-4.48678
X3.39653 Y-4.48678
X3.39653 Y-4.48578
X3.39753 Y-4.48578
X3.39753 Y-4.48478
X3.39853 Y-4.48478
X3.39853 Y-4.48378
X3.39953 Y-4.48378
X3.39953 Y-4.48278
