( pcb2gcode 1.1.4 )

G94     ( Inches per minute feed rate. )
G20     ( Units == INCHES.             )
G90     ( Absolute coordinates.        )
S7000  ( RPM spindle speed.           )
M3      ( Spindle on clockwise.        )

G64 P0.00500 ( set maximum deviation from commanded toolpath )

G04 P0 ( dwell for no time -- G64 should not smooth over this point )
G00 Z10.00000 ( retract )

G00 X4.22700 Y-2.69678 ( rapid move to begin. )
G01 Z1.00000 F1.00000 ( plunge. )
G04 P0 ( dwell for no time -- G64 should not smooth over this point )
X4.22700 Y-2.69678
X4.22700 Y-2.69978
X4.22800 Y-2.69978
X4.22800 Y-2.70078
X4.23000 Y-2.70078
X4.23000 Y-2.70178
X4.23100 Y-2.70178
X4.23100 Y-2.70278
X4.23300 Y-2.70278
X4.23300 Y-2.70378
X4.23500 Y-2.70378
X4.23500 Y-2.70478
X4.23600 Y-2.70478
X4.23600 Y-2.70578
X4.23800 Y-2.70578
X4.23800 Y-2.70678
X4.23900 Y-2.70678
X4.23900 Y-2.70778
X4.24100 Y-2.70778
X4.24100 Y-2.70878
X4.24300 Y-2.70878
X4.24300 Y-2.70978
X4.24400 Y-2.70978
X4.24400 Y-2.71078
X4.24600 Y-2.71078
X4.24600 Y-2.71178
X4.24800 Y-2.71178
X4.24800 Y-2.71278
X4.24900 Y-2.71278
X4.24900 Y-2.71378
X4.25100 Y-2.71378
X4.25100 Y-2.71478
X4.25300 Y-2.71478
X4.25300 Y-2.71578
X4.25400 Y-2.71578
X4.25400 Y-2.71678
X4.25600 Y-2.71678
X4.25600 Y-2.71778
X4.25700 Y-2.71778
X4.25700 Y-2.71878
X4.25900 Y-2.71878
X4.25900 Y-2.71978
X4.26100 Y-2.71978
X4.26100 Y-2.72078
X4.26200 Y-2.72078
X4.26200 Y-2.72178
X4.26400 Y-2.72178
X4.26400 Y-2.72278
X4.26600 Y-2.72278
X4.26600 Y-2.72378
X4.26700 Y-2.72378
X4.26700 Y-2.72478
X4.26900 Y-2.72478
X4.26900 Y-2.72578
X4.27000 Y-2.72578
X4.27000 Y-2.72678
X4.27200 Y-2.72678
X4.27200 Y-2.72778
X4.27400 Y-2.72778
X4.27400 Y-2.72878
X4.27500 Y-2.72878
X4.27500 Y-2.72978
X4.27700 Y-2.72978
X4.27700 Y-2.73078
X4.27900 Y-2.73078
X4.27900 Y-2.73178
X4.28000 Y-2.73178
X4.28000 Y-2.73278
X4.28200 Y-2.73278
X4.28200 Y-2.73378
X4.28400 Y-2.73378
X4.28400 Y-2.73478
X4.28500 Y-2.73478
X4.28500 Y-2.73578
X4.28700 Y-2.73578
X4.28700 Y-2.73678
X4.28800 Y-2.73678
X4.28800 Y-2.73778
X4.29000 Y-2.73778
X4.29000 Y-2.73878
X4.29200 Y-2.73878
X4.29200 Y-2.73978
X4.29300 Y-2.73978
X4.29300 Y-2.74078
X4.29500 Y-2.74078
X4.29500 Y-2.74178
X4.29700 Y-2.74178
X4.29700 Y-2.74278
X4.29800 Y-2.74278
X4.29800 Y-2.74378
X4.29900 Y-2.74378
X4.29900 Y-2.74478
X4.30000 Y-2.74478
X4.30000 Y-3.53078
X4.29900 Y-3.53078
X4.29900 Y-3.53178
X4.29800 Y-3.53178
X4.29800 Y-3.53278
X4.20300 Y-3.53278
X4.20300 Y-3.53178
X4.20200 Y-3.53178
X4.20200 Y-3.52878
X4.20100 Y-3.52878
X4.20100 Y-3.52578
X4.20000 Y-3.52578
X4.20000 Y-3.52378
X4.19900 Y-3.52378
X4.19900 Y-3.52178
X4.19800 Y-3.52178
X4.19800 Y-3.52078
X4.19700 Y-3.52078
X4.19700 Y-3.51978
X4.19600 Y-3.51978
X4.19600 Y-3.51878
X4.19500 Y-3.51878
X4.19500 Y-3.51778
X4.19400 Y-3.51778
X4.19400 Y-3.51678
X4.19300 Y-3.51678
X4.19300 Y-3.51578
X4.19200 Y-3.51578
X4.19200 Y-3.51478
X4.19100 Y-3.51478
X4.19100 Y-3.51378
X4.19000 Y-3.51378
X4.19000 Y-3.51278
X4.18900 Y-3.51278
X4.18900 Y-3.51178
X4.18800 Y-3.51178
X4.18800 Y-3.51078
X4.18700 Y-3.51078
X4.18700 Y-3.50978
X4.18600 Y-3.50978
X4.18600 Y-3.50878
X4.18500 Y-3.50878
X4.18500 Y-3.50778
X4.18400 Y-3.50778
X4.18400 Y-3.50678
X4.18300 Y-3.50678
X4.18300 Y-3.50578
X4.18200 Y-3.50578
X4.18200 Y-3.50478
X4.18100 Y-3.50478
X4.18100 Y-3.50378
X4.18000 Y-3.50378
X4.18000 Y-3.50278
X4.17900 Y-3.50278
X4.17900 Y-3.50178
X4.17800 Y-3.50178
X4.17800 Y-3.50078
X4.17700 Y-3.50078
X4.17700 Y-3.49978
X4.17600 Y-3.49978
X4.17600 Y-3.49878
X4.17500 Y-3.49878
X4.17500 Y-3.49778
X4.17400 Y-3.49778
X4.17400 Y-3.49678
X4.17300 Y-3.49678
X4.17300 Y-3.49578
X4.17200 Y-3.49578
X4.17200 Y-3.49478
X4.17100 Y-3.49478
X4.17100 Y-3.49378
X4.17000 Y-3.49378
X4.17000 Y-3.49278
X4.16900 Y-3.49278
X4.16900 Y-3.49178
X4.16800 Y-3.49178
X4.16800 Y-3.49078
X4.16600 Y-3.49078
X4.16600 Y-3.48978
X4.16400 Y-3.48978
X4.16400 Y-3.48878
X4.15900 Y-3.48878
X4.15900 Y-3.48778
X4.15300 Y-3.48778
X4.15300 Y-3.48678
X3.67000 Y-3.48678
X3.67000 Y-3.48578
X3.66900 Y-3.48578
X3.66900 Y-3.48478
X3.66800 Y-3.48478
X3.66800 Y-3.48378
X3.66700 Y-3.48378
X3.66700 Y-3.46878
X3.66600 Y-3.46878
X3.66600 Y-3.46978
X3.66400 Y-3.46978
X3.66400 Y-3.47078
X3.66200 Y-3.47078
X3.66200 Y-3.47178
X3.66000 Y-3.47178
X3.66000 Y-3.47278
X3.65900 Y-3.47278
X3.65900 Y-3.47378
X3.65700 Y-3.47378
X3.65700 Y-3.47478
X3.65500 Y-3.47478
X3.65500 Y-3.47578
X3.65300 Y-3.47578
X3.65300 Y-3.47678
X3.65200 Y-3.47678
X3.65200 Y-3.47778
X3.65000 Y-3.47778
X3.65000 Y-3.47878
X3.64800 Y-3.47878
X3.64800 Y-3.47978
X3.64700 Y-3.47978
X3.64700 Y-3.48078
X3.64500 Y-3.48078
X3.64500 Y-3.48178
X3.64300 Y-3.48178
X3.64300 Y-3.48278
X3.64100 Y-3.48278
X3.64100 Y-3.48378
X3.64000 Y-3.48378
X3.64000 Y-3.48478
X3.63800 Y-3.48478
X3.63800 Y-3.48578
X3.63600 Y-3.48578
X3.63600 Y-3.48678
X3.63400 Y-3.48678
X3.63400 Y-3.48778
X3.63300 Y-3.48778
X3.63300 Y-3.48878
X3.63100 Y-3.48878
X3.63100 Y-3.48978
X3.62900 Y-3.48978
X3.62900 Y-3.49078
X3.62700 Y-3.49078
X3.62700 Y-3.49178
X3.62600 Y-3.49178
X3.62600 Y-3.49278
X3.62400 Y-3.49278
X3.62400 Y-3.49378
X3.62300 Y-3.49378
X3.62300 Y-3.50178
X3.62400 Y-3.50178
X3.62400 Y-3.51578
X3.62300 Y-3.51578
X3.62300 Y-3.51878
X3.62200 Y-3.51878
X3.62200 Y-3.52178
X3.62100 Y-3.52178
X3.62100 Y-3.52378
X3.62000 Y-3.52378
X3.62000 Y-3.52578
X3.61900 Y-3.52578
X3.61900 Y-3.52678
X3.61800 Y-3.52678
X3.61800 Y-3.52778
X3.61700 Y-3.52778
X3.61700 Y-3.52878
X3.61600 Y-3.52878
X3.61600 Y-3.52978
X3.61500 Y-3.52978
X3.61500 Y-3.53078
X3.61400 Y-3.53078
X3.61400 Y-3.53178
X3.61300 Y-3.53178
X3.61300 Y-3.53278
X3.61200 Y-3.53278
X3.61200 Y-3.53378
X3.61100 Y-3.53378
X3.61100 Y-3.53478
X3.61000 Y-3.53478
X3.61000 Y-3.53578
X3.60900 Y-3.53578
X3.60900 Y-3.53678
X3.60800 Y-3.53678
X3.60800 Y-3.53778
X3.60700 Y-3.53778
X3.60700 Y-3.53878
X3.60600 Y-3.53878
X3.60600 Y-3.53978
X3.60500 Y-3.53978
X3.60500 Y-3.54078
X3.60400 Y-3.54078
X3.60400 Y-3.54178
X3.60300 Y-3.54178
X3.60300 Y-3.54278
X3.60200 Y-3.54278
X3.60200 Y-3.54378
X3.60100 Y-3.54378
X3.60100 Y-3.54478
X3.60000 Y-3.54478
X3.60000 Y-3.54578
X3.59900 Y-3.54578
X3.59900 Y-3.54678
X3.59800 Y-3.54678
X3.59800 Y-3.54778
X3.59700 Y-3.54778
X3.59700 Y-3.54878
X3.59600 Y-3.54878
X3.59600 Y-3.54978
X3.59500 Y-3.54978
X3.59500 Y-3.55078
X3.59400 Y-3.55078
X3.59400 Y-3.55178
X3.59300 Y-3.55178
X3.59300 Y-3.55278
X3.59200 Y-3.55278
X3.59200 Y-3.55378
X3.59100 Y-3.55378
X3.59100 Y-3.55478
X3.59000 Y-3.55478
X3.59000 Y-3.55578
X3.58900 Y-3.55578
X3.58900 Y-3.55678
X3.58800 Y-3.55678
X3.58800 Y-3.55778
X3.58700 Y-3.55778
X3.58700 Y-3.55878
X3.58600 Y-3.55878
X3.58600 Y-3.55978
X3.58500 Y-3.55978
X3.58500 Y-3.56078
X3.58400 Y-3.56078
X3.58400 Y-3.56178
X3.58300 Y-3.56178
X3.58300 Y-3.56278
X3.58200 Y-3.56278
X3.58200 Y-3.56378
X3.58100 Y-3.56378
X3.58100 Y-3.56478
X3.58000 Y-3.56478
X3.58000 Y-3.56578
X3.57900 Y-3.56578
X3.57900 Y-3.56678
X3.57800 Y-3.56678
X3.57800 Y-3.56778
X3.57700 Y-3.56778
X3.57700 Y-3.56878
X3.57600 Y-3.56878
X3.57600 Y-3.56978
X3.57500 Y-3.56978
X3.57500 Y-3.57078
X3.57400 Y-3.57078
X3.57400 Y-3.57178
X3.57300 Y-3.57178
X3.57300 Y-3.57278
X3.57200 Y-3.57278
X3.57200 Y-3.57378
X3.57100 Y-3.57378
X3.57100 Y-3.57478
X3.57000 Y-3.57478
X3.57000 Y-3.57578
X3.56900 Y-3.57578
X3.56900 Y-3.57678
X3.56800 Y-3.57678
X3.56800 Y-3.57778
X3.56700 Y-3.57778
X3.56700 Y-3.57878
X3.56600 Y-3.57878
X3.56600 Y-3.57978
X3.56500 Y-3.57978
X3.56500 Y-3.58078
X3.56400 Y-3.58078
X3.56400 Y-3.58178
X3.56300 Y-3.58178
X3.56300 Y-3.58278
X3.56200 Y-3.58278
X3.56200 Y-3.58378
X3.56100 Y-3.58378
X3.56100 Y-3.58478
X3.56000 Y-3.58478
X3.56000 Y-3.58578
X3.55900 Y-3.58578
X3.55900 Y-3.58678
X3.55800 Y-3.58678
X3.55800 Y-3.58778
X3.55700 Y-3.58778
X3.55700 Y-3.58878
X3.55600 Y-3.58878
X3.55600 Y-3.58978
X3.55500 Y-3.58978
X3.55500 Y-3.59078
X3.55400 Y-3.59078
X3.55400 Y-3.59178
X3.55300 Y-3.59178
X3.55300 Y-3.59278
X3.55200 Y-3.59278
X3.55200 Y-3.59378
X3.55100 Y-3.59378
X3.55100 Y-3.59478
X3.55000 Y-3.59478
X3.55000 Y-3.59578
X3.54900 Y-3.59578
X3.54900 Y-3.59678
X3.54800 Y-3.59678
X3.54800 Y-3.59778
X3.54700 Y-3.59778
X3.54700 Y-3.59878
X3.54600 Y-3.59878
X3.54600 Y-3.59978
X3.54500 Y-3.59978
X3.54500 Y-3.60078
X3.54400 Y-3.60078
X3.54400 Y-3.60178
X3.54300 Y-3.60178
X3.54300 Y-3.60278
X3.54200 Y-3.60278
X3.54200 Y-3.60378
X3.54100 Y-3.60378
X3.54100 Y-3.60478
X3.54000 Y-3.60478
X3.54000 Y-3.60578
X3.53900 Y-3.60578
X3.53900 Y-3.60678
X3.53800 Y-3.60678
X3.53800 Y-3.60778
X3.53700 Y-3.60778
X3.53700 Y-3.60878
X3.53600 Y-3.60878
X3.53600 Y-3.60978
X3.53500 Y-3.60978
X3.53500 Y-3.61078
X3.53400 Y-3.61078
X3.53400 Y-3.61178
X3.53300 Y-3.61178
X3.53300 Y-3.61278
X3.53200 Y-3.61278
X3.53200 Y-3.61378
X3.53100 Y-3.61378
X3.53100 Y-3.61478
X3.53000 Y-3.61478
X3.53000 Y-3.61578
X3.52900 Y-3.61578
X3.52900 Y-3.61678
X3.52800 Y-3.61678
X3.52800 Y-3.61778
X3.52700 Y-3.61778
X3.52700 Y-3.61878
X3.52600 Y-3.61878
X3.52600 Y-3.61978
X3.52500 Y-3.61978
X3.52500 Y-3.62078
X3.52400 Y-3.62078
X3.52400 Y-3.62178
X3.52300 Y-3.62178
X3.52300 Y-3.62278
X3.52200 Y-3.62278
X3.52200 Y-3.62378
X3.52100 Y-3.62378
X3.52100 Y-3.62478
X3.52000 Y-3.62478
X3.52000 Y-3.62578
X3.51900 Y-3.62578
X3.51900 Y-3.62678
X3.51800 Y-3.62678
X3.51800 Y-3.62778
X3.51700 Y-3.62778
X3.51700 Y-3.62878
X3.51600 Y-3.62878
X3.51600 Y-3.62978
X3.51500 Y-3.62978
X3.51500 Y-3.63078
X3.51400 Y-3.63078
X3.51400 Y-3.63178
X3.51300 Y-3.63178
X3.51300 Y-3.63278
X3.51200 Y-3.63278
X3.51200 Y-3.63378
X3.51100 Y-3.63378
X3.51100 Y-3.63478
X3.51000 Y-3.63478
X3.51000 Y-3.63578
X3.50900 Y-3.63578
X3.50900 Y-3.63678
X3.50800 Y-3.63678
X3.50800 Y-3.63778
X3.50700 Y-3.63778
X3.50700 Y-3.63878
X3.50600 Y-3.63878
X3.50600 Y-3.63978
X3.50500 Y-3.63978
X3.50500 Y-3.64078
X3.50400 Y-3.64078
X3.50400 Y-3.64178
X3.50300 Y-3.64178
X3.50300 Y-3.64278
X3.50200 Y-3.64278
X3.50200 Y-3.64378
X3.50100 Y-3.64378
X3.50100 Y-3.64478
X3.50000 Y-3.64478
X3.50000 Y-3.64578
X3.49900 Y-3.64578
X3.49900 Y-3.64678
X3.49800 Y-3.64678
X3.49800 Y-3.64778
X3.49700 Y-3.64778
X3.49700 Y-3.64878
X3.49600 Y-3.64878
X3.49600 Y-3.64978
X3.49500 Y-3.64978
X3.49500 Y-3.65078
X3.49400 Y-3.65078
X3.49400 Y-3.65178
X3.49300 Y-3.65178
X3.49300 Y-3.65278
X3.49200 Y-3.65278
X3.49200 Y-3.65378
X3.49100 Y-3.65378
X3.49100 Y-3.65478
X3.49000 Y-3.65478
X3.49000 Y-3.65578
X3.48900 Y-3.65578
X3.48900 Y-3.65678
X3.48800 Y-3.65678
X3.48800 Y-3.65778
X3.48700 Y-3.65778
X3.48700 Y-3.65878
X3.48600 Y-3.65878
X3.48600 Y-3.65978
X3.48500 Y-3.65978
X3.48500 Y-3.66078
X3.48400 Y-3.66078
X3.48400 Y-3.66178
X3.48300 Y-3.66178
X3.48300 Y-3.66278
X3.48200 Y-3.66278
X3.48200 Y-3.66378
X3.48100 Y-3.66378
X3.48100 Y-3.66478
X3.48000 Y-3.66478
X3.48000 Y-3.66578
X3.47900 Y-3.66578
X3.47900 Y-3.66678
X3.47800 Y-3.66678
X3.47800 Y-3.66778
X3.47700 Y-3.66778
X3.47700 Y-3.66878
X3.47600 Y-3.66878
X3.47600 Y-3.66978
X3.47500 Y-3.66978
X3.47500 Y-3.67078
X3.47400 Y-3.67078
X3.47400 Y-3.67178
X3.47300 Y-3.67178
X3.47300 Y-3.67278
X3.47200 Y-3.67278
X3.47200 Y-3.67378
X3.47100 Y-3.67378
X3.47100 Y-3.67478
X3.47000 Y-3.67478
X3.47000 Y-3.67578
X3.46900 Y-3.67578
X3.46900 Y-3.67678
X3.46800 Y-3.67678
X3.46800 Y-3.67778
X3.46700 Y-3.67778
X3.46700 Y-3.67878
X3.46600 Y-3.67878
X3.46600 Y-3.67978
X3.46500 Y-3.67978
X3.46500 Y-3.68078
X3.46400 Y-3.68078
X3.46400 Y-3.68178
X3.46300 Y-3.68178
X3.46300 Y-3.68278
X3.46200 Y-3.68278
X3.46200 Y-3.68378
X3.46100 Y-3.68378
X3.46100 Y-3.68478
X3.46000 Y-3.68478
X3.46000 Y-3.68578
X3.45900 Y-3.68578
X3.45900 Y-3.68678
X3.45800 Y-3.68678
X3.45800 Y-3.68778
X3.45700 Y-3.68778
X3.45700 Y-3.68878
X3.45600 Y-3.68878
X3.45600 Y-3.68978
X3.45500 Y-3.68978
X3.45500 Y-3.69078
X3.45400 Y-3.69078
X3.45400 Y-3.69178
X3.45300 Y-3.69178
X3.45300 Y-3.69278
X3.45200 Y-3.69278
X3.45200 Y-3.69378
X3.45100 Y-3.69378
X3.45100 Y-3.69478
X3.45000 Y-3.69478
X3.45000 Y-3.69578
X3.44900 Y-3.69578
X3.44900 Y-3.69678
X3.44800 Y-3.69678
X3.44800 Y-3.69778
X3.44700 Y-3.69778
X3.44700 Y-3.69878
X3.44600 Y-3.69878
X3.44600 Y-3.69978
X3.44500 Y-3.69978
X3.44500 Y-3.70078
X3.44400 Y-3.70078
X3.44400 Y-3.70178
X3.44300 Y-3.70178
X3.44300 Y-3.70278
X3.44200 Y-3.70278
X3.44200 Y-3.70378
X3.44100 Y-3.70378
X3.44100 Y-3.70478
X3.44000 Y-3.70478
X3.44000 Y-3.70578
X3.43900 Y-3.70578
X3.43900 Y-3.70678
X3.43800 Y-3.70678
X3.43800 Y-3.70778
X3.43700 Y-3.70778
X3.43700 Y-3.70878
X3.43600 Y-3.70878
X3.43600 Y-3.70978
X3.43500 Y-3.70978
X3.43500 Y-3.71078
X3.43400 Y-3.71078
X3.43400 Y-3.71178
X3.43300 Y-3.71178
X3.43300 Y-3.71278
X3.43200 Y-3.71278
X3.43200 Y-3.71378
X3.43100 Y-3.71378
X3.43100 Y-3.71478
X3.43000 Y-3.71478
X3.43000 Y-3.71578
X3.42900 Y-3.71578
X3.42900 Y-3.71678
X3.42800 Y-3.71678
X3.42800 Y-3.71778
X3.42700 Y-3.71778
X3.42700 Y-3.71878
X3.42600 Y-3.71878
X3.42600 Y-3.71978
X3.42500 Y-3.71978
X3.42500 Y-3.72078
X3.42400 Y-3.72078
X3.42400 Y-3.72178
X3.42300 Y-3.72178
X3.42300 Y-3.72278
X3.42200 Y-3.72278
X3.42200 Y-3.72378
X3.42100 Y-3.72378
X3.42100 Y-3.72478
X3.42000 Y-3.72478
X3.42000 Y-3.72578
X3.41900 Y-3.72578
X3.41900 Y-3.72678
X3.41800 Y-3.72678
X3.41800 Y-3.72778
X3.41700 Y-3.72778
X3.41700 Y-3.72878
X3.41600 Y-3.72878
X3.41600 Y-3.72978
X3.41500 Y-3.72978
X3.41500 Y-3.73078
X3.41400 Y-3.73078
X3.41400 Y-3.73178
X3.41300 Y-3.73178
X3.41300 Y-3.73278
X3.41200 Y-3.73278
X3.41200 Y-3.73378
X3.41100 Y-3.73378
X3.41100 Y-3.73478
X3.41000 Y-3.73478
X3.41000 Y-3.73578
X3.40900 Y-3.73578
X3.40900 Y-3.73678
X3.40800 Y-3.73678
X3.40800 Y-3.73778
X3.40700 Y-3.73778
X3.40700 Y-3.73878
X3.40600 Y-3.73878
X3.40600 Y-3.73978
X3.40500 Y-3.73978
X3.40500 Y-3.74078
X3.40400 Y-3.74078
X3.40400 Y-3.74178
X3.40300 Y-3.74178
X3.40300 Y-3.74278
X3.40200 Y-3.74278
X3.40200 Y-3.74378
X3.40100 Y-3.74378
X3.40100 Y-3.74478
X3.40000 Y-3.74478
X3.40000 Y-3.74578
X3.39900 Y-3.74578
X3.39900 Y-3.74678
X3.39800 Y-3.74678
X3.39800 Y-3.74778
X3.39700 Y-3.74778
X3.39700 Y-3.74878
X3.39600 Y-3.74878
X3.39600 Y-3.74978
X3.39500 Y-3.74978
X3.39500 Y-3.75078
X3.39400 Y-3.75078
X3.39400 Y-3.75178
X3.39300 Y-3.75178
X3.39300 Y-3.75278
X3.39200 Y-3.75278
X3.39200 Y-3.75378
X3.39100 Y-3.75378
X3.39100 Y-3.75478
X3.39000 Y-3.75478
X3.39000 Y-3.75578
X3.38900 Y-3.75578
X3.38900 Y-3.75678
X3.38800 Y-3.75678
X3.38800 Y-3.75778
X3.38700 Y-3.75778
X3.38700 Y-3.75878
X3.38600 Y-3.75878
X3.38600 Y-3.75978
X3.38500 Y-3.75978
X3.38500 Y-3.76078
X3.38400 Y-3.76078
X3.38400 Y-3.76178
X3.38300 Y-3.76178
X3.38300 Y-3.76278
X3.38200 Y-3.76278
X3.38200 Y-3.76378
X3.38100 Y-3.76378
X3.38100 Y-3.76478
X3.38000 Y-3.76478
X3.38000 Y-3.76578
X3.37900 Y-3.76578
X3.37900 Y-3.76678
X3.37800 Y-3.76678
X3.37800 Y-3.76778
X3.37700 Y-3.76778
X3.37700 Y-3.76878
X3.37600 Y-3.76878
X3.37600 Y-3.76978
X3.37500 Y-3.76978
X3.37500 Y-3.77078
X3.37400 Y-3.77078
X3.37400 Y-3.77178
X3.37300 Y-3.77178
X3.37300 Y-3.77278
X3.37200 Y-3.77278
X3.37200 Y-3.77378
X3.37100 Y-3.77378
X3.37100 Y-3.77478
X3.37000 Y-3.77478
X3.37000 Y-3.77578
X3.36900 Y-3.77578
X3.36900 Y-3.77678
X3.36800 Y-3.77678
X3.36800 Y-3.77778
X3.36700 Y-3.77778
X3.36700 Y-3.77878
X3.36600 Y-3.77878
X3.36600 Y-3.77978
X3.36500 Y-3.77978
X3.36500 Y-3.78078
X3.36400 Y-3.78078
X3.36400 Y-3.78178
X3.36300 Y-3.78178
X3.36300 Y-3.78278
X3.36200 Y-3.78278
X3.36200 Y-3.78378
X3.36100 Y-3.78378
X3.36100 Y-3.78478
X3.36000 Y-3.78478
X3.36000 Y-3.78578
X3.35900 Y-3.78578
X3.35900 Y-3.78678
X3.35800 Y-3.78678
X3.35800 Y-3.78778
X3.35700 Y-3.78778
X3.35700 Y-3.78878
X3.35600 Y-3.78878
X3.35600 Y-3.78978
X3.35500 Y-3.78978
X3.35500 Y-3.79078
X3.35400 Y-3.79078
X3.35400 Y-3.79178
X3.35300 Y-3.79178
X3.35300 Y-3.79278
X3.35200 Y-3.79278
X3.35200 Y-3.79378
X3.35100 Y-3.79378
X3.35100 Y-3.79478
X3.35000 Y-3.79478
X3.35000 Y-3.79578
X3.34900 Y-3.79578
X3.34900 Y-3.79678
X3.34800 Y-3.79678
X3.34800 Y-3.79778
X3.34700 Y-3.79778
X3.34700 Y-3.79878
X3.34600 Y-3.79878
X3.34600 Y-3.79978
X3.34500 Y-3.79978
X3.34500 Y-3.80078
X3.34400 Y-3.80078
X3.34400 Y-3.80178
X3.34300 Y-3.80178
X3.34300 Y-3.80278
X3.34200 Y-3.80278
X3.34200 Y-3.80378
X3.34100 Y-3.80378
X3.34100 Y-3.80478
X3.34000 Y-3.80478
X3.34000 Y-3.80578
X3.33900 Y-3.80578
X3.33900 Y-3.80678
X3.33800 Y-3.80678
X3.33800 Y-3.80778
X3.33700 Y-3.80778
X3.33700 Y-3.80878
X3.33600 Y-3.80878
X3.33600 Y-3.80978
X3.33500 Y-3.80978
X3.33500 Y-3.81078
X3.33400 Y-3.81078
X3.33400 Y-3.81178
X3.33300 Y-3.81178
X3.33300 Y-3.81278
X3.33200 Y-3.81278
X3.33200 Y-3.81378
X3.33100 Y-3.81378
X3.33100 Y-3.81478
X3.33000 Y-3.81478
X3.33000 Y-3.81578
X3.32900 Y-3.81578
X3.32900 Y-3.81678
X3.32800 Y-3.81678
X3.32800 Y-3.81778
X3.32700 Y-3.81778
X3.32700 Y-3.81878
X3.32600 Y-3.81878
X3.32600 Y-3.81978
X3.32500 Y-3.81978
X3.32500 Y-3.82078
X3.32400 Y-3.82078
X3.32400 Y-3.82178
X3.32300 Y-3.82178
X3.32300 Y-3.82278
X3.32200 Y-3.82278
X3.32200 Y-3.82378
X3.32100 Y-3.82378
X3.32100 Y-3.82478
X3.32000 Y-3.82478
X3.32000 Y-3.82578
X3.31900 Y-3.82578
X3.31900 Y-3.82678
X3.31800 Y-3.82678
X3.31800 Y-3.82778
X3.31700 Y-3.82778
X3.31700 Y-3.82878
X3.31600 Y-3.82878
X3.31600 Y-3.82978
X3.31500 Y-3.82978
X3.31500 Y-3.83178
X3.31400 Y-3.83178
X3.31400 Y-3.83578
X3.31300 Y-3.83578
X3.31300 Y-3.84078
X3.31200 Y-3.84078
X3.31200 Y-4.05478
X3.31100 Y-4.05478
X3.31100 Y-4.05678
X3.31000 Y-4.05678
X3.31000 Y-4.05978
X3.30900 Y-4.05978
X3.30900 Y-4.06178
X3.30800 Y-4.06178
X3.30800 Y-4.06478
X3.30700 Y-4.06478
X3.30700 Y-4.06678
X3.30600 Y-4.06678
X3.30600 Y-4.07278
X3.30500 Y-4.07278
X3.30500 Y-4.07478
X3.30600 Y-4.07478
X3.30600 Y-4.08078
X3.30700 Y-4.08078
X3.30700 Y-4.08378
X3.30800 Y-4.08378
X3.30800 Y-4.08578
X3.30900 Y-4.08578
X3.30900 Y-4.08678
X3.31000 Y-4.08678
X3.31000 Y-4.08778
X3.31100 Y-4.08778
X3.31100 Y-4.08878
X3.31200 Y-4.08878
X3.31200 Y-4.08978
X3.31300 Y-4.08978
X3.31300 Y-4.09078
X3.31400 Y-4.09078
X3.31400 Y-4.09178
X3.31500 Y-4.09178
X3.31500 Y-4.09278
X3.31700 Y-4.09278
X3.31700 Y-4.09378
X3.32100 Y-4.09378
X3.32100 Y-4.09478
X3.33100 Y-4.09478
X3.33100 Y-4.09378
X3.33600 Y-4.09378
X3.33600 Y-4.09278
X3.33800 Y-4.09278
X3.33800 Y-4.09178
X3.33900 Y-4.09178
X3.33900 Y-4.09078
X3.34000 Y-4.09078
X3.34000 Y-4.08978
X3.34100 Y-4.08978
X3.34100 Y-4.08878
X3.34200 Y-4.08878
X3.34200 Y-4.08778
X3.34300 Y-4.08778
X3.34300 Y-4.08678
X3.34400 Y-4.08678
X3.34400 Y-4.08578
X3.34500 Y-4.08578
X3.34500 Y-4.08378
X3.34600 Y-4.08378
X3.34600 Y-4.07878
X3.34700 Y-4.07878
X3.34700 Y-4.06878
X3.34600 Y-4.06878
X3.34600 Y-4.06478
X3.34500 Y-4.06478
X3.34500 Y-4.06178
X3.34400 Y-4.06178
X3.34400 Y-4.05978
X3.34300 Y-4.05978
X3.34300 Y-4.05678
X3.34200 Y-4.05678
X3.34200 Y-4.05478
X3.34100 Y-4.05478
X3.34100 Y-3.85078
X3.34200 Y-3.85078
X3.34200 Y-3.84778
X3.34300 Y-3.84778
X3.34300 Y-3.84478
X3.34400 Y-3.84478
X3.34400 Y-3.84178
X3.34500 Y-3.84178
X3.34500 Y-3.84078
X3.34600 Y-3.84078
X3.34600 Y-3.83978
X3.34700 Y-3.83978
X3.34700 Y-3.83878
X3.34800 Y-3.83878
X3.34800 Y-3.83778
X3.34900 Y-3.83778
X3.34900 Y-3.83678
X3.35000 Y-3.83678
X3.35000 Y-3.83578
X3.35100 Y-3.83578
X3.35100 Y-3.83478
X3.35200 Y-3.83478
X3.35200 Y-3.83378
X3.35300 Y-3.83378
X3.35300 Y-3.83278
X3.35400 Y-3.83278
X3.35400 Y-3.83178
X3.35500 Y-3.83178
X3.35500 Y-3.83078
X3.35600 Y-3.83078
X3.35600 Y-3.82978
X3.35700 Y-3.82978
X3.35700 Y-3.82878
X3.35800 Y-3.82878
X3.35800 Y-3.82778
X3.35900 Y-3.82778
X3.35900 Y-3.82678
X3.36000 Y-3.82678
X3.36000 Y-3.82478
X3.36100 Y-3.82478
X3.36100 Y-3.82378
X3.36200 Y-3.82378
X3.36200 Y-3.82278
X3.36300 Y-3.82278
X3.36300 Y-3.82178
X3.36400 Y-3.82178
X3.36400 Y-3.82078
X3.36500 Y-3.82078
X3.36500 Y-3.81978
X3.36600 Y-3.81978
X3.36600 Y-3.81878
X3.36700 Y-3.81878
X3.36700 Y-3.81778
X3.36800 Y-3.81778
X3.36800 Y-3.81678
X3.36900 Y-3.81678
X3.36900 Y-3.81578
X3.37000 Y-3.81578
X3.37000 Y-3.81478
X3.37100 Y-3.81478
X3.37100 Y-3.81378
X3.37200 Y-3.81378
X3.37200 Y-3.81278
X3.37300 Y-3.81278
X3.37300 Y-3.81178
X3.37400 Y-3.81178
X3.37400 Y-3.81078
X3.37500 Y-3.81078
X3.37500 Y-3.80978
X3.37600 Y-3.80978
X3.37600 Y-3.80878
X3.37700 Y-3.80878
X3.37700 Y-3.80778
X3.37800 Y-3.80778
X3.37800 Y-3.80678
X3.37900 Y-3.80678
X3.37900 Y-3.80578
X3.38000 Y-3.80578
X3.38000 Y-3.80478
X3.38100 Y-3.80478
X3.38100 Y-3.80378
X3.38200 Y-3.80378
X3.38200 Y-3.80278
X3.38300 Y-3.80278
X3.38300 Y-3.80178
X3.38400 Y-3.80178
X3.38400 Y-3.80078
X3.38500 Y-3.80078
X3.38500 Y-3.79978
X3.38600 Y-3.79978
X3.38600 Y-3.79878
X3.38700 Y-3.79878
X3.38700 Y-3.79778
X3.38800 Y-3.79778
X3.38800 Y-3.79678
X3.38900 Y-3.79678
X3.38900 Y-3.79578
X3.39000 Y-3.79578
X3.39000 Y-3.79478
X3.39100 Y-3.79478
X3.39100 Y-3.79378
X3.39200 Y-3.79378
X3.39200 Y-3.79278
X3.39300 Y-3.79278
X3.39300 Y-3.79178
X3.39400 Y-3.79178
X3.39400 Y-3.79078
X3.39500 Y-3.79078
X3.39500 Y-3.78978
X3.39600 Y-3.78978
X3.39600 Y-3.78878
X3.39700 Y-3.78878
X3.39700 Y-3.78778
X3.39800 Y-3.78778
X3.39800 Y-3.78678
X3.39900 Y-3.78678
X3.39900 Y-3.78578
X3.40000 Y-3.78578
X3.40000 Y-3.78478
X3.40100 Y-3.78478
X3.40100 Y-3.78378
X3.40200 Y-3.78378
X3.40200 Y-3.78278
X3.40300 Y-3.78278
X3.40300 Y-3.78178
X3.40400 Y-3.78178
X3.40400 Y-3.78078
X3.40500 Y-3.78078
X3.40500 Y-3.77978
X3.40600 Y-3.77978
X3.40600 Y-3.77878
X3.40700 Y-3.77878
X3.40700 Y-3.77778
X3.40800 Y-3.77778
X3.40800 Y-3.77678
X3.40900 Y-3.77678
X3.40900 Y-3.77578
X3.41000 Y-3.77578
X3.41000 Y-3.77478
X3.41100 Y-3.77478
X3.41100 Y-3.77378
X3.41200 Y-3.77378
X3.41200 Y-3.77278
X3.41300 Y-3.77278
X3.41300 Y-3.77178
X3.41400 Y-3.77178
X3.41400 Y-3.77078
X3.41500 Y-3.77078
X3.41500 Y-3.76978
X3.41600 Y-3.76978
X3.41600 Y-3.76878
X3.41700 Y-3.76878
X3.41700 Y-3.76778
X3.41800 Y-3.76778
X3.41800 Y-3.76678
X3.41900 Y-3.76678
X3.41900 Y-3.76578
X3.42000 Y-3.76578
X3.42000 Y-3.76478
X3.42100 Y-3.76478
X3.42100 Y-3.76378
X3.42200 Y-3.76378
X3.42200 Y-3.76278
X3.42300 Y-3.76278
X3.42300 Y-3.76178
X3.42400 Y-3.76178
X3.42400 Y-3.76078
X3.42500 Y-3.76078
X3.42500 Y-3.75978
X3.42600 Y-3.75978
X3.42600 Y-3.75878
X3.42700 Y-3.75878
X3.42700 Y-3.75778
X3.42800 Y-3.75778
X3.42800 Y-3.75678
X3.42900 Y-3.75678
X3.42900 Y-3.75578
X3.43000 Y-3.75578
X3.43000 Y-3.75478
X3.43100 Y-3.75478
X3.43100 Y-3.75378
X3.43200 Y-3.75378
X3.43200 Y-3.75278
X3.43300 Y-3.75278
X3.43300 Y-3.75178
X3.43400 Y-3.75178
X3.43400 Y-3.75078
X3.43500 Y-3.75078
X3.43500 Y-3.74978
X3.43600 Y-3.74978
X3.43600 Y-3.74878
X3.43700 Y-3.74878
X3.43700 Y-3.74778
X3.43800 Y-3.74778
X3.43800 Y-3.74678
X3.43900 Y-3.74678
X3.43900 Y-3.74578
X3.44000 Y-3.74578
X3.44000 Y-3.74478
X3.44100 Y-3.74478
X3.44100 Y-3.74378
X3.44200 Y-3.74378
X3.44200 Y-3.74278
X3.44300 Y-3.74278
X3.44300 Y-3.74178
X3.44400 Y-3.74178
X3.44400 Y-3.74078
X3.44500 Y-3.74078
X3.44500 Y-3.73978
X3.44600 Y-3.73978
X3.44600 Y-3.73878
X3.44700 Y-3.73878
X3.44700 Y-3.73778
X3.44800 Y-3.73778
X3.44800 Y-3.73678
X3.44900 Y-3.73678
X3.44900 Y-3.73578
X3.45000 Y-3.73578
X3.45000 Y-3.73478
X3.45100 Y-3.73478
X3.45100 Y-3.73378
X3.45200 Y-3.73378
X3.45200 Y-3.73278
X3.45300 Y-3.73278
X3.45300 Y-3.73178
X3.45400 Y-3.73178
X3.45400 Y-3.73078
X3.45500 Y-3.73078
X3.45500 Y-3.72978
X3.45600 Y-3.72978
X3.45600 Y-3.72878
X3.45700 Y-3.72878
X3.45700 Y-3.72778
X3.45800 Y-3.72778
X3.45800 Y-3.72678
X3.45900 Y-3.72678
X3.45900 Y-3.72578
X3.46000 Y-3.72578
X3.46000 Y-3.72478
X3.46100 Y-3.72478
X3.46100 Y-3.72378
X3.46200 Y-3.72378
X3.46200 Y-3.72278
X3.46300 Y-3.72278
X3.46300 Y-3.72178
X3.46400 Y-3.72178
X3.46400 Y-3.72078
X3.46500 Y-3.72078
X3.46500 Y-3.71978
X3.46600 Y-3.71978
X3.46600 Y-3.71878
X3.46700 Y-3.71878
X3.46700 Y-3.71778
X3.46800 Y-3.71778
X3.46800 Y-3.71678
X3.46900 Y-3.71678
X3.46900 Y-3.71578
X3.47000 Y-3.71578
X3.47000 Y-3.71478
X3.47100 Y-3.71478
X3.47100 Y-3.71378
X3.47200 Y-3.71378
X3.47200 Y-3.71278
X3.47300 Y-3.71278
X3.47300 Y-3.71178
X3.47400 Y-3.71178
X3.47400 Y-3.71078
X3.47500 Y-3.71078
X3.47500 Y-3.70978
X3.47600 Y-3.70978
X3.47600 Y-3.70878
X3.47700 Y-3.70878
X3.47700 Y-3.70778
X3.47800 Y-3.70778
X3.47800 Y-3.70678
X3.47900 Y-3.70678
X3.47900 Y-3.70578
X3.48000 Y-3.70578
X3.48000 Y-3.70478
X3.48100 Y-3.70478
X3.48100 Y-3.70378
X3.48200 Y-3.70378
X3.48200 Y-3.70278
X3.48300 Y-3.70278
X3.48300 Y-3.70178
X3.48400 Y-3.70178
X3.48400 Y-3.70078
X3.48500 Y-3.70078
X3.48500 Y-3.69978
X3.48600 Y-3.69978
X3.48600 Y-3.69878
X3.48700 Y-3.69878
X3.48700 Y-3.69778
X3.48800 Y-3.69778
X3.48800 Y-3.69678
X3.48900 Y-3.69678
X3.48900 Y-3.69578
X3.49000 Y-3.69578
X3.49000 Y-3.69478
X3.49100 Y-3.69478
X3.49100 Y-3.69378
X3.49200 Y-3.69378
X3.49200 Y-3.69278
X3.49300 Y-3.69278
X3.49300 Y-3.69178
X3.49400 Y-3.69178
X3.49400 Y-3.69078
X3.49500 Y-3.69078
X3.49500 Y-3.68978
X3.49600 Y-3.68978
X3.49600 Y-3.68878
X3.49700 Y-3.68878
X3.49700 Y-3.68778
X3.49800 Y-3.68778
X3.49800 Y-3.68678
X3.49900 Y-3.68678
X3.49900 Y-3.68578
X3.50000 Y-3.68578
X3.50000 Y-3.68478
X3.50100 Y-3.68478
X3.50100 Y-3.68378
X3.50200 Y-3.68378
X3.50200 Y-3.68278
X3.50300 Y-3.68278
X3.50300 Y-3.68178
X3.50400 Y-3.68178
X3.50400 Y-3.68078
X3.50500 Y-3.68078
X3.50500 Y-3.67978
X3.50600 Y-3.67978
X3.50600 Y-3.67878
X3.50700 Y-3.67878
X3.50700 Y-3.67778
X3.50800 Y-3.67778
X3.50800 Y-3.67678
X3.50900 Y-3.67678
X3.50900 Y-3.67578
X3.51000 Y-3.67578
X3.51000 Y-3.67478
X3.51100 Y-3.67478
X3.51100 Y-3.67378
X3.51200 Y-3.67378
X3.51200 Y-3.67278
X3.51300 Y-3.67278
X3.51300 Y-3.67178
X3.51400 Y-3.67178
X3.51400 Y-3.67078
X3.51500 Y-3.67078
X3.51500 Y-3.66978
X3.51600 Y-3.66978
X3.51600 Y-3.66878
X3.51700 Y-3.66878
X3.51700 Y-3.66778
X3.51800 Y-3.66778
X3.51800 Y-3.66678
X3.51900 Y-3.66678
X3.51900 Y-3.66578
X3.52000 Y-3.66578
X3.52000 Y-3.66478
X3.52100 Y-3.66478
X3.52100 Y-3.66378
X3.52200 Y-3.66378
X3.52200 Y-3.66278
X3.52300 Y-3.66278
X3.52300 Y-3.66178
X3.52400 Y-3.66178
X3.52400 Y-3.66078
X3.52500 Y-3.66078
X3.52500 Y-3.65978
X3.52600 Y-3.65978
X3.52600 Y-3.65878
X3.52700 Y-3.65878
X3.52700 Y-3.65778
X3.52800 Y-3.65778
X3.52800 Y-3.65678
X3.52900 Y-3.65678
X3.52900 Y-3.65578
X3.53000 Y-3.65578
X3.53000 Y-3.65478
X3.53100 Y-3.65478
X3.53100 Y-3.65378
X3.53200 Y-3.65378
X3.53200 Y-3.65278
X3.53300 Y-3.65278
X3.53300 Y-3.65178
X3.53400 Y-3.65178
X3.53400 Y-3.65078
X3.53500 Y-3.65078
X3.53500 Y-3.64978
X3.53600 Y-3.64978
X3.53600 Y-3.64878
X3.53700 Y-3.64878
X3.53700 Y-3.64778
X3.53800 Y-3.64778
X3.53800 Y-3.64678
X3.53900 Y-3.64678
X3.53900 Y-3.64578
X3.54000 Y-3.64578
X3.54000 Y-3.64478
X3.54100 Y-3.64478
X3.54100 Y-3.64378
X3.54200 Y-3.64378
X3.54200 Y-3.64278
X3.54300 Y-3.64278
X3.54300 Y-3.64178
X3.54400 Y-3.64178
X3.54400 Y-3.64078
X3.54500 Y-3.64078
X3.54500 Y-3.63978
X3.54600 Y-3.63978
X3.54600 Y-3.63878
X3.54700 Y-3.63878
X3.54700 Y-3.63778
X3.54800 Y-3.63778
X3.54800 Y-3.63678
X3.54900 Y-3.63678
X3.54900 Y-3.63578
X3.55000 Y-3.63578
X3.55000 Y-3.63478
X3.55100 Y-3.63478
X3.55100 Y-3.63378
X3.55200 Y-3.63378
X3.55200 Y-3.63278
X3.55300 Y-3.63278
X3.55300 Y-3.63178
X3.55400 Y-3.63178
X3.55400 Y-3.63078
X3.55500 Y-3.63078
X3.55500 Y-3.62978
X3.55600 Y-3.62978
X3.55600 Y-3.62878
X3.55700 Y-3.62878
X3.55700 Y-3.62778
X3.55800 Y-3.62778
X3.55800 Y-3.62678
X3.55900 Y-3.62678
X3.55900 Y-3.62578
X3.56000 Y-3.62578
X3.56000 Y-3.62478
X3.56100 Y-3.62478
X3.56100 Y-3.62378
X3.56200 Y-3.62378
X3.56200 Y-3.62278
X3.56300 Y-3.62278
X3.56300 Y-3.62178
X3.56400 Y-3.62178
X3.56400 Y-3.62078
X3.56500 Y-3.62078
X3.56500 Y-3.61978
X3.56600 Y-3.61978
X3.56600 Y-3.61878
X3.56700 Y-3.61878
X3.56700 Y-3.61778
X3.56800 Y-3.61778
X3.56800 Y-3.61678
X3.56900 Y-3.61678
X3.56900 Y-3.61578
X3.57000 Y-3.61578
X3.57000 Y-3.61478
X3.57100 Y-3.61478
X3.57100 Y-3.61378
X3.57200 Y-3.61378
X3.57200 Y-3.61278
X3.57300 Y-3.61278
X3.57300 Y-3.61178
X3.57400 Y-3.61178
X3.57400 Y-3.61078
X3.57500 Y-3.61078
X3.57500 Y-3.60978
X3.57600 Y-3.60978
X3.57600 Y-3.60878
X3.57700 Y-3.60878
X3.57700 Y-3.60778
X3.57800 Y-3.60778
X3.57800 Y-3.60678
X3.57900 Y-3.60678
X3.57900 Y-3.60578
X3.58000 Y-3.60578
X3.58000 Y-3.60478
X3.58100 Y-3.60478
X3.58100 Y-3.60378
X3.58200 Y-3.60378
X3.58200 Y-3.60278
X3.58300 Y-3.60278
X3.58300 Y-3.60178
X3.58400 Y-3.60178
X3.58400 Y-3.60078
X3.58500 Y-3.60078
X3.58500 Y-3.59978
X3.58600 Y-3.59978
X3.58600 Y-3.59878
X3.58700 Y-3.59878
X3.58700 Y-3.59778
X3.58800 Y-3.59778
X3.58800 Y-3.59678
X3.58900 Y-3.59678
X3.58900 Y-3.59578
X3.59000 Y-3.59578
X3.59000 Y-3.59478
X3.59100 Y-3.59478
X3.59100 Y-3.59378
X3.59200 Y-3.59378
X3.59200 Y-3.59278
X3.59300 Y-3.59278
X3.59300 Y-3.59178
X3.59400 Y-3.59178
X3.59400 Y-3.59078
X3.59500 Y-3.59078
X3.59500 Y-3.58978
X3.59600 Y-3.58978
X3.59600 Y-3.58878
X3.59700 Y-3.58878
X3.59700 Y-3.58778
X3.59800 Y-3.58778
X3.59800 Y-3.58678
X3.59900 Y-3.58678
X3.59900 Y-3.58578
X3.60000 Y-3.58578
X3.60000 Y-3.58478
X3.60100 Y-3.58478
X3.60100 Y-3.58378
X3.60200 Y-3.58378
X3.60200 Y-3.58278
X3.60300 Y-3.58278
X3.60300 Y-3.58178
X3.60400 Y-3.58178
X3.60400 Y-3.58078
X3.60500 Y-3.58078
X3.60500 Y-3.57978
X3.60600 Y-3.57978
X3.60600 Y-3.57878
X3.60700 Y-3.57878
X3.60700 Y-3.57778
X3.60800 Y-3.57778
X3.60800 Y-3.57678
X3.60900 Y-3.57678
X3.60900 Y-3.57578
X3.61000 Y-3.57578
X3.61000 Y-3.57478
X3.61100 Y-3.57478
X3.61100 Y-3.57378
X3.61200 Y-3.57378
X3.61200 Y-3.57278
X3.61300 Y-3.57278
X3.61300 Y-3.57178
X3.61400 Y-3.57178
X3.61400 Y-3.57078
X3.61500 Y-3.57078
X3.61500 Y-3.56978
X3.61600 Y-3.56978
X3.61600 Y-3.56878
X3.61700 Y-3.56878
X3.61700 Y-3.56778
X3.61800 Y-3.56778
X3.61800 Y-3.56678
X3.61900 Y-3.56678
X3.61900 Y-3.56578
X3.62000 Y-3.56578
X3.62000 Y-3.56478
X3.62100 Y-3.56478
X3.62100 Y-3.56378
X3.62200 Y-3.56378
X3.62200 Y-3.56278
X3.62300 Y-3.56278
X3.62300 Y-3.56178
X3.62400 Y-3.56178
X3.62400 Y-3.56078
X3.62500 Y-3.56078
X3.62500 Y-3.55978
X3.62600 Y-3.55978
X3.62600 Y-3.55878
X3.62700 Y-3.55878
X3.62700 Y-3.55778
X3.62800 Y-3.55778
X3.62800 Y-3.55678
X3.62900 Y-3.55678
X3.62900 Y-3.55578
X3.63000 Y-3.55578
X3.63000 Y-3.55478
X3.63100 Y-3.55478
X3.63100 Y-3.55378
X3.63200 Y-3.55378
X3.63200 Y-3.55278
X3.63300 Y-3.55278
X3.63300 Y-3.55178
X3.63400 Y-3.55178
X3.63400 Y-3.55078
X3.63500 Y-3.55078
X3.63500 Y-3.54978
X3.63600 Y-3.54978
X3.63600 Y-3.54878
X3.63700 Y-3.54878
X3.63700 Y-3.54778
X3.63800 Y-3.54778
X3.63800 Y-3.54678
X3.63900 Y-3.54678
X3.63900 Y-3.54578
X3.64000 Y-3.54578
X3.64000 Y-3.54478
X3.64100 Y-3.54478
X3.64100 Y-3.54378
X3.64200 Y-3.54378
X3.64200 Y-3.54278
X3.64300 Y-3.54278
X3.64300 Y-3.54178
X3.64400 Y-3.54178
X3.64400 Y-3.54078
X3.64500 Y-3.54078
X3.64500 Y-3.53978
X3.64600 Y-3.53978
X3.64600 Y-3.53878
X3.64700 Y-3.53878
X3.64700 Y-3.53778
X3.64800 Y-3.53778
X3.64800 Y-3.53678
X3.64900 Y-3.53678
X3.64900 Y-3.53578
X3.65000 Y-3.53578
X3.65000 Y-3.53478
X3.65100 Y-3.53478
X3.65100 Y-3.53378
X3.65200 Y-3.53378
X3.65200 Y-3.53278
X3.65300 Y-3.53278
X3.65300 Y-3.53178
X3.65400 Y-3.53178
X3.65400 Y-3.53078
X3.65500 Y-3.53078
X3.65500 Y-3.52978
X3.65600 Y-3.52978
X3.65600 Y-3.52878
X3.65700 Y-3.52878
X3.65700 Y-3.52778
X3.65800 Y-3.52778
X3.65800 Y-3.52678
X3.65900 Y-3.52678
X3.65900 Y-3.52578
X3.66000 Y-3.52578
X3.66000 Y-3.52478
X3.66100 Y-3.52478
X3.66100 Y-3.52378
X3.66200 Y-3.52378
X3.66200 Y-3.52278
X3.66300 Y-3.52278
X3.66300 Y-3.52178
X3.66400 Y-3.52178
X3.66400 Y-3.52078
X3.66500 Y-3.52078
X3.66500 Y-3.51978
X3.66700 Y-3.51978
X3.66700 Y-3.51878
X3.66900 Y-3.51878
X3.66900 Y-3.51778
X3.67200 Y-3.51778
X3.67200 Y-3.51678
X3.67500 Y-3.51678
X3.67500 Y-3.51578
X3.86700 Y-3.51578
X3.86700 Y-3.51678
X3.86800 Y-3.51678
X3.86800 Y-3.51778
X3.86900 Y-3.51778
X3.86900 Y-3.51878
X3.87000 Y-3.51878
X3.87000 Y-3.53178
X4.08200 Y-3.53178
X4.08200 Y-3.82878
X3.87700 Y-3.82878
X3.87700 Y-3.84478
X3.87600 Y-3.84478
X3.87600 Y-3.84578
X3.87500 Y-3.84578
X3.87500 Y-3.84678
X3.87300 Y-3.84678
X3.87300 Y-3.84878
X3.87100 Y-3.84878
X3.87100 Y-3.84978
X3.87000 Y-3.84978
X3.87000 Y-3.85078
X3.86900 Y-3.85078
X3.86900 Y-3.85178
X3.86800 Y-3.85178
X3.86800 Y-3.85278
X3.86700 Y-3.85278
X3.86700 Y-3.85378
X3.86600 Y-3.85378
X3.86600 Y-3.85478
X3.86500 Y-3.85478
X3.86500 Y-3.85578
X3.86400 Y-3.85578
X3.86400 Y-3.85678
X3.86300 Y-3.85678
X3.86300 Y-3.85778
X3.86200 Y-3.85778
X3.86200 Y-3.85878
X3.86100 Y-3.85878
X3.86100 Y-3.85978
X3.86000 Y-3.85978
X3.86000 Y-3.86078
X3.85900 Y-3.86078
X3.85900 Y-3.86178
X3.85800 Y-3.86178
X3.85800 Y-3.86278
X3.85700 Y-3.86278
X3.85700 Y-3.86378
X3.85600 Y-3.86378
X3.85600 Y-3.86478
X3.85500 Y-3.86478
X3.85500 Y-3.86578
X3.85400 Y-3.86578
X3.85400 Y-3.86678
X3.85300 Y-3.86678
X3.85300 Y-3.86778
X3.85200 Y-3.86778
X3.85200 Y-3.86878
X3.85100 Y-3.86878
X3.85100 Y-3.86978
X3.85000 Y-3.86978
X3.85000 Y-3.87078
X3.84900 Y-3.87078
X3.84900 Y-3.87178
X3.84800 Y-3.87178
X3.84800 Y-3.87278
X3.84700 Y-3.87278
X3.84700 Y-3.87378
X3.84600 Y-3.87378
X3.84600 Y-3.87478
X3.84500 Y-3.87478
X3.84500 Y-3.87578
X3.84400 Y-3.87578
X3.84400 Y-3.87678
X3.84300 Y-3.87678
X3.84300 Y-3.87778
X3.84200 Y-3.87778
X3.84200 Y-3.87878
X3.84100 Y-3.87878
X3.84100 Y-3.87978
X3.84000 Y-3.87978
X3.84000 Y-3.88078
X3.83900 Y-3.88078
X3.83900 Y-3.88178
X3.83800 Y-3.88178
X3.83800 Y-3.88278
X3.83700 Y-3.88278
X3.83700 Y-3.88378
X3.83600 Y-3.88378
X3.83600 Y-3.88478
X3.83500 Y-3.88478
X3.83500 Y-3.88578
X3.83400 Y-3.88578
X3.83400 Y-3.88678
X3.83300 Y-3.88678
X3.83300 Y-3.88778
X3.83200 Y-3.88778
X3.83200 Y-3.88878
X3.83100 Y-3.88878
X3.83100 Y-3.88978
X3.83000 Y-3.88978
X3.83000 Y-3.89078
X3.82900 Y-3.89078
X3.82900 Y-3.89178
X3.82800 Y-3.89178
X3.82800 Y-3.89278
X3.82700 Y-3.89278
X3.82700 Y-3.89378
X3.82600 Y-3.89378
X3.82600 Y-3.89478
X3.82500 Y-3.89478
X3.82500 Y-3.89578
X3.82400 Y-3.89578
X3.82400 Y-3.89678
X3.82300 Y-3.89678
X3.82300 Y-3.89778
X3.82200 Y-3.89778
X3.82200 Y-3.89878
X3.82100 Y-3.89878
X3.82100 Y-3.89978
X3.82000 Y-3.89978
X3.82000 Y-3.90078
X3.81900 Y-3.90078
X3.81900 Y-3.90178
X3.81800 Y-3.90178
X3.81800 Y-3.90278
X3.81700 Y-3.90278
X3.81700 Y-3.90378
X3.81600 Y-3.90378
X3.81600 Y-3.90478
X3.81500 Y-3.90478
X3.81500 Y-3.90578
X3.81400 Y-3.90578
X3.81400 Y-3.90678
X3.81300 Y-3.90678
X3.81300 Y-3.90778
X3.81200 Y-3.90778
X3.81200 Y-3.90878
X3.81100 Y-3.90878
X3.81100 Y-3.90978
X3.81000 Y-3.90978
X3.81000 Y-3.91078
X3.80900 Y-3.91078
X3.80900 Y-3.91178
X3.80800 Y-3.91178
X3.80800 Y-3.91278
X3.80700 Y-3.91278
X3.80700 Y-3.91378
X3.80600 Y-3.91378
X3.80600 Y-3.91478
X3.80500 Y-3.91478
X3.80500 Y-3.91578
X3.80400 Y-3.91578
X3.80400 Y-3.91678
X3.80300 Y-3.91678
X3.80300 Y-3.91778
X3.80200 Y-3.91778
X3.80200 Y-3.91878
X3.80100 Y-3.91878
X3.80100 Y-3.91978
X3.80000 Y-3.91978
X3.80000 Y-3.92078
X3.79900 Y-3.92078
X3.79900 Y-3.92178
X3.79800 Y-3.92178
X3.79800 Y-3.92278
X3.79700 Y-3.92278
X3.79700 Y-3.92378
X3.79600 Y-3.92378
X3.79600 Y-3.92478
X3.79500 Y-3.92478
X3.79500 Y-3.92578
X3.79400 Y-3.92578
X3.79400 Y-3.92678
X3.79300 Y-3.92678
X3.79300 Y-3.92778
X3.79200 Y-3.92778
X3.79200 Y-3.92878
X3.79100 Y-3.92878
X3.79100 Y-3.92978
X3.79000 Y-3.92978
X3.79000 Y-3.93078
X3.78900 Y-3.93078
X3.78900 Y-3.93178
X3.78800 Y-3.93178
X3.78800 Y-3.93278
X3.78700 Y-3.93278
X3.78700 Y-3.93378
X3.78600 Y-3.93378
X3.78600 Y-3.93478
X3.78500 Y-3.93478
X3.78500 Y-3.93578
X3.78400 Y-3.93578
X3.78400 Y-3.93678
X3.78300 Y-3.93678
X3.78300 Y-3.93778
X3.78200 Y-3.93778
X3.78200 Y-3.93878
X3.78100 Y-3.93878
X3.78100 Y-3.93978
X3.78000 Y-3.93978
X3.78000 Y-3.94078
X3.77900 Y-3.94078
X3.77900 Y-3.94178
X3.77800 Y-3.94178
X3.77800 Y-3.94278
X3.77700 Y-3.94278
X3.77700 Y-3.94378
X3.77600 Y-3.94378
X3.77600 Y-3.94478
X3.77500 Y-3.94478
X3.77500 Y-3.94578
X3.77400 Y-3.94578
X3.77400 Y-3.94678
X3.77300 Y-3.94678
X3.77300 Y-3.94778
X3.77200 Y-3.94778
X3.77200 Y-3.94878
X3.77100 Y-3.94878
X3.77100 Y-3.94978
X3.77000 Y-3.94978
X3.77000 Y-3.95078
X3.76900 Y-3.95078
X3.76900 Y-3.95178
X3.76800 Y-3.95178
X3.76800 Y-3.95278
X3.76700 Y-3.95278
X3.76700 Y-3.95378
X3.76600 Y-3.95378
X3.76600 Y-3.95478
X3.76500 Y-3.95478
X3.76500 Y-3.95578
X3.76400 Y-3.95578
X3.76400 Y-3.95678
X3.76300 Y-3.95678
X3.76300 Y-3.95778
X3.76200 Y-3.95778
X3.76200 Y-3.95878
X3.76100 Y-3.95878
X3.76100 Y-3.95978
X3.76000 Y-3.95978
X3.76000 Y-3.96078
X3.75900 Y-3.96078
X3.75900 Y-3.96178
X3.75800 Y-3.96178
X3.75800 Y-3.96278
X3.75700 Y-3.96278
X3.75700 Y-3.96378
X3.75600 Y-3.96378
X3.75600 Y-3.96478
X3.75500 Y-3.96478
X3.75500 Y-3.96578
X3.75400 Y-3.96578
X3.75400 Y-3.96678
X3.75300 Y-3.96678
X3.75300 Y-3.96778
X3.75200 Y-3.96778
X3.75200 Y-3.96878
X3.75100 Y-3.96878
X3.75100 Y-3.96978
X3.75000 Y-3.96978
X3.75000 Y-3.97078
X3.74900 Y-3.97078
X3.74900 Y-3.97178
X3.74800 Y-3.97178
X3.74800 Y-3.97278
X3.74700 Y-3.97278
X3.74700 Y-3.97378
X3.74600 Y-3.97378
X3.74600 Y-3.97478
X3.74500 Y-3.97478
X3.74500 Y-3.97578
X3.74400 Y-3.97578
X3.74400 Y-3.97678
X3.74300 Y-3.97678
X3.74300 Y-3.97778
X3.74200 Y-3.97778
X3.74200 Y-3.97878
X3.74100 Y-3.97878
X3.74100 Y-3.97978
X3.74000 Y-3.97978
X3.74000 Y-3.98078
X3.73900 Y-3.98078
X3.73900 Y-3.98178
X3.73800 Y-3.98178
X3.73800 Y-3.98278
X3.73700 Y-3.98278
X3.73700 Y-3.98378
X3.73600 Y-3.98378
X3.73600 Y-3.98478
X3.73500 Y-3.98478
X3.73500 Y-3.98578
X3.73400 Y-3.98578
X3.73400 Y-3.98678
X3.73300 Y-3.98678
X3.73300 Y-3.98778
X3.73200 Y-3.98778
X3.73200 Y-3.98878
X3.73100 Y-3.98878
X3.73100 Y-3.98978
X3.73000 Y-3.98978
X3.73000 Y-3.99078
X3.72900 Y-3.99078
X3.72900 Y-3.99178
X3.72800 Y-3.99178
X3.72800 Y-3.99278
X3.72700 Y-3.99278
X3.72700 Y-3.99378
X3.72600 Y-3.99378
X3.72600 Y-3.99478
X3.72500 Y-3.99478
X3.72500 Y-3.99578
X3.72400 Y-3.99578
X3.72400 Y-3.99678
X3.72300 Y-3.99678
X3.72300 Y-3.99778
X3.72200 Y-3.99778
X3.72200 Y-3.99878
X3.72100 Y-3.99878
X3.72100 Y-3.99978
X3.72000 Y-3.99978
X3.72000 Y-4.00078
X3.71900 Y-4.00078
X3.71900 Y-4.00178
X3.71800 Y-4.00178
X3.71800 Y-4.00278
X3.71700 Y-4.00278
X3.71700 Y-4.00378
X3.71600 Y-4.00378
X3.71600 Y-4.00478
X3.71500 Y-4.00478
X3.71500 Y-4.00578
X3.71400 Y-4.00578
X3.71400 Y-4.00678
X3.71300 Y-4.00678
X3.71300 Y-4.00778
X3.71200 Y-4.00778
X3.71200 Y-4.00878
X3.71100 Y-4.00878
X3.71100 Y-4.00978
X3.71000 Y-4.00978
X3.71000 Y-4.01078
X3.70900 Y-4.01078
X3.70900 Y-4.01178
X3.70800 Y-4.01178
X3.70800 Y-4.01278
X3.70700 Y-4.01278
X3.70700 Y-4.01378
X3.70600 Y-4.01378
X3.70600 Y-4.01478
X3.70500 Y-4.01478
X3.70500 Y-4.01578
X3.70400 Y-4.01578
X3.70400 Y-4.01678
X3.70300 Y-4.01678
X3.70300 Y-4.01778
X3.70200 Y-4.01778
X3.70200 Y-4.01878
X3.70100 Y-4.01878
X3.70100 Y-4.01978
X3.70000 Y-4.01978
X3.70000 Y-4.02078
X3.69900 Y-4.02078
X3.69900 Y-4.02178
X3.69800 Y-4.02178
X3.69800 Y-4.02278
X3.69700 Y-4.02278
X3.69700 Y-4.02378
X3.69600 Y-4.02378
X3.69600 Y-4.02478
X3.69500 Y-4.02478
X3.69500 Y-4.02578
X3.69400 Y-4.02578
X3.69400 Y-4.02678
X3.69300 Y-4.02678
X3.69300 Y-4.02778
X3.69200 Y-4.02778
X3.69200 Y-4.02878
X3.69100 Y-4.02878
X3.69100 Y-4.02978
X3.69000 Y-4.02978
X3.69000 Y-4.03078
X3.68900 Y-4.03078
X3.68900 Y-4.03178
X3.68800 Y-4.03178
X3.68800 Y-4.03278
X3.68700 Y-4.03278
X3.68700 Y-4.03378
X3.68600 Y-4.03378
X3.68600 Y-4.03478
X3.68500 Y-4.03478
X3.68500 Y-4.03578
X3.68400 Y-4.03578
X3.68400 Y-4.03678
X3.68300 Y-4.03678
X3.68300 Y-4.03778
X3.68200 Y-4.03778
X3.68200 Y-4.03878
X3.68100 Y-4.03878
X3.68100 Y-4.03978
X3.68000 Y-4.03978
X3.68000 Y-4.04078
X3.67900 Y-4.04078
X3.67900 Y-4.04178
X3.67800 Y-4.04178
X3.67800 Y-4.04278
X3.67700 Y-4.04278
X3.67700 Y-4.04378
X3.67600 Y-4.04378
X3.67600 Y-4.04478
X3.67500 Y-4.04478
X3.67500 Y-4.04578
X3.67400 Y-4.04578
X3.67400 Y-4.04678
X3.67300 Y-4.04678
X3.67300 Y-4.04778
X3.67200 Y-4.04778
X3.67200 Y-4.04878
X3.67100 Y-4.04878
X3.67100 Y-4.04978
X3.67000 Y-4.04978
X3.67000 Y-4.05078
X3.66900 Y-4.05078
X3.66900 Y-4.05178
X3.66800 Y-4.05178
X3.66800 Y-4.05278
X3.66700 Y-4.05278
X3.66700 Y-4.05378
X3.66600 Y-4.05378
X3.66600 Y-4.05478
X3.66500 Y-4.05478
X3.66500 Y-4.05578
X3.66400 Y-4.05578
X3.66400 Y-4.05678
X3.66300 Y-4.05678
X3.66300 Y-4.05778
X3.66200 Y-4.05778
X3.66200 Y-4.05878
X3.66100 Y-4.05878
X3.66100 Y-4.05978
X3.66000 Y-4.05978
X3.66000 Y-4.06078
X3.65900 Y-4.06078
X3.65900 Y-4.06178
X3.65800 Y-4.06178
X3.65800 Y-4.06278
X3.65700 Y-4.06278
X3.65700 Y-4.06378
X3.65600 Y-4.06378
X3.65600 Y-4.06478
X3.65500 Y-4.06478
X3.65500 Y-4.06578
X3.65400 Y-4.06578
X3.65400 Y-4.06678
X3.65300 Y-4.06678
X3.65300 Y-4.06778
X3.65200 Y-4.06778
X3.65200 Y-4.06878
X3.65100 Y-4.06878
X3.65100 Y-4.06978
X3.65000 Y-4.06978
X3.65000 Y-4.07078
X3.64900 Y-4.07078
X3.64900 Y-4.07178
X3.64800 Y-4.07178
X3.64800 Y-4.07278
X3.64700 Y-4.07278
X3.64700 Y-4.07378
X3.64600 Y-4.07378
X3.64600 Y-4.07478
X3.64500 Y-4.07478
X3.64500 Y-4.07578
X3.64400 Y-4.07578
X3.64400 Y-4.07678
X3.64300 Y-4.07678
X3.64300 Y-4.07778
X3.64200 Y-4.07778
X3.64200 Y-4.07878
X3.64100 Y-4.07878
X3.64100 Y-4.07978
X3.64000 Y-4.07978
X3.64000 Y-4.08078
X3.63900 Y-4.08078
X3.63900 Y-4.08178
X3.63800 Y-4.08178
X3.63800 Y-4.08278
X3.63700 Y-4.08278
X3.63700 Y-4.08378
X3.63600 Y-4.08378
X3.63600 Y-4.08478
X3.63500 Y-4.08478
X3.63500 Y-4.08578
X3.63400 Y-4.08578
X3.63400 Y-4.08678
X3.63300 Y-4.08678
X3.63300 Y-4.08778
X3.63000 Y-4.08778
X3.63000 Y-4.08878
X3.62900 Y-4.08878
X3.62900 Y-4.08978
X3.62800 Y-4.08978
X3.62800 Y-4.09078
X3.62600 Y-4.09078
X3.62600 Y-4.09178
X3.62400 Y-4.09178
X3.62400 Y-4.09278
X3.61900 Y-4.09278
X3.61900 Y-4.09378
X3.61700 Y-4.09378
X3.61700 Y-4.09478
X3.61600 Y-4.09478
X3.61600 Y-4.09578
X3.61500 Y-4.09578
X3.61500 Y-4.09678
X3.61400 Y-4.09678
X3.61400 Y-4.09778
X3.61300 Y-4.09778
X3.61300 Y-4.09878
X3.61200 Y-4.09878
X3.61200 Y-4.09978
X3.61100 Y-4.09978
X3.61100 Y-4.10078
X3.61000 Y-4.10078
X3.61000 Y-4.10278
X3.60900 Y-4.10278
X3.60900 Y-4.10678
X3.60800 Y-4.10678
X3.60800 Y-4.11678
X3.60900 Y-4.11678
X3.60900 Y-4.12178
X3.61000 Y-4.12178
X3.61000 Y-4.12378
X3.61100 Y-4.12378
X3.61100 Y-4.12478
X3.61200 Y-4.12478
X3.61200 Y-4.12578
X3.61300 Y-4.12578
X3.61300 Y-4.12678
X3.61400 Y-4.12678
X3.61400 Y-4.12778
X3.61500 Y-4.12778
X3.61500 Y-4.12878
X3.61600 Y-4.12878
X3.61600 Y-4.12978
X3.61700 Y-4.12978
X3.61700 Y-4.13078
X3.61900 Y-4.13078
X3.61900 Y-4.13178
X3.62300 Y-4.13178
X3.62300 Y-4.13278
X3.63400 Y-4.13278
X3.63400 Y-4.13178
X3.63800 Y-4.13178
X3.63800 Y-4.13078
X3.64100 Y-4.13078
X3.64100 Y-4.12978
X3.64200 Y-4.12978
X3.64200 Y-4.12878
X3.64300 Y-4.12878
X3.64300 Y-4.12778
X3.64400 Y-4.12778
X3.64400 Y-4.12678
X3.64500 Y-4.12678
X3.64500 Y-4.12578
X3.64600 Y-4.12578
X3.64600 Y-4.12478
X3.64700 Y-4.12478
X3.64700 Y-4.12178
X3.64800 Y-4.12178
X3.64800 Y-4.11978
X3.64900 Y-4.11978
X3.64900 Y-4.11578
X3.65000 Y-4.11578
X3.65000 Y-4.11378
X3.65100 Y-4.11378
X3.65100 Y-4.11178
X3.65200 Y-4.11178
X3.65200 Y-4.11078
X3.65300 Y-4.11078
X3.65300 Y-4.10778
X3.65400 Y-4.10778
X3.65400 Y-4.10678
X3.65500 Y-4.10678
X3.65500 Y-4.10578
X3.65600 Y-4.10578
X3.65600 Y-4.10478
X3.65700 Y-4.10478
X3.65700 Y-4.10378
X3.65800 Y-4.10378
X3.65800 Y-4.10278
X3.65900 Y-4.10278
X3.65900 Y-4.10178
X3.66000 Y-4.10178
X3.66000 Y-4.10078
X3.66100 Y-4.10078
X3.66100 Y-4.09978
X3.66200 Y-4.09978
X3.66200 Y-4.09878
X3.66300 Y-4.09878
X3.66300 Y-4.09778
X3.66400 Y-4.09778
X3.66400 Y-4.09678
X3.66500 Y-4.09678
X3.66500 Y-4.09578
X3.66600 Y-4.09578
X3.66600 Y-4.09478
X3.66700 Y-4.09478
X3.66700 Y-4.09378
X3.66800 Y-4.09378
X3.66800 Y-4.09278
X3.66900 Y-4.09278
X3.66900 Y-4.09178
X3.67000 Y-4.09178
X3.67000 Y-4.09078
X3.67100 Y-4.09078
X3.67100 Y-4.08978
X3.67200 Y-4.08978
X3.67200 Y-4.08878
X3.67300 Y-4.08878
X3.67300 Y-4.08778
X3.67400 Y-4.08778
X3.67400 Y-4.08678
X3.67500 Y-4.08678
X3.67500 Y-4.08578
X3.67600 Y-4.08578
X3.67600 Y-4.08478
X3.67700 Y-4.08478
X3.67700 Y-4.08378
X3.67800 Y-4.08378
X3.67800 Y-4.08278
X3.67900 Y-4.08278
X3.67900 Y-4.08178
X3.68000 Y-4.08178
X3.68000 Y-4.08078
X3.68100 Y-4.08078
X3.68100 Y-4.07978
X3.68200 Y-4.07978
X3.68200 Y-4.07878
X3.68300 Y-4.07878
X3.68300 Y-4.07778
X3.68400 Y-4.07778
X3.68400 Y-4.07678
X3.68500 Y-4.07678
X3.68500 Y-4.07578
X3.68600 Y-4.07578
X3.68600 Y-4.07478
X3.68700 Y-4.07478
X3.68700 Y-4.07378
X3.68800 Y-4.07378
X3.68800 Y-4.07278
X3.68900 Y-4.07278
X3.68900 Y-4.07178
X3.69000 Y-4.07178
X3.69000 Y-4.07078
X3.69100 Y-4.07078
X3.69100 Y-4.06978
X3.69200 Y-4.06978
X3.69200 Y-4.06878
X3.69300 Y-4.06878
X3.69300 Y-4.06778
X3.69400 Y-4.06778
X3.69400 Y-4.06678
X3.69500 Y-4.06678
X3.69500 Y-4.06578
X3.69600 Y-4.06578
X3.69600 Y-4.06478
X3.69700 Y-4.06478
X3.69700 Y-4.06378
X3.69800 Y-4.06378
X3.69800 Y-4.06278
X3.69900 Y-4.06278
X3.69900 Y-4.06178
X3.70000 Y-4.06178
X3.70000 Y-4.06078
X3.70100 Y-4.06078
X3.70100 Y-4.05978
X3.70200 Y-4.05978
X3.70200 Y-4.05878
X3.70300 Y-4.05878
X3.70300 Y-4.05778
X3.70400 Y-4.05778
X3.70400 Y-4.05678
X3.70500 Y-4.05678
X3.70500 Y-4.05578
X3.70600 Y-4.05578
X3.70600 Y-4.05478
X3.70700 Y-4.05478
X3.70700 Y-4.05378
X3.70800 Y-4.05378
X3.70800 Y-4.05278
X3.70900 Y-4.05278
X3.70900 Y-4.05178
X3.71000 Y-4.05178
X3.71000 Y-4.05078
X3.71100 Y-4.05078
X3.71100 Y-4.04978
X3.71200 Y-4.04978
X3.71200 Y-4.04878
X3.71300 Y-4.04878
X3.71300 Y-4.04778
X3.71400 Y-4.04778
X3.71400 Y-4.04678
X3.71500 Y-4.04678
X3.71500 Y-4.04578
X3.71600 Y-4.04578
X3.71600 Y-4.04478
X3.71700 Y-4.04478
X3.71700 Y-4.04378
X3.71800 Y-4.04378
X3.71800 Y-4.04278
X3.71900 Y-4.04278
X3.71900 Y-4.04178
X3.72000 Y-4.04178
X3.72000 Y-4.04078
X3.72100 Y-4.04078
X3.72100 Y-4.03978
X3.72200 Y-4.03978
X3.72200 Y-4.03878
X3.72300 Y-4.03878
X3.72300 Y-4.03778
X3.72400 Y-4.03778
X3.72400 Y-4.03678
X3.72500 Y-4.03678
X3.72500 Y-4.03578
X3.72600 Y-4.03578
X3.72600 Y-4.03478
X3.72700 Y-4.03478
X3.72700 Y-4.03378
X3.72800 Y-4.03378
X3.72800 Y-4.03278
X3.72900 Y-4.03278
X3.72900 Y-4.03178
X3.73000 Y-4.03178
X3.73000 Y-4.03078
X3.73100 Y-4.03078
X3.73100 Y-4.02978
X3.73200 Y-4.02978
X3.73200 Y-4.02878
X3.73300 Y-4.02878
X3.73300 Y-4.02778
X3.73400 Y-4.02778
X3.73400 Y-4.02678
X3.73500 Y-4.02678
X3.73500 Y-4.02578
X3.73600 Y-4.02578
X3.73600 Y-4.02478
X3.73700 Y-4.02478
X3.73700 Y-4.02378
X3.73800 Y-4.02378
X3.73800 Y-4.02278
X3.73900 Y-4.02278
X3.73900 Y-4.02178
X3.74000 Y-4.02178
X3.74000 Y-4.02078
X3.74100 Y-4.02078
X3.74100 Y-4.01978
X3.74200 Y-4.01978
X3.74200 Y-4.01878
X3.74300 Y-4.01878
X3.74300 Y-4.01778
X3.74400 Y-4.01778
X3.74400 Y-4.01678
X3.74500 Y-4.01678
X3.74500 Y-4.01578
X3.74600 Y-4.01578
X3.74600 Y-4.01478
X3.74700 Y-4.01478
X3.74700 Y-4.01378
X3.74800 Y-4.01378
X3.74800 Y-4.01278
X3.74900 Y-4.01278
X3.74900 Y-4.01178
X3.75000 Y-4.01178
X3.75000 Y-4.01078
X3.75100 Y-4.01078
X3.75100 Y-4.00978
X3.75200 Y-4.00978
X3.75200 Y-4.00878
X3.75300 Y-4.00878
X3.75300 Y-4.00778
X3.75400 Y-4.00778
X3.75400 Y-4.00678
X3.75500 Y-4.00678
X3.75500 Y-4.00578
X3.75600 Y-4.00578
X3.75600 Y-4.00478
X3.75700 Y-4.00478
X3.75700 Y-4.00378
X3.75800 Y-4.00378
X3.75800 Y-4.00278
X3.75900 Y-4.00278
X3.75900 Y-4.00178
X3.76000 Y-4.00178
X3.76000 Y-4.00078
X3.76100 Y-4.00078
X3.76100 Y-3.99978
X3.76200 Y-3.99978
X3.76200 Y-3.99878
X3.76300 Y-3.99878
X3.76300 Y-3.99778
X3.76400 Y-3.99778
X3.76400 Y-3.99678
X3.76500 Y-3.99678
X3.76500 Y-3.99578
X3.76600 Y-3.99578
X3.76600 Y-3.99478
X3.76700 Y-3.99478
X3.76700 Y-3.99378
X3.76800 Y-3.99378
X3.76800 Y-3.99278
X3.76900 Y-3.99278
X3.76900 Y-3.99178
X3.77000 Y-3.99178
X3.77000 Y-3.99078
X3.77100 Y-3.99078
X3.77100 Y-3.98978
X3.77200 Y-3.98978
X3.77200 Y-3.98878
X3.77300 Y-3.98878
X3.77300 Y-3.98778
X3.77400 Y-3.98778
X3.77400 Y-3.98678
X3.77500 Y-3.98678
X3.77500 Y-3.98578
X3.77600 Y-3.98578
X3.77600 Y-3.98478
X3.77700 Y-3.98478
X3.77700 Y-3.98378
X3.77800 Y-3.98378
X3.77800 Y-3.98278
X3.77900 Y-3.98278
X3.77900 Y-3.98178
X3.78000 Y-3.98178
X3.78000 Y-3.98078
X3.78100 Y-3.98078
X3.78100 Y-3.97978
X3.78200 Y-3.97978
X3.78200 Y-3.97878
X3.78300 Y-3.97878
X3.78300 Y-3.97778
X3.78400 Y-3.97778
X3.78400 Y-3.97678
X3.78500 Y-3.97678
X3.78500 Y-3.97578
X3.78600 Y-3.97578
X3.78600 Y-3.97478
X3.78700 Y-3.97478
X3.78700 Y-3.97378
X3.78800 Y-3.97378
X3.78800 Y-3.97278
X3.78900 Y-3.97278
X3.78900 Y-3.97178
X3.79000 Y-3.97178
X3.79000 Y-3.97078
X3.79100 Y-3.97078
X3.79100 Y-3.96978
X3.79200 Y-3.96978
X3.79200 Y-3.96878
X3.79300 Y-3.96878
X3.79300 Y-3.96778
X3.79400 Y-3.96778
X3.79400 Y-3.96678
X3.79500 Y-3.96678
X3.79500 Y-3.96578
X3.79600 Y-3.96578
X3.79600 Y-3.96478
X3.79700 Y-3.96478
X3.79700 Y-3.96378
X3.79800 Y-3.96378
X3.79800 Y-3.96278
X3.79900 Y-3.96278
X3.79900 Y-3.96178
X3.80000 Y-3.96178
X3.80000 Y-3.96078
X3.80100 Y-3.96078
X3.80100 Y-3.95978
X3.80200 Y-3.95978
X3.80200 Y-3.95878
X3.80300 Y-3.95878
X3.80300 Y-3.95778
X3.80400 Y-3.95778
X3.80400 Y-3.95678
X3.80500 Y-3.95678
X3.80500 Y-3.95578
X3.80600 Y-3.95578
X3.80600 Y-3.95478
X3.80700 Y-3.95478
X3.80700 Y-3.95378
X3.80800 Y-3.95378
X3.80800 Y-3.95278
X3.80900 Y-3.95278
X3.80900 Y-3.95178
X3.81000 Y-3.95178
X3.81000 Y-3.95078
X3.81100 Y-3.95078
X3.81100 Y-3.94978
X3.81200 Y-3.94978
X3.81200 Y-3.94878
X3.81300 Y-3.94878
X3.81300 Y-3.94778
X3.81400 Y-3.94778
X3.81400 Y-3.94678
X3.81500 Y-3.94678
X3.81500 Y-3.94578
X3.81600 Y-3.94578
X3.81600 Y-3.94478
X3.81700 Y-3.94478
X3.81700 Y-3.94378
X3.81800 Y-3.94378
X3.81800 Y-3.94278
X3.81900 Y-3.94278
X3.81900 Y-3.94178
X3.82000 Y-3.94178
X3.82000 Y-3.94078
X3.82100 Y-3.94078
X3.82100 Y-3.93978
X3.82200 Y-3.93978
X3.82200 Y-3.93878
X3.82300 Y-3.93878
X3.82300 Y-3.93778
X3.82400 Y-3.93778
X3.82400 Y-3.93678
X3.82500 Y-3.93678
X3.82500 Y-3.93578
X3.82600 Y-3.93578
X3.82600 Y-3.93478
X3.82700 Y-3.93478
X3.82700 Y-3.93378
X3.82800 Y-3.93378
X3.82800 Y-3.93278
X3.82900 Y-3.93278
X3.82900 Y-3.93178
X3.83000 Y-3.93178
X3.83000 Y-3.93078
X3.83100 Y-3.93078
X3.83100 Y-3.92978
X3.83200 Y-3.92978
X3.83200 Y-3.92878
X3.83300 Y-3.92878
X3.83300 Y-3.92778
X3.83400 Y-3.92778
X3.83400 Y-3.92678
X3.83500 Y-3.92678
X3.83500 Y-3.92578
X3.83600 Y-3.92578
X3.83600 Y-3.92478
X3.83700 Y-3.92478
X3.83700 Y-3.92378
X3.83800 Y-3.92378
X3.83800 Y-3.92278
X3.83900 Y-3.92278
X3.83900 Y-3.92178
X3.84000 Y-3.92178
X3.84000 Y-3.92078
X3.84100 Y-3.92078
X3.84100 Y-3.91978
X3.84300 Y-3.91978
X3.84300 Y-3.91878
X3.84500 Y-3.91878
X3.84500 Y-3.91778
X3.84800 Y-3.91778
X3.84800 Y-3.91678
X3.85100 Y-3.91678
X3.85100 Y-3.91578
X3.86500 Y-3.91578
X3.86500 Y-3.91678
X3.86600 Y-3.91678
X3.86600 Y-3.91778
X3.86700 Y-3.91778
X3.86700 Y-3.89978
X3.86800 Y-3.89978
X3.86800 Y-3.89678
X3.86900 Y-3.89678
X3.86900 Y-3.89378
X3.87000 Y-3.89378
X3.87000 Y-3.89078
X3.87100 Y-3.89078
X3.87100 Y-3.88978
X3.87200 Y-3.88978
X3.87200 Y-3.88878
X3.87500 Y-3.88878
X3.87500 Y-3.88778
X3.87800 Y-3.88778
X3.87800 Y-3.88678
X3.88100 Y-3.88678
X3.88100 Y-3.88578
X4.08200 Y-3.88578
X4.08200 Y-4.18278
X3.87000 Y-4.18278
X3.87000 Y-4.19478
X3.86900 Y-4.19478
X3.86900 Y-4.19578
X3.86800 Y-4.19578
X3.86800 Y-4.19678
X3.81700 Y-4.19678
X3.81700 Y-4.19578
X3.81400 Y-4.19578
X3.81400 Y-4.19478
X3.81100 Y-4.19478
X3.81100 Y-4.19378
X3.81000 Y-4.19378
X3.81000 Y-4.19278
X3.80800 Y-4.19278
X3.80800 Y-4.19178
X3.80300 Y-4.19178
X3.80300 Y-4.19078
X3.79400 Y-4.19078
X3.79400 Y-4.19178
X3.78900 Y-4.19178
X3.78900 Y-4.19278
X3.78700 Y-4.19278
X3.78700 Y-4.19378
X3.78600 Y-4.19378
X3.78600 Y-4.19478
X3.78500 Y-4.19478
X3.78500 Y-4.19578
X3.78400 Y-4.19578
X3.78400 Y-4.19678
X3.78300 Y-4.19678
X3.78300 Y-4.19778
X3.78200 Y-4.19778
X3.78200 Y-4.19878
X3.78100 Y-4.19878
X3.78100 Y-4.19978
X3.78000 Y-4.19978
X3.78000 Y-4.20178
X3.77900 Y-4.20178
X3.77900 Y-4.20678
X3.77800 Y-4.20678
X3.77800 Y-4.21778
X3.77900 Y-4.21778
X3.77900 Y-4.22078
X3.78000 Y-4.22078
X3.78000 Y-4.22378
X3.78100 Y-4.22378
X3.78100 Y-4.22478
X3.78200 Y-4.22478
X3.78200 Y-4.22578
X3.78300 Y-4.22578
X3.78300 Y-4.22678
X3.78400 Y-4.22678
X3.78400 Y-4.22778
X3.78500 Y-4.22778
X3.78500 Y-4.22878
X3.78600 Y-4.22878
X3.78600 Y-4.22978
X3.78900 Y-4.22978
X3.78900 Y-4.23078
X3.79100 Y-4.23078
X3.79100 Y-4.23178
X3.80600 Y-4.23178
X3.80600 Y-4.23078
X3.80800 Y-4.23078
X3.80800 Y-4.22978
X3.81100 Y-4.22978
X3.81100 Y-4.22878
X3.81300 Y-4.22878
X3.81300 Y-4.22778
X3.81600 Y-4.22778
X3.81600 Y-4.22678
X3.81900 Y-4.22678
X3.81900 Y-4.22578
X3.86700 Y-4.22578
X3.86700 Y-4.22678
X3.86800 Y-4.22678
X3.86800 Y-4.22778
X3.86900 Y-4.22778
X3.86900 Y-4.22878
X3.87000 Y-4.22878
X3.87000 Y-4.24078
X4.08200 Y-4.24078
X4.08200 Y-4.53578
X4.09400 Y-4.53578
X4.09400 Y-4.53678
X4.29800 Y-4.53678
X4.29800 Y-4.53778
X4.29900 Y-4.53778
X4.29900 Y-4.53878
X4.30000 Y-4.53878
X4.30000 Y-5.30478
X4.29900 Y-5.30478
X4.29900 Y-5.30578
X4.29800 Y-5.30578
X4.29800 Y-5.30678
X4.29700 Y-5.30678
X4.29700 Y-5.30778
X4.29500 Y-5.30778
X4.29500 Y-5.30878
X4.29400 Y-5.30878
X4.29400 Y-5.30978
X4.29200 Y-5.30978
X4.29200 Y-5.31078
X4.29100 Y-5.31078
X4.29100 Y-5.31178
X4.28900 Y-5.31178
X4.28900 Y-5.31278
X4.28800 Y-5.31278
X4.28800 Y-5.31378
X4.28600 Y-5.31378
X4.28600 Y-5.31478
X4.28500 Y-5.31478
X4.28500 Y-5.31578
X4.28300 Y-5.31578
X4.28300 Y-5.31678
X4.28200 Y-5.31678
X4.28200 Y-5.31778
X4.28000 Y-5.31778
X4.28000 Y-5.31878
X4.27900 Y-5.31878
X4.27900 Y-5.31978
X4.27700 Y-5.31978
X4.27700 Y-5.32078
X4.27600 Y-5.32078
X4.27600 Y-5.32178
X4.27400 Y-5.32178
X4.27400 Y-5.32278
X4.27300 Y-5.32278
X4.27300 Y-5.32378
X4.27200 Y-5.32378
X4.27200 Y-5.32478
X4.27000 Y-5.32478
X4.27000 Y-5.32578
X4.26900 Y-5.32578
X4.26900 Y-5.32678
X4.26700 Y-5.32678
X4.26700 Y-5.32778
X4.26600 Y-5.32778
X4.26600 Y-5.32878
X4.26400 Y-5.32878
X4.26400 Y-5.32978
X4.26300 Y-5.32978
X4.26300 Y-5.33078
X4.26100 Y-5.33078
X4.26100 Y-5.33178
X4.26000 Y-5.33178
X4.26000 Y-5.33278
X4.25800 Y-5.33278
X4.25800 Y-5.33378
X4.25700 Y-5.33378
X4.25700 Y-5.33478
X4.25500 Y-5.33478
X4.25500 Y-5.33578
X4.25400 Y-5.33578
X4.25400 Y-5.33678
X4.25200 Y-5.33678
X4.25200 Y-5.33778
X4.25100 Y-5.33778
X4.25100 Y-5.33878
X4.24900 Y-5.33878
X4.24900 Y-5.33978
X4.24800 Y-5.33978
X4.24800 Y-5.34078
X4.24600 Y-5.34078
X4.24600 Y-5.34178
X4.24500 Y-5.34178
X4.24500 Y-5.34278
X4.24300 Y-5.34278
X4.24300 Y-5.34378
X4.24200 Y-5.34378
X4.24200 Y-5.34478
X4.24000 Y-5.34478
X4.24000 Y-5.34578
X4.23900 Y-5.34578
X4.23900 Y-5.34678
X4.23700 Y-5.34678
X4.23700 Y-5.34778
X4.23600 Y-5.34778
X4.23600 Y-5.34878
X4.23400 Y-5.34878
X4.23400 Y-5.34978
X4.23300 Y-5.34978
X4.23300 Y-5.35078
X4.23100 Y-5.35078
X4.23100 Y-5.35178
X4.23000 Y-5.35178
X4.23000 Y-5.35278
X4.22800 Y-5.35278
X4.22800 Y-5.35378
X4.22700 Y-5.35378
X4.22700 Y-5.35478
X4.22500 Y-5.35478
X4.22500 Y-5.35578
X4.22400 Y-5.35578
X4.22400 Y-5.35678
X4.22200 Y-5.35678
X4.22200 Y-5.35778
X4.22100 Y-5.35778
X4.22100 Y-5.35878
X4.21900 Y-5.35878
X4.21900 Y-5.35978
X4.21800 Y-5.35978
X4.21800 Y-5.36078
X4.21600 Y-5.36078
X4.21600 Y-5.36178
X4.21500 Y-5.36178
X4.21500 Y-5.36278
X4.21400 Y-5.36278
X4.21400 Y-5.36378
X4.21200 Y-5.36378
X4.21200 Y-5.36478
X4.21100 Y-5.36478
X4.21100 Y-5.36578
X4.20900 Y-5.36578
X4.20900 Y-5.36678
X4.20800 Y-5.36678
X4.20800 Y-5.36778
X4.20600 Y-5.36778
X4.20600 Y-5.36878
X4.20500 Y-5.36878
X4.20500 Y-5.36978
X4.20300 Y-5.36978
X4.20300 Y-5.37078
X4.20200 Y-5.37078
X4.20200 Y-5.37178
X4.20000 Y-5.37178
X4.20000 Y-5.37278
X4.19900 Y-5.37278
X4.19900 Y-5.37378
X4.19700 Y-5.37378
X4.19700 Y-5.37478
X4.19600 Y-5.37478
X4.19600 Y-5.37578
X4.19400 Y-5.37578
X4.19400 Y-5.37678
X4.19300 Y-5.37678
X4.19300 Y-5.37778
X4.19100 Y-5.37778
X4.19100 Y-5.37878
X4.19000 Y-5.37878
X4.19000 Y-5.37978
X4.18800 Y-5.37978
X4.18800 Y-5.38078
X4.18700 Y-5.38078
X4.18700 Y-5.38178
X4.15800 Y-5.38178
X4.15800 Y-5.38078
X4.15600 Y-5.38078
X4.15600 Y-5.37978
X4.15500 Y-5.37978
X4.15500 Y-5.37878
X4.15300 Y-5.37878
X4.15300 Y-5.37778
X4.15100 Y-5.37778
X4.15100 Y-5.37678
X4.14900 Y-5.37678
X4.14900 Y-5.37578
X4.14700 Y-5.37578
X4.14700 Y-5.37478
X4.14600 Y-5.37478
X4.14600 Y-5.37378
X4.14400 Y-5.37378
X4.14400 Y-5.37278
X4.14200 Y-5.37278
X4.14200 Y-5.37178
X4.14000 Y-5.37178
X4.14000 Y-5.37078
X4.13900 Y-5.37078
X4.13900 Y-5.36978
X4.13700 Y-5.36978
X4.13700 Y-5.36878
X4.13500 Y-5.36878
X4.13500 Y-5.36778
X4.13300 Y-5.36778
X4.13300 Y-5.36678
X4.13200 Y-5.36678
X4.13200 Y-5.36578
X4.13000 Y-5.36578
X4.13000 Y-5.36478
X4.12800 Y-5.36478
X4.12800 Y-5.36378
X4.12600 Y-5.36378
X4.12600 Y-5.36278
X4.12500 Y-5.36278
X4.12500 Y-5.36178
X4.12300 Y-5.36178
X4.12300 Y-5.36078
X4.12100 Y-5.36078
X4.12100 Y-5.35978
X4.11900 Y-5.35978
X4.11900 Y-5.35878
X4.11700 Y-5.35878
X4.11700 Y-5.35778
X4.11600 Y-5.35778
X4.11600 Y-5.35678
X4.11400 Y-5.35678
X4.11400 Y-5.35578
X4.11200 Y-5.35578
X4.11200 Y-5.35478
X4.11000 Y-5.35478
X4.11000 Y-5.35378
X4.10900 Y-5.35378
X4.10900 Y-5.35278
X4.10700 Y-5.35278
X4.10700 Y-5.35178
X4.10500 Y-5.35178
X4.10500 Y-5.35078
X4.10300 Y-5.35078
X4.10300 Y-5.34978
X4.10200 Y-5.34978
X4.10200 Y-5.34878
X4.10000 Y-5.34878
X4.10000 Y-5.34778
X4.09800 Y-5.34778
X4.09800 Y-5.34678
X4.09600 Y-5.34678
X4.09600 Y-5.34578
X4.09500 Y-5.34578
X4.09500 Y-5.34478
X4.09300 Y-5.34478
X4.09300 Y-5.34378
X4.09100 Y-5.34378
X4.09100 Y-5.34278
X4.08900 Y-5.34278
X4.08900 Y-5.34178
X4.08800 Y-5.34178
X4.08800 Y-5.34078
X4.08600 Y-5.34078
X4.08600 Y-5.33978
X4.08400 Y-5.33978
X4.08400 Y-5.33878
X4.08200 Y-5.33878
X4.08200 Y-5.33778
X4.08000 Y-5.33778
X4.08000 Y-5.33678
X4.07900 Y-5.33678
X4.07900 Y-5.33578
X4.07700 Y-5.33578
X4.07700 Y-5.33478
X4.07500 Y-5.33478
X4.07500 Y-5.33378
X4.07300 Y-5.33378
X4.07300 Y-5.33278
X4.07200 Y-5.33278
X4.07200 Y-5.33178
X4.07000 Y-5.33178
X4.07000 Y-5.33078
X4.06800 Y-5.33078
X4.06800 Y-5.32978
X4.06600 Y-5.32978
X4.06600 Y-5.32878
X4.06500 Y-5.32878
X4.06500 Y-5.32778
X4.06300 Y-5.32778
X4.06300 Y-5.32678
X4.06100 Y-5.32678
X4.06100 Y-5.32578
X4.05900 Y-5.32578
X4.05900 Y-5.32478
X4.05800 Y-5.32478
X4.05800 Y-5.32378
X4.05600 Y-5.32378
X4.05600 Y-5.32278
X4.05400 Y-5.32278
X4.05400 Y-5.32178
X4.05200 Y-5.32178
X4.05200 Y-5.32078
X4.05000 Y-5.32078
X4.05000 Y-5.31978
X4.04900 Y-5.31978
X4.04900 Y-5.31878
X4.04700 Y-5.31878
X4.04700 Y-5.31778
X4.04500 Y-5.31778
X4.04500 Y-5.31678
X4.04300 Y-5.31678
X4.04300 Y-5.31578
X4.04200 Y-5.31578
X4.04200 Y-5.31478
X4.04000 Y-5.31478
X4.04000 Y-5.31378
X4.03800 Y-5.31378
X4.03800 Y-5.31278
X4.03600 Y-5.31278
X4.03600 Y-5.31178
X4.03500 Y-5.31178
X4.03500 Y-5.31078
X4.03300 Y-5.31078
X4.03300 Y-5.30978
X4.03100 Y-5.30978
X4.03100 Y-5.30878
X4.02900 Y-5.30878
X4.02900 Y-5.30778
X4.02800 Y-5.30778
X4.02800 Y-5.30678
X4.02600 Y-5.30678
X4.02600 Y-5.30578
X4.02400 Y-5.30578
X4.02400 Y-5.30478
X4.02200 Y-5.30478
X4.02200 Y-5.30378
X4.02100 Y-5.30378
X4.02100 Y-5.30278
X4.01900 Y-5.30278
X4.01900 Y-5.30178
X4.01700 Y-5.30178
X4.01700 Y-5.30078
X4.01500 Y-5.30078
X4.01500 Y-5.29978
X4.01300 Y-5.29978
X4.01300 Y-5.29878
X4.01200 Y-5.29878
X4.01200 Y-5.29778
X4.01000 Y-5.29778
X4.01000 Y-5.29678
X4.00800 Y-5.29678
X4.00800 Y-5.29578
X4.00600 Y-5.29578
X4.00600 Y-5.29478
X4.00500 Y-5.29478
X4.00500 Y-5.29378
X4.00300 Y-5.29378
X4.00300 Y-5.29278
X4.00100 Y-5.29278
X4.00100 Y-5.29178
X3.99900 Y-5.29178
X3.99900 Y-5.29078
X3.99800 Y-5.29078
X3.99800 Y-5.28978
X3.99600 Y-5.28978
X3.99600 Y-5.28878
X3.99400 Y-5.28878
X3.99400 Y-5.28778
X3.99200 Y-5.28778
X3.99200 Y-5.28678
X3.99100 Y-5.28678
X3.99100 Y-5.28578
X3.98900 Y-5.28578
X3.98900 Y-5.28478
X3.98700 Y-5.28478
X3.98700 Y-5.28378
X3.98500 Y-5.28378
X3.98500 Y-5.28278
X3.98400 Y-5.28278
X3.98400 Y-5.28178
X3.98200 Y-5.28178
X3.98200 Y-5.28078
X3.98000 Y-5.28078
X3.98000 Y-5.27978
X3.97800 Y-5.27978
X3.97800 Y-5.27878
X3.97600 Y-5.27878
X3.97600 Y-5.27778
X3.97500 Y-5.27778
X3.97500 Y-5.27678
X3.97300 Y-5.27678
X3.97300 Y-5.27578
X3.97100 Y-5.27578
X3.97100 Y-5.27478
X3.96900 Y-5.27478
X3.96900 Y-5.27378
X3.96800 Y-5.27378
X3.96800 Y-5.27278
X3.96600 Y-5.27278
X3.96600 Y-5.27178
X3.96400 Y-5.27178
X3.96400 Y-5.27078
X3.96200 Y-5.27078
X3.96200 Y-5.26978
X3.96100 Y-5.26978
X3.96100 Y-5.26878
X3.95900 Y-5.26878
X3.95900 Y-5.26778
X3.95700 Y-5.26778
X3.95700 Y-5.26678
X3.95500 Y-5.26678
X3.95500 Y-5.26578
X3.95400 Y-5.26578
X3.95400 Y-5.26478
X3.95200 Y-5.26478
X3.95200 Y-5.26378
X3.95000 Y-5.26378
X3.95000 Y-5.26278
X3.94800 Y-5.26278
X3.94800 Y-5.26178
X3.94600 Y-5.26178
X3.94600 Y-5.26078
X3.94500 Y-5.26078
X3.94500 Y-5.25978
X3.94300 Y-5.25978
X3.94300 Y-5.25878
X3.94100 Y-5.25878
X3.94100 Y-5.25778
X3.93900 Y-5.25778
X3.93900 Y-5.25678
X3.93800 Y-5.25678
X3.93800 Y-5.25578
X3.93600 Y-5.25578
X3.93600 Y-5.25478
X3.93400 Y-5.25478
X3.93400 Y-5.25378
X3.93200 Y-5.25378
X3.93200 Y-5.25278
X3.93100 Y-5.25278
X3.93100 Y-5.25178
X3.92900 Y-5.25178
X3.92900 Y-5.25078
X3.92700 Y-5.25078
X3.92700 Y-5.24978
X3.92500 Y-5.24978
X3.92500 Y-5.24878
X3.92400 Y-5.24878
X3.92400 Y-5.24778
X3.92200 Y-5.24778
X3.92200 Y-5.24678
X3.92000 Y-5.24678
X3.92000 Y-5.24578
X3.91800 Y-5.24578
X3.91800 Y-5.24478
X3.91700 Y-5.24478
X3.91700 Y-5.24378
X3.91500 Y-5.24378
X3.91500 Y-5.24278
X3.91300 Y-5.24278
X3.91300 Y-5.24178
X3.91100 Y-5.24178
X3.91100 Y-5.24078
X3.90900 Y-5.24078
X3.90900 Y-5.23978
X3.90800 Y-5.23978
X3.90800 Y-5.23878
X3.90600 Y-5.23878
X3.90600 Y-5.23778
X3.90400 Y-5.23778
X3.90400 Y-5.23678
X3.90200 Y-5.23678
X3.90200 Y-5.23578
X3.90100 Y-5.23578
X3.90100 Y-5.23478
X3.89900 Y-5.23478
X3.89900 Y-5.23378
X3.89700 Y-5.23378
X3.89700 Y-5.23278
X3.89500 Y-5.23278
X3.89500 Y-5.23178
X3.89400 Y-5.23178
X3.89400 Y-5.23078
X3.89200 Y-5.23078
X3.89200 Y-5.22978
X3.89000 Y-5.22978
X3.89000 Y-5.22878
X3.88800 Y-5.22878
X3.88800 Y-5.22778
X3.88700 Y-5.22778
X3.88700 Y-5.22678
X3.88500 Y-5.22678
X3.88500 Y-5.22578
X3.88300 Y-5.22578
X3.88300 Y-5.22478
X3.88100 Y-5.22478
X3.88100 Y-5.22378
X3.88000 Y-5.22378
X3.88000 Y-5.22278
X3.87800 Y-5.22278
X3.87800 Y-5.22178
X3.87600 Y-5.22178
X3.87600 Y-5.22078
X3.87400 Y-5.22078
X3.87400 Y-5.21978
X3.87200 Y-5.21978
X3.87200 Y-5.21878
X3.87100 Y-5.21878
X3.87100 Y-5.21778
X3.86900 Y-5.21778
X3.86900 Y-5.21678
X3.86700 Y-5.21678
X3.86700 Y-5.21578
X3.86500 Y-5.21578
X3.86500 Y-5.21478
X3.86400 Y-5.21478
X3.86400 Y-5.21378
X3.86200 Y-5.21378
X3.86200 Y-5.21278
X3.86000 Y-5.21278
X3.86000 Y-5.21178
X3.85800 Y-5.21178
X3.85800 Y-5.21078
X3.85700 Y-5.21078
X3.85700 Y-5.20978
X3.85500 Y-5.20978
X3.85500 Y-5.20878
X3.85300 Y-5.20878
X3.85300 Y-5.20778
X3.85100 Y-5.20778
X3.85100 Y-5.20678
X3.85000 Y-5.20678
X3.85000 Y-5.20578
X3.84800 Y-5.20578
X3.84800 Y-5.20478
X3.84600 Y-5.20478
X3.84600 Y-5.20378
X3.84400 Y-5.20378
X3.84400 Y-5.20278
X3.84200 Y-5.20278
X3.84200 Y-5.20178
X3.84100 Y-5.20178
X3.84100 Y-5.20078
X3.83900 Y-5.20078
X3.83900 Y-5.19978
X3.83700 Y-5.19978
X3.83700 Y-5.19878
X3.83500 Y-5.19878
X3.83500 Y-5.19778
X3.83400 Y-5.19778
X3.83400 Y-5.19678
X3.83200 Y-5.19678
X3.83200 Y-5.19578
X3.83000 Y-5.19578
X3.83000 Y-5.19478
X3.82800 Y-5.19478
X3.82800 Y-5.19378
X3.82700 Y-5.19378
X3.82700 Y-5.19278
X3.82500 Y-5.19278
X3.82500 Y-5.19178
X3.82300 Y-5.19178
X3.82300 Y-5.19078
X3.82100 Y-5.19078
X3.82100 Y-5.18978
X3.82000 Y-5.18978
X3.82000 Y-5.18878
X3.81800 Y-5.18878
X3.81800 Y-5.18778
X3.81600 Y-5.18778
X3.81600 Y-5.18678
X3.81400 Y-5.18678
X3.81400 Y-5.18578
X3.81300 Y-5.18578
X3.81300 Y-5.18478
X3.81100 Y-5.18478
X3.81100 Y-5.18378
X3.80900 Y-5.18378
X3.80900 Y-5.18278
X3.80700 Y-5.18278
X3.80700 Y-5.18178
X3.80500 Y-5.18178
X3.80500 Y-5.18078
X3.80400 Y-5.18078
X3.80400 Y-5.17978
X3.80200 Y-5.17978
X3.80200 Y-5.17878
X3.80000 Y-5.17878
X3.80000 Y-5.17778
X3.79800 Y-5.17778
X3.79800 Y-5.17678
X3.79700 Y-5.17678
X3.79700 Y-5.17578
X3.79500 Y-5.17578
X3.79500 Y-5.17478
X3.79300 Y-5.17478
X3.79300 Y-5.17378
X3.79100 Y-5.17378
X3.79100 Y-5.17278
X3.79000 Y-5.17278
X3.79000 Y-5.17178
X3.78800 Y-5.17178
X3.78800 Y-5.17078
X3.78600 Y-5.17078
X3.78600 Y-5.16978
X3.78400 Y-5.16978
X3.78400 Y-5.16878
X3.78300 Y-5.16878
X3.78300 Y-5.16778
X3.78100 Y-5.16778
X3.78100 Y-5.16678
X3.77900 Y-5.16678
X3.77900 Y-5.16578
X3.77700 Y-5.16578
X3.77700 Y-5.16478
X3.77500 Y-5.16478
X3.77500 Y-5.16378
X3.77400 Y-5.16378
X3.77400 Y-5.16278
X3.77200 Y-5.16278
X3.77200 Y-5.16178
X3.77000 Y-5.16178
X3.77000 Y-5.16078
X3.76800 Y-5.16078
X3.76800 Y-5.15978
X3.76700 Y-5.15978
X3.76700 Y-5.15878
X3.76500 Y-5.15878
X3.76500 Y-5.15778
X3.76300 Y-5.15778
X3.76300 Y-5.15678
X3.76100 Y-5.15678
X3.76100 Y-5.15578
X3.76000 Y-5.15578
X3.76000 Y-5.15478
X3.75800 Y-5.15478
X3.75800 Y-5.15378
X3.75600 Y-5.15378
X3.75600 Y-5.15278
X3.75400 Y-5.15278
X3.75400 Y-5.15178
X3.75300 Y-5.15178
X3.75300 Y-5.15078
X3.75100 Y-5.15078
X3.75100 Y-5.14978
X3.74900 Y-5.14978
X3.74900 Y-5.14878
X3.74700 Y-5.14878
X3.74700 Y-5.14778
X3.74600 Y-5.14778
X3.74600 Y-5.14678
X3.74400 Y-5.14678
X3.74400 Y-5.14578
X3.74200 Y-5.14578
X3.74200 Y-5.14478
X3.74000 Y-5.14478
X3.74000 Y-5.14378
X3.73800 Y-5.14378
X3.73800 Y-5.14278
X3.73700 Y-5.14278
X3.73700 Y-5.14178
X3.73500 Y-5.14178
X3.73500 Y-5.14078
X3.73300 Y-5.14078
X3.73300 Y-5.13978
X3.73100 Y-5.13978
X3.73100 Y-5.13878
X3.73000 Y-5.13878
X3.73000 Y-5.13778
X3.72800 Y-5.13778
X3.72800 Y-5.13678
X3.72600 Y-5.13678
X3.72600 Y-5.13578
X3.72400 Y-5.13578
X3.72400 Y-5.13478
X3.72300 Y-5.13478
X3.72300 Y-5.13378
X3.72100 Y-5.13378
X3.72100 Y-5.13278
X3.71900 Y-5.13278
X3.71900 Y-5.13178
X3.71700 Y-5.13178
X3.71700 Y-5.13078
X3.71600 Y-5.13078
X3.71600 Y-5.12978
X3.71400 Y-5.12978
X3.71400 Y-5.12878
X3.71200 Y-5.12878
X3.71200 Y-5.12778
X3.71000 Y-5.12778
X3.71000 Y-5.12678
X3.70900 Y-5.12678
X3.70900 Y-5.12578
X3.70700 Y-5.12578
X3.70700 Y-5.12478
X3.70500 Y-5.12478
X3.70500 Y-5.12378
X3.70300 Y-5.12378
X3.70300 Y-5.12278
X3.70100 Y-5.12278
X3.70100 Y-5.12178
X3.70000 Y-5.12178
X3.70000 Y-5.12078
X3.69800 Y-5.12078
X3.69800 Y-5.11978
X3.69600 Y-5.11978
X3.69600 Y-5.11878
X3.69400 Y-5.11878
X3.69400 Y-5.11778
X3.69300 Y-5.11778
X3.69300 Y-5.11678
X3.69100 Y-5.11678
X3.69100 Y-5.11578
X3.68900 Y-5.11578
X3.68900 Y-5.11478
X3.68700 Y-5.11478
X3.68700 Y-5.11378
X3.68600 Y-5.11378
X3.68600 Y-5.11278
X3.68400 Y-5.11278
X3.68400 Y-5.11178
X3.68200 Y-5.11178
X3.68200 Y-5.11078
X3.68000 Y-5.11078
X3.68000 Y-5.10978
X3.67900 Y-5.10978
X3.67900 Y-5.10878
X3.67700 Y-5.10878
X3.67700 Y-5.10778
X3.67500 Y-5.10778
X3.67500 Y-5.10678
X3.67300 Y-5.10678
X3.67300 Y-5.10578
X3.67100 Y-5.10578
X3.67100 Y-5.10478
X3.67000 Y-5.10478
X3.67000 Y-5.10378
X3.66800 Y-5.10378
X3.66800 Y-5.10278
X3.66600 Y-5.10278
X3.66600 Y-5.10178
X3.66400 Y-5.10178
X3.66400 Y-5.10078
X3.66300 Y-5.10078
X3.66300 Y-5.09978
X3.66100 Y-5.09978
X3.66100 Y-5.09878
X3.65900 Y-5.09878
X3.65900 Y-5.09778
X3.65700 Y-5.09778
X3.65700 Y-5.09678
X3.65600 Y-5.09678
X3.65600 Y-5.09578
X3.65400 Y-5.09578
X3.65400 Y-5.09478
X3.65200 Y-5.09478
X3.65200 Y-5.09378
X3.65000 Y-5.09378
X3.65000 Y-5.09278
X3.64900 Y-5.09278
X3.64900 Y-5.09178
X3.64700 Y-5.09178
X3.64700 Y-5.09078
X3.64500 Y-5.09078
X3.64500 Y-5.08978
X3.64300 Y-5.08978
X3.64300 Y-5.08878
X3.64200 Y-5.08878
X3.64200 Y-5.08778
X3.64000 Y-5.08778
X3.64000 Y-5.08678
X3.63800 Y-5.08678
X3.63800 Y-5.08578
X3.63600 Y-5.08578
X3.63600 Y-5.08478
X3.63400 Y-5.08478
X3.63400 Y-5.08378
X3.63300 Y-5.08378
X3.63300 Y-5.08278
X3.63100 Y-5.08278
X3.63100 Y-5.08178
X3.62900 Y-5.08178
X3.62900 Y-5.08078
X3.62700 Y-5.08078
X3.62700 Y-5.07978
X3.62600 Y-5.07978
X3.62600 Y-5.07878
X3.62400 Y-5.07878
X3.62400 Y-5.07778
X3.62200 Y-5.07778
X3.62200 Y-5.07678
X3.62000 Y-5.07678
X3.62000 Y-5.07578
X3.61900 Y-5.07578
X3.61900 Y-5.07478
X3.61700 Y-5.07478
X3.61700 Y-5.07378
X3.61500 Y-5.07378
X3.61500 Y-5.07278
X3.61300 Y-5.07278
X3.61300 Y-5.07178
X3.61200 Y-5.07178
X3.61200 Y-5.07078
X3.61000 Y-5.07078
X3.61000 Y-5.06978
X3.60800 Y-5.06978
X3.60800 Y-5.06878
X3.60600 Y-5.06878
X3.60600 Y-5.06778
X3.60500 Y-5.06778
X3.60500 Y-5.06678
X3.60300 Y-5.06678
X3.60300 Y-5.06578
X3.60100 Y-5.06578
X3.60100 Y-5.06478
X3.59900 Y-5.06478
X3.59900 Y-5.06378
X3.59700 Y-5.06378
X3.59700 Y-5.06278
X3.59600 Y-5.06278
X3.59600 Y-5.06178
X3.59400 Y-5.06178
X3.59400 Y-5.06078
X3.59200 Y-5.06078
X3.59200 Y-5.05978
X3.59000 Y-5.05978
X3.59000 Y-5.05878
X3.58900 Y-5.05878
X3.58900 Y-5.05778
X3.58700 Y-5.05778
X3.58700 Y-5.05678
X3.58500 Y-5.05678
X3.58500 Y-5.05578
X3.58300 Y-5.05578
X3.58300 Y-5.05478
X3.58200 Y-5.05478
X3.58200 Y-5.05378
X3.58000 Y-5.05378
X3.58000 Y-5.05278
X3.57800 Y-5.05278
X3.57800 Y-5.05178
X3.57600 Y-5.05178
X3.57600 Y-5.05078
X3.57500 Y-5.05078
X3.57500 Y-5.04978
X3.57300 Y-5.04978
X3.57300 Y-5.04878
X3.57100 Y-5.04878
X3.57100 Y-5.04778
X3.56900 Y-5.04778
X3.56900 Y-5.04678
X3.56700 Y-5.04678
X3.56700 Y-5.04578
X3.56600 Y-5.04578
X3.56600 Y-5.04478
X3.56400 Y-5.04478
X3.56400 Y-5.04378
X3.56200 Y-5.04378
X3.56200 Y-5.04278
X3.56000 Y-5.04278
X3.56000 Y-5.04178
X3.55900 Y-5.04178
X3.55900 Y-5.04078
X3.55700 Y-5.04078
X3.55700 Y-5.03978
X3.55500 Y-5.03978
X3.55500 Y-5.03878
X3.55300 Y-5.03878
X3.55300 Y-5.03778
X3.55200 Y-5.03778
X3.55200 Y-5.03678
X3.55000 Y-5.03678
X3.55000 Y-5.03578
X3.54800 Y-5.03578
X3.54800 Y-5.03478
X3.54600 Y-5.03478
X3.54600 Y-5.03378
X3.54500 Y-5.03378
X3.54500 Y-5.03278
X3.54300 Y-5.03278
X3.54300 Y-5.03178
X3.54100 Y-5.03178
X3.54100 Y-5.03078
X3.53900 Y-5.03078
X3.53900 Y-5.02978
X3.53800 Y-5.02978
X3.53800 Y-5.02878
X3.53600 Y-5.02878
X3.53600 Y-5.02778
X3.53400 Y-5.02778
X3.53400 Y-5.02678
X3.53200 Y-5.02678
X3.53200 Y-5.02578
X3.53000 Y-5.02578
X3.53000 Y-5.02478
X3.52900 Y-5.02478
X3.52900 Y-5.02378
X3.52700 Y-5.02378
X3.52700 Y-5.02278
X3.52500 Y-5.02278
X3.52500 Y-5.02178
X3.52300 Y-5.02178
X3.52300 Y-5.02078
X3.52200 Y-5.02078
X3.52200 Y-5.01978
X3.52000 Y-5.01978
X3.52000 Y-5.01878
X3.51800 Y-5.01878
X3.51800 Y-5.01778
X3.51600 Y-5.01778
X3.51600 Y-5.01678
X3.51500 Y-5.01678
X3.51500 Y-5.01578
X3.51300 Y-5.01578
X3.51300 Y-5.01478
X3.51100 Y-5.01478
X3.51100 Y-5.01378
X3.50900 Y-5.01378
X3.50900 Y-5.01278
X3.50800 Y-5.01278
X3.50800 Y-5.01178
X3.50600 Y-5.01178
X3.50600 Y-5.01078
X3.50500 Y-5.01078
X3.50500 Y-5.00978
X3.50400 Y-5.00978
X3.50400 Y-5.00878
X3.50300 Y-5.00878
X3.50300 Y-4.99578
X3.50400 Y-4.99578
X3.50400 Y-4.99178
X3.50500 Y-4.99178
X3.50500 Y-4.98678
X3.50600 Y-4.98678
X3.50600 Y-4.98578
X3.50700 Y-4.98578
X3.50700 Y-4.98378
X3.50800 Y-4.98378
X3.50800 Y-4.98178
X3.50900 Y-4.98178
X3.50900 Y-4.98078
X3.51000 Y-4.98078
X3.51000 Y-4.97878
X3.51100 Y-4.97878
X3.51100 Y-4.97678
X3.51200 Y-4.97678
X3.51200 Y-4.97478
X3.51300 Y-4.97478
X3.51300 Y-4.97378
X3.51400 Y-4.97378
X3.51400 Y-4.97178
X3.51500 Y-4.97178
X3.51500 Y-4.96978
X3.51600 Y-4.96978
X3.51600 Y-4.96778
X3.51700 Y-4.96778
X3.51700 Y-4.96678
X3.51800 Y-4.96678
X3.51800 Y-4.96478
X3.51900 Y-4.96478
X3.51900 Y-4.96278
X3.52000 Y-4.96278
X3.52000 Y-4.96078
X3.52100 Y-4.96078
X3.52100 Y-4.95978
X3.52200 Y-4.95978
X3.52200 Y-4.95778
X3.52300 Y-4.95778
X3.52300 Y-4.95578
X3.52400 Y-4.95578
X3.52400 Y-4.95378
X3.52500 Y-4.95378
X3.52500 Y-4.95278
X3.52600 Y-4.95278
X3.52600 Y-4.95078
X3.52700 Y-4.95078
X3.52700 Y-4.94878
X3.52800 Y-4.94878
X3.52800 Y-4.94778
X3.52900 Y-4.94778
X3.52900 Y-4.94578
X3.53000 Y-4.94578
X3.53000 Y-4.94378
X3.53100 Y-4.94378
X3.53100 Y-4.94178
X3.53200 Y-4.94178
X3.53200 Y-4.94078
X3.53300 Y-4.94078
X3.53300 Y-4.93878
X3.53400 Y-4.93878
X3.53400 Y-4.93678
X3.53500 Y-4.93678
X3.53500 Y-4.93478
X3.53600 Y-4.93478
X3.53600 Y-4.93378
X3.53700 Y-4.93378
X3.53700 Y-4.93178
X3.53800 Y-4.93178
X3.53800 Y-4.92978
X3.53900 Y-4.92978
X3.53900 Y-4.92778
X3.54000 Y-4.92778
X3.54000 Y-4.92678
X3.54100 Y-4.92678
X3.54100 Y-4.92478
X3.54200 Y-4.92478
X3.54200 Y-4.92278
X3.54300 Y-4.92278
X3.54300 Y-4.92178
X3.54400 Y-4.92178
X3.54400 Y-4.91978
X3.54500 Y-4.91978
X3.54500 Y-4.91778
X3.54600 Y-4.91778
X3.54600 Y-4.91578
X3.54700 Y-4.91578
X3.54700 Y-4.91478
X3.54800 Y-4.91478
X3.54800 Y-4.91278
X3.54900 Y-4.91278
X3.54900 Y-4.91078
X3.55000 Y-4.91078
X3.55000 Y-4.90878
X3.55100 Y-4.90878
X3.55100 Y-4.90778
X3.55200 Y-4.90778
X3.55200 Y-4.90578
X3.55300 Y-4.90578
X3.55300 Y-4.90378
X3.55400 Y-4.90378
X3.55400 Y-4.90178
X3.55500 Y-4.90178
X3.55500 Y-4.90078
X3.55600 Y-4.90078
X3.55600 Y-4.89878
X3.55700 Y-4.89878
X3.55700 Y-4.89678
X3.55800 Y-4.89678
X3.55800 Y-4.89578
X3.55900 Y-4.89578
X3.55900 Y-4.89378
X3.56000 Y-4.89378
X3.56000 Y-4.89178
X3.56100 Y-4.89178
X3.56100 Y-4.88978
X3.56200 Y-4.88978
X3.56200 Y-4.88778
X3.56300 Y-4.88778
X3.56300 Y-4.88678
X3.56400 Y-4.88678
X3.56400 Y-4.88478
X3.56500 Y-4.88478
X3.56500 Y-4.88278
X3.56600 Y-4.88278
X3.56600 Y-4.88078
X3.56700 Y-4.88078
X3.56700 Y-4.87978
X3.56800 Y-4.87978
X3.56800 Y-4.87778
X3.56900 Y-4.87778
X3.56900 Y-4.87578
X3.57000 Y-4.87578
X3.57000 Y-4.87378
X3.57100 Y-4.87378
X3.57100 Y-4.87278
X3.57200 Y-4.87278
X3.57200 Y-4.87078
X3.57300 Y-4.87078
X3.57300 Y-4.86878
X3.57400 Y-4.86878
X3.57400 Y-4.86678
X3.57500 Y-4.86678
X3.57500 Y-4.86578
X3.57600 Y-4.86578
X3.57600 Y-4.86378
X3.57700 Y-4.86378
X3.57700 Y-4.86178
X3.57800 Y-4.86178
X3.57800 Y-4.85978
X3.57900 Y-4.85978
X3.57900 Y-4.85878
X3.58000 Y-4.85878
X3.58000 Y-4.85678
X3.58100 Y-4.85678
X3.58100 Y-4.85478
X3.58200 Y-4.85478
X3.58200 Y-4.85278
X3.58300 Y-4.85278
X3.58300 Y-4.85178
X3.58400 Y-4.85178
X3.58400 Y-4.84978
X3.58500 Y-4.84978
X3.58500 Y-4.84778
X3.58600 Y-4.84778
X3.58600 Y-4.84578
X3.58700 Y-4.84578
X3.58700 Y-4.84478
X3.58800 Y-4.84478
X3.58800 Y-4.84278
X3.58900 Y-4.84278
X3.58900 Y-4.84078
X3.59000 Y-4.84078
X3.59000 Y-4.83878
X3.59100 Y-4.83878
X3.59100 Y-4.83778
X3.59200 Y-4.83778
X3.59200 Y-4.83578
X3.59300 Y-4.83578
X3.59300 Y-4.83378
X3.59400 Y-4.83378
X3.59400 Y-4.83178
X3.59500 Y-4.83178
X3.59500 Y-4.83078
X3.59600 Y-4.83078
X3.59600 Y-4.82878
X3.59700 Y-4.82878
X3.59700 Y-4.82678
X3.59800 Y-4.82678
X3.59800 Y-4.82278
X3.59900 Y-4.82278
X3.59900 Y-4.81678
X3.60000 Y-4.81678
X3.60000 Y-4.81478
X3.59900 Y-4.81478
X3.59900 Y-4.81378
X3.59800 Y-4.81378
X3.59800 Y-4.81278
X3.59600 Y-4.81278
X3.59600 Y-4.81178
X3.59200 Y-4.81178
X3.59200 Y-4.81078
X3.59000 Y-4.81078
X3.59000 Y-4.80978
X3.58800 Y-4.80978
X3.58800 Y-4.80878
X3.58700 Y-4.80878
X3.58700 Y-4.80778
X3.58500 Y-4.80778
X3.58500 Y-4.80678
X3.58300 Y-4.80678
X3.58300 Y-4.80578
X3.58100 Y-4.80578
X3.58100 Y-4.80478
X3.58000 Y-4.80478
X3.58000 Y-4.80378
X3.57800 Y-4.80378
X3.57800 Y-4.80278
X3.57600 Y-4.80278
X3.57600 Y-4.80178
X3.57400 Y-4.80178
X3.57400 Y-4.80078
X3.57300 Y-4.80078
X3.57300 Y-4.79978
X3.57100 Y-4.79978
X3.57100 Y-4.79878
X3.56900 Y-4.79878
X3.56900 Y-4.79778
X3.56800 Y-4.79778
X3.56800 Y-4.79678
X3.56600 Y-4.79678
X3.56600 Y-4.79578
X3.56400 Y-4.79578
X3.56400 Y-4.79478
X3.56200 Y-4.79478
X3.56200 Y-4.79378
X3.56100 Y-4.79378
X3.56100 Y-4.79278
X3.55900 Y-4.79278
X3.55900 Y-4.79178
X3.55700 Y-4.79178
X3.55700 Y-4.79078
X3.55500 Y-4.79078
X3.55500 Y-4.78978
X3.55400 Y-4.78978
X3.55400 Y-4.78878
X3.55200 Y-4.78878
X3.55200 Y-4.78778
X3.55000 Y-4.78778
X3.55000 Y-4.78678
X3.54900 Y-4.78678
X3.54900 Y-4.78578
X3.54700 Y-4.78578
X3.54700 Y-4.78478
X3.54500 Y-4.78478
X3.54500 Y-4.78378
X3.54300 Y-4.78378
X3.54300 Y-4.78278
X3.54200 Y-4.78278
X3.54200 Y-4.78178
X3.54000 Y-4.78178
X3.54000 Y-4.78078
X3.53800 Y-4.78078
X3.53800 Y-4.77978
X3.53600 Y-4.77978
X3.53600 Y-4.77878
X3.53500 Y-4.77878
X3.53500 Y-4.77778
X3.53300 Y-4.77778
X3.53300 Y-4.77678
X3.53100 Y-4.77678
X3.53100 Y-4.77578
X3.53000 Y-4.77578
X3.53000 Y-4.77478
X3.52800 Y-4.77478
X3.52800 Y-4.77378
X3.52600 Y-4.77378
X3.52600 Y-4.77278
X3.52400 Y-4.77278
X3.52400 Y-4.77178
X3.52300 Y-4.77178
X3.52300 Y-4.77078
X3.52100 Y-4.77078
X3.52100 Y-4.76978
X3.51900 Y-4.76978
X3.51900 Y-4.76878
X3.51800 Y-4.76878
X3.51800 Y-4.76778
X3.51600 Y-4.76778
X3.51600 Y-4.76678
X3.51400 Y-4.76678
X3.51400 Y-4.76578
X3.51200 Y-4.76578
X3.51200 Y-4.76478
X3.51100 Y-4.76478
X3.51100 Y-4.76378
X3.50900 Y-4.76378
X3.50900 Y-4.76278
X3.50700 Y-4.76278
X3.50700 Y-4.76178
X3.50500 Y-4.76178
X3.50500 Y-4.76078
X3.50400 Y-4.76078
X3.50400 Y-4.75978
X3.50200 Y-4.75978
X3.50200 Y-4.75878
X3.50000 Y-4.75878
X3.50000 Y-4.75778
X3.49900 Y-4.75778
X3.49900 Y-4.75678
X3.49700 Y-4.75678
X3.49700 Y-4.75578
X3.49500 Y-4.75578
X3.49500 Y-4.75478
X3.49300 Y-4.75478
X3.49300 Y-4.75378
X3.49200 Y-4.75378
X3.49200 Y-4.75278
X3.49000 Y-4.75278
X3.49000 Y-4.75178
X3.48800 Y-4.75178
X3.48800 Y-4.75078
X3.48600 Y-4.75078
X3.48600 Y-4.74978
X3.48500 Y-4.74978
X3.48500 Y-4.74878
X3.48300 Y-4.74878
X3.48300 Y-4.74778
X3.48100 Y-4.74778
X3.48100 Y-4.74678
X3.48000 Y-4.74678
X3.48000 Y-4.74578
X3.47800 Y-4.74578
X3.47800 Y-4.74478
X3.47600 Y-4.74478
X3.47600 Y-4.74378
X3.47400 Y-4.74378
X3.47400 Y-4.74278
X3.47300 Y-4.74278
X3.47300 Y-4.74178
X3.47100 Y-4.74178
X3.47100 Y-4.74078
X3.46900 Y-4.74078
X3.46900 Y-4.73978
X3.46800 Y-4.73978
X3.46800 Y-4.73878
X3.46600 Y-4.73878
X3.46600 Y-4.73778
X3.46400 Y-4.73778
X3.46400 Y-4.73678
X3.46200 Y-4.73678
X3.46200 Y-4.73578
X3.46100 Y-4.73578
X3.46100 Y-4.73478
X3.45900 Y-4.73478
X3.45900 Y-4.73378
X3.45700 Y-4.73378
X3.45700 Y-4.73278
X3.45500 Y-4.73278
X3.45500 Y-4.73178
X3.45400 Y-4.73178
X3.45400 Y-4.73078
X3.45200 Y-4.73078
X3.45200 Y-4.72978
X3.45000 Y-4.72978
X3.45000 Y-4.72878
X3.44900 Y-4.72878
X3.44900 Y-4.72778
X3.44700 Y-4.72778
X3.44700 Y-4.72678
X3.44500 Y-4.72678
X3.44500 Y-4.72578
X3.44300 Y-4.72578
X3.44300 Y-4.72478
X3.44200 Y-4.72478
X3.44200 Y-4.72378
X3.44000 Y-4.72378
X3.44000 Y-4.72278
X3.43800 Y-4.72278
X3.43800 Y-4.72178
X3.43600 Y-4.72178
X3.43600 Y-4.72078
X3.43500 Y-4.72078
X3.43500 Y-4.71978
X3.43300 Y-4.71978
X3.43300 Y-4.71878
X3.43100 Y-4.71878
X3.43100 Y-4.71778
X3.43000 Y-4.71778
X3.43000 Y-4.71678
X3.42800 Y-4.71678
X3.42800 Y-4.71578
X3.42600 Y-4.71578
X3.42600 Y-4.71478
X3.42400 Y-4.71478
X3.42400 Y-4.71378
X3.42300 Y-4.71378
X3.42300 Y-4.71278
X3.42100 Y-4.71278
X3.42100 Y-4.71178
X3.41900 Y-4.71178
X3.41900 Y-4.71078
X3.41700 Y-4.71078
X3.41700 Y-4.70978
X3.41600 Y-4.70978
X3.41600 Y-4.70878
X3.41400 Y-4.70878
X3.41400 Y-4.70778
X3.41200 Y-4.70778
X3.41200 Y-4.70678
X3.41100 Y-4.70678
X3.41100 Y-4.70578
X3.40900 Y-4.70578
X3.40900 Y-4.70478
X3.40700 Y-4.70478
X3.40700 Y-4.70378
X3.40500 Y-4.70378
X3.40500 Y-4.70278
X3.40400 Y-4.70278
X3.40400 Y-4.70178
X3.40200 Y-4.70178
X3.40200 Y-4.70078
X3.40000 Y-4.70078
X3.40000 Y-4.69978
X3.39900 Y-4.69978
X3.39900 Y-4.69878
X3.39700 Y-4.69878
X3.39700 Y-4.69778
X3.39500 Y-4.69778
X3.39500 Y-4.69678
X3.39300 Y-4.69678
X3.39300 Y-4.69578
X3.39200 Y-4.69578
X3.39200 Y-4.69478
X3.39000 Y-4.69478
X3.39000 Y-4.69378
X3.38800 Y-4.69378
X3.38800 Y-4.69278
X3.38600 Y-4.69278
X3.38600 Y-4.69178
X3.38500 Y-4.69178
X3.38500 Y-4.69078
X3.38300 Y-4.69078
X3.38300 Y-4.68978
X3.38100 Y-4.68978
X3.38100 Y-4.68878
X3.38000 Y-4.68878
X3.38000 Y-4.68778
X3.37800 Y-4.68778
X3.37800 Y-4.68678
X3.37600 Y-4.68678
X3.37600 Y-4.68578
X3.37400 Y-4.68578
X3.37400 Y-4.68478
X3.37300 Y-4.68478
X3.37300 Y-4.68378
X3.37100 Y-4.68378
X3.37100 Y-4.68278
X3.36900 Y-4.68278
X3.36900 Y-4.68178
X3.36700 Y-4.68178
X3.36700 Y-4.68078
X3.36600 Y-4.68078
X3.36600 Y-4.67978
X3.36400 Y-4.67978
X3.36400 Y-4.67878
X3.36200 Y-4.67878
X3.36200 Y-4.67778
X3.36100 Y-4.67778
X3.36100 Y-4.67678
X3.35900 Y-4.67678
X3.35900 Y-4.67578
X3.35700 Y-4.67578
X3.35700 Y-4.67478
X3.35300 Y-4.67478
X3.35300 Y-4.67378
X3.35200 Y-4.67378
X3.35200 Y-4.67278
X3.34800 Y-4.67278
X3.34800 Y-4.67378
X3.34600 Y-4.67378
X3.34600 Y-4.67478
X3.34500 Y-4.67478
X3.34500 Y-4.67578
X3.34400 Y-4.67578
X3.34400 Y-4.67678
X3.34300 Y-4.67678
X3.34300 Y-4.67778
X3.34200 Y-4.67778
X3.34200 Y-4.67978
X3.34100 Y-4.67978
X3.34100 Y-4.68178
X3.34000 Y-4.68178
X3.34000 Y-4.68278
X3.33900 Y-4.68278
X3.33900 Y-4.68478
X3.33800 Y-4.68478
X3.33800 Y-4.68678
X3.33700 Y-4.68678
X3.33700 Y-4.68878
X3.33600 Y-4.68878
X3.33600 Y-4.68978
X3.33500 Y-4.68978
X3.33500 Y-4.69178
X3.33400 Y-4.69178
X3.33400 Y-4.69378
X3.33300 Y-4.69378
X3.33300 Y-4.69578
X3.33200 Y-4.69578
X3.33200 Y-4.69678
X3.33100 Y-4.69678
X3.33100 Y-4.69878
X3.33000 Y-4.69878
X3.33000 Y-4.70078
X3.32900 Y-4.70078
X3.32900 Y-4.70178
X3.32800 Y-4.70178
X3.32800 Y-4.70378
X3.32700 Y-4.70378
X3.32700 Y-4.70578
X3.32600 Y-4.70578
X3.32600 Y-4.70678
X3.32500 Y-4.70678
X3.32500 Y-4.70778
X3.32300 Y-4.70778
X3.32300 Y-4.70878
X3.28800 Y-4.70878
X3.28800 Y-4.70778
X3.28500 Y-4.70778
X3.28500 Y-4.70678
X3.28200 Y-4.70678
X3.28200 Y-4.70578
X3.28000 Y-4.70578
X3.28000 Y-4.70478
X3.27700 Y-4.70478
X3.27700 Y-4.70378
X3.27300 Y-4.70378
X3.27300 Y-4.70278
X3.27000 Y-4.70278
X3.27000 Y-4.70178
X3.26900 Y-4.70178
X3.26900 Y-4.69178
X3.27000 Y-4.69178
X3.27000 Y-4.68778
X3.27100 Y-4.68778
X3.27100 Y-4.68278
X3.27200 Y-4.68278
X3.27200 Y-4.68078
X3.27300 Y-4.68078
X3.27300 Y-4.67978
X3.27400 Y-4.67978
X3.27400 Y-4.67778
X3.27500 Y-4.67778
X3.27500 Y-4.67578
X3.27600 Y-4.67578
X3.27600 Y-4.67378
X3.27700 Y-4.67378
X3.27700 Y-4.67278
X3.27800 Y-4.67278
X3.27800 Y-4.67078
X3.27900 Y-4.67078
X3.27900 Y-4.66878
X3.28000 Y-4.66878
X3.28000 Y-4.66678
X3.28100 Y-4.66678
X3.28100 Y-4.66578
X3.28200 Y-4.66578
X3.28200 Y-4.66378
X3.28300 Y-4.66378
X3.28300 Y-4.66178
X3.28400 Y-4.66178
X3.28400 Y-4.65978
X3.28500 Y-4.65978
X3.28500 Y-4.65878
X3.28600 Y-4.65878
X3.28600 Y-4.65778
X3.28700 Y-4.65778
X3.28700 Y-4.65678
X3.28800 Y-4.65678
X3.28800 Y-4.65478
X3.28900 Y-4.65478
X3.28900 Y-4.65378
X3.29000 Y-4.65378
X3.29000 Y-4.65178
X3.29100 Y-4.65178
X3.29100 Y-4.64878
X3.29200 Y-4.64878
X3.29200 Y-4.64378
X3.29300 Y-4.64378
X3.29300 Y-4.63778
X3.29200 Y-4.63778
X3.29200 Y-4.63678
X3.29100 Y-4.63678
X3.29100 Y-4.63578
X3.29000 Y-4.63578
X3.29000 Y-4.63478
X3.28600 Y-4.63478
X3.28600 Y-4.63378
X3.28500 Y-4.63378
X3.28500 Y-4.63278
X3.28300 Y-4.63278
X3.28300 Y-4.63178
X3.28200 Y-4.63178
X3.28200 Y-4.63078
X3.28000 Y-4.63078
X3.28000 Y-4.62978
X3.27900 Y-4.62978
X3.27900 Y-4.62878
X3.27800 Y-4.62878
X3.27800 Y-4.62778
X3.27700 Y-4.62778
X3.27700 Y-4.62678
X3.27600 Y-4.62678
X3.27600 Y-4.62578
X3.27400 Y-4.62578
X3.27400 Y-4.62478
X3.27200 Y-4.62478
X3.27200 Y-4.62378
X3.27100 Y-4.62378
X3.27100 Y-4.62278
X3.27000 Y-4.62278
X3.27000 Y-4.62178
X3.26800 Y-4.62178
X3.26800 Y-4.62078
X3.26500 Y-4.62078
X3.26500 Y-4.61978
X3.26100 Y-4.61978
X3.26100 Y-4.61878
X3.25900 Y-4.61878
X3.25900 Y-4.61778
X3.25700 Y-4.61778
X3.25700 Y-4.61678
X3.25500 Y-4.61678
X3.25500 Y-4.61578
X3.25300 Y-4.61578
X3.25300 Y-4.61478
X3.25200 Y-4.61478
X3.25200 Y-4.61378
X3.25000 Y-4.61378
X3.25000 Y-4.61278
X3.24800 Y-4.61278
X3.24800 Y-4.61178
X3.24600 Y-4.61178
X3.24600 Y-4.61078
X3.24500 Y-4.61078
X3.24500 Y-4.60978
X3.24300 Y-4.60978
X3.24300 Y-4.60878
X3.24100 Y-4.60878
X3.24100 Y-4.60778
X3.23900 Y-4.60778
X3.23900 Y-4.60678
X3.23800 Y-4.60678
X3.23800 Y-4.60578
X3.23600 Y-4.60578
X3.23600 Y-4.60478
X3.23400 Y-4.60478
X3.23400 Y-4.60378
X3.23300 Y-4.60378
X3.23300 Y-4.60278
X3.23100 Y-4.60278
X3.23100 Y-4.60178
X3.22900 Y-4.60178
X3.22900 Y-4.60078
X3.22700 Y-4.60078
X3.22700 Y-4.59978
X3.22600 Y-4.59978
X3.22600 Y-4.59878
X3.22400 Y-4.59878
X3.22400 Y-4.59778
X3.22200 Y-4.59778
X3.22200 Y-4.59678
X3.22000 Y-4.59678
X3.22000 Y-4.59578
X3.21900 Y-4.59578
X3.21900 Y-4.59478
X3.21700 Y-4.59478
X3.21700 Y-4.59378
X3.21500 Y-4.59378
X3.21500 Y-4.59278
X3.21300 Y-4.59278
X3.21300 Y-4.59178
X3.21200 Y-4.59178
X3.21200 Y-4.59078
X3.21000 Y-4.59078
X3.21000 Y-4.58978
X3.20800 Y-4.58978
X3.20800 Y-4.58878
X3.20600 Y-4.58878
X3.20600 Y-4.58778
X3.20500 Y-4.58778
X3.20500 Y-4.58678
X3.20300 Y-4.58678
X3.20300 Y-4.58578
X3.20100 Y-4.58578
X3.20100 Y-4.58478
X3.20000 Y-4.58478
X3.20000 Y-4.58378
X3.19800 Y-4.58378
X3.19800 Y-4.58278
X3.19600 Y-4.58278
X3.19600 Y-4.58178
X3.19400 Y-4.58178
X3.19400 Y-4.58078
X3.19300 Y-4.58078
X3.19300 Y-4.57978
X3.19100 Y-4.57978
X3.19100 Y-4.57878
X3.18900 Y-4.57878
X3.18900 Y-4.57778
X3.18700 Y-4.57778
X3.18700 Y-4.57678
X3.18600 Y-4.57678
X3.18600 Y-4.57578
X3.18400 Y-4.57578
X3.18400 Y-4.57478
X3.18200 Y-4.57478
X3.18200 Y-4.57378
X3.18000 Y-4.57378
X3.18000 Y-4.57278
X3.17900 Y-4.57278
X3.17900 Y-4.57178
X3.17700 Y-4.57178
X3.17700 Y-4.57078
X3.17500 Y-4.57078
X3.17500 Y-4.56978
X3.17300 Y-4.56978
X3.17300 Y-4.56878
X3.17200 Y-4.56878
X3.17200 Y-4.56778
X3.17000 Y-4.56778
X3.17000 Y-4.56678
X3.16800 Y-4.56678
X3.16800 Y-4.56578
X3.16700 Y-4.56578
X3.16700 Y-4.56478
X3.16500 Y-4.56478
X3.16500 Y-4.56378
X3.16300 Y-4.56378
X3.16300 Y-4.56278
X3.16100 Y-4.56278
X3.16100 Y-4.56178
X3.16000 Y-4.56178
X3.16000 Y-4.56078
X3.15800 Y-4.56078
X3.15800 Y-4.55978
X3.15600 Y-4.55978
X3.15600 Y-4.55878
X3.15400 Y-4.55878
X3.15400 Y-4.55778
X3.15300 Y-4.55778
X3.15300 Y-4.55678
X3.15100 Y-4.55678
X3.15100 Y-4.55578
X3.14900 Y-4.55578
X3.14900 Y-4.55478
X3.14700 Y-4.55478
X3.14700 Y-4.55378
X3.14600 Y-4.55378
X3.14600 Y-4.55278
X3.14400 Y-4.55278
X3.14400 Y-4.55178
X3.14200 Y-4.55178
X3.14200 Y-4.55078
X3.14000 Y-4.55078
X3.14000 Y-4.54978
X3.13900 Y-4.54978
X3.13900 Y-4.54878
X3.13700 Y-4.54878
X3.13700 Y-4.54778
X3.13500 Y-4.54778
X3.13500 Y-4.54678
X3.13400 Y-4.54678
X3.13400 Y-4.54578
X3.13200 Y-4.54578
X3.13200 Y-4.54478
X3.13000 Y-4.54478
X3.13000 Y-4.54378
X3.12800 Y-4.54378
X3.12800 Y-4.54278
X3.12700 Y-4.54278
X3.12700 Y-4.54178
X3.12500 Y-4.54178
X3.12500 Y-4.54078
X3.12300 Y-4.54078
X3.12300 Y-4.53978
X3.12100 Y-4.53978
X3.12100 Y-4.53878
X3.12000 Y-4.53878
X3.12000 Y-4.53778
X3.11800 Y-4.53778
X3.11800 Y-4.53678
X3.11600 Y-4.53678
X3.11600 Y-4.53578
X3.11400 Y-4.53578
X3.11400 Y-4.53478
X3.11300 Y-4.53478
X3.11300 Y-4.53378
X3.11100 Y-4.53378
X3.11100 Y-4.53278
X3.10900 Y-4.53278
X3.10900 Y-4.53178
X3.10700 Y-4.53178
X3.10700 Y-4.53078
X3.10600 Y-4.53078
X3.10600 Y-4.52978
X3.10400 Y-4.52978
X3.10400 Y-4.52878
X3.10200 Y-4.52878
X3.10200 Y-4.52778
X3.10100 Y-4.52778
X3.10100 Y-4.52678
X3.09900 Y-4.52678
X3.09900 Y-4.52578
X3.09700 Y-4.52578
X3.09700 Y-4.52478
X3.09500 Y-4.52478
X3.09500 Y-4.52378
X3.09400 Y-4.52378
X3.09400 Y-4.52278
X3.09200 Y-4.52278
X3.09200 Y-4.52178
X3.09000 Y-4.52178
X3.09000 Y-4.52078
X3.08800 Y-4.52078
X3.08800 Y-4.51978
X3.08700 Y-4.51978
X3.08700 Y-4.51878
X3.08500 Y-4.51878
X3.08500 Y-4.51778
X3.08300 Y-4.51778
X3.08300 Y-4.51678
X3.08100 Y-4.51678
X3.08100 Y-4.51578
X3.08000 Y-4.51578
X3.08000 Y-4.51478
X3.07800 Y-4.51478
X3.07800 Y-4.51378
X3.07600 Y-4.51378
X3.07600 Y-4.51278
X3.07400 Y-4.51278
X3.07400 Y-4.51178
X3.07300 Y-4.51178
X3.07300 Y-4.51078
X3.07100 Y-4.51078
X3.07100 Y-4.50978
X3.06900 Y-4.50978
X3.06900 Y-4.50878
X3.06700 Y-4.50878
X3.06700 Y-4.50778
X3.06600 Y-4.50778
X3.06600 Y-4.50678
X3.06400 Y-4.50678
X3.06400 Y-4.50578
X3.06200 Y-4.50578
X3.06200 Y-4.50478
X3.06100 Y-4.50478
X3.06100 Y-4.50378
X3.05900 Y-4.50378
X3.05900 Y-4.50278
X3.05700 Y-4.50278
X3.05700 Y-4.50178
X3.05500 Y-4.50178
X3.05500 Y-4.50078
X3.05400 Y-4.50078
X3.05400 Y-4.49978
X3.05200 Y-4.49978
X3.05200 Y-4.49878
X3.05000 Y-4.49878
X3.05000 Y-4.49778
X3.04600 Y-4.49778
X3.04600 Y-4.49678
X3.04500 Y-4.49678
X3.04500 Y-4.49578
X3.04100 Y-4.49578
X3.04100 Y-4.49678
X3.03900 Y-4.49678
X3.03900 Y-4.49778
X3.03800 Y-4.49778
X3.03800 Y-4.49878
X3.03700 Y-4.49878
X3.03700 Y-4.49978
X3.03600 Y-4.49978
X3.03600 Y-4.50078
X3.03500 Y-4.50078
X3.03500 Y-4.50278
X3.03400 Y-4.50278
X3.03400 Y-4.50478
X3.03300 Y-4.50478
X3.03300 Y-4.50578
X3.03200 Y-4.50578
X3.03200 Y-4.50778
X3.03100 Y-4.50778
X3.03100 Y-4.50978
X3.03000 Y-4.50978
X3.03000 Y-4.51178
X3.02900 Y-4.51178
X3.02900 Y-4.51278
X3.02800 Y-4.51278
X3.02800 Y-4.51478
X3.02700 Y-4.51478
X3.02700 Y-4.51678
X3.02600 Y-4.51678
X3.02600 Y-4.51878
X3.02500 Y-4.51878
X3.02500 Y-4.51978
X3.02400 Y-4.51978
X3.02400 Y-4.52178
X3.02300 Y-4.52178
X3.02300 Y-4.52378
X3.02200 Y-4.52378
X3.02200 Y-4.52478
X3.02100 Y-4.52478
X3.02100 Y-4.52678
X3.02000 Y-4.52678
X3.02000 Y-4.52878
X3.01900 Y-4.52878
X3.01900 Y-4.52978
X3.01800 Y-4.52978
X3.01800 Y-4.53078
X3.01600 Y-4.53078
X3.01600 Y-4.53178
X2.99200 Y-4.53178
X2.99200 Y-4.53078
X2.98900 Y-4.53078
X2.98900 Y-4.52978
X2.98600 Y-4.52978
X2.98600 Y-4.52878
X2.98400 Y-4.52878
X2.98400 Y-4.52778
X2.98100 Y-4.52778
X2.98100 Y-4.52678
X2.97700 Y-4.52678
X2.97700 Y-4.52578
X2.97100 Y-4.52578
X2.97100 Y-4.52478
X2.96700 Y-4.52478
X2.96700 Y-4.52378
X2.96600 Y-4.52378
X2.96600 Y-4.52278
X2.96500 Y-4.52278
X2.96500 Y-4.51078
X2.96600 Y-4.51078
X2.96600 Y-4.50678
X2.96700 Y-4.50678
X2.96700 Y-4.50178
X2.96800 Y-4.50178
X2.96800 Y-4.49978
X2.96900 Y-4.49978
X2.96900 Y-4.49878
X2.97000 Y-4.49878
X2.97000 Y-4.49678
X2.97100 Y-4.49678
X2.97100 Y-4.49478
X2.97200 Y-4.49478
X2.97200 Y-4.49378
X2.97300 Y-4.49378
X2.97300 Y-4.49178
X2.97400 Y-4.49178
X2.97400 Y-4.48978
X2.97500 Y-4.48978
X2.97500 Y-4.48778
X2.97600 Y-4.48778
X2.97600 Y-4.48678
X2.97700 Y-4.48678
X2.97700 Y-4.48478
X2.97800 Y-4.48478
X2.97800 Y-4.48278
X2.97900 Y-4.48278
X2.97900 Y-4.48078
X2.98000 Y-4.48078
X2.98000 Y-4.47978
X2.98100 Y-4.47978
X2.98100 Y-4.47778
X2.98200 Y-4.47778
X2.98200 Y-4.47578
X2.98300 Y-4.47578
X2.98300 Y-4.47478
X2.98400 Y-4.47478
X2.98400 Y-4.47278
X2.98500 Y-4.47278
X2.98500 Y-4.46878
X2.98600 Y-4.46878
X2.98600 Y-4.45978
X2.98500 Y-4.45978
X2.98500 Y-4.45878
X2.98400 Y-4.45878
X2.98400 Y-4.45778
X2.98000 Y-4.45778
X2.98000 Y-4.45678
X2.97900 Y-4.45678
X2.97900 Y-4.45578
X2.97700 Y-4.45578
X2.97700 Y-4.45478
X2.97500 Y-4.45478
X2.97500 Y-4.45378
X2.97300 Y-4.45378
X2.97300 Y-4.45278
X2.97200 Y-4.45278
X2.97200 Y-4.45178
X2.97000 Y-4.45178
X2.97000 Y-4.45078
X2.96800 Y-4.45078
X2.96800 Y-4.44978
X2.96600 Y-4.44978
X2.96600 Y-4.44878
X2.96500 Y-4.44878
X2.96500 Y-4.44778
X2.96300 Y-4.44778
X2.96300 Y-4.44678
X2.96100 Y-4.44678
X2.96100 Y-4.44578
X2.95900 Y-4.44578
X2.95900 Y-4.44478
X2.95800 Y-4.44478
X2.95800 Y-4.44378
X2.95600 Y-4.44378
X2.95600 Y-4.44278
X2.95400 Y-4.44278
X2.95400 Y-4.44178
X2.95200 Y-4.44178
X2.95200 Y-4.44078
X2.95100 Y-4.44078
X2.95100 Y-4.43978
X2.94900 Y-4.43978
X2.94900 Y-4.43878
X2.94700 Y-4.43878
X2.94700 Y-4.43778
X2.94500 Y-4.43778
X2.94500 Y-4.43678
X2.94400 Y-4.43678
X2.94400 Y-4.43578
X2.94200 Y-4.43578
X2.94200 Y-4.43478
X2.94000 Y-4.43478
X2.94000 Y-4.43378
X2.93900 Y-4.43378
X2.93900 Y-4.43278
X2.93700 Y-4.43278
X2.93700 Y-4.43178
X2.93500 Y-4.43178
X2.93500 Y-4.43078
X2.93300 Y-4.43078
X2.93300 Y-4.42978
X2.93200 Y-4.42978
X2.93200 Y-4.42878
X2.93000 Y-4.42878
X2.93000 Y-4.42778
X2.92800 Y-4.42778
X2.92800 Y-4.42678
X2.92600 Y-4.42678
X2.92600 Y-4.42578
X2.92500 Y-4.42578
X2.92500 Y-4.42478
X2.92300 Y-4.42478
X2.92300 Y-4.42378
X2.92200 Y-4.42378
X2.92200 Y-4.42278
X2.92000 Y-4.42278
X2.92000 Y-4.42178
X2.91900 Y-4.42178
X2.91900 Y-4.42078
X2.91600 Y-4.42078
X2.91600 Y-4.41978
X2.91400 Y-4.41978
X2.91400 Y-4.41878
X2.91200 Y-4.41878
X2.91200 Y-4.41778
X2.91100 Y-4.41778
X2.91100 Y-4.41678
X2.90900 Y-4.41678
X2.90900 Y-4.41578
X2.90700 Y-4.41578
X2.90700 Y-4.41478
X2.90500 Y-4.41478
X2.90500 Y-4.41378
X2.90400 Y-4.41378
X2.90400 Y-4.41278
X2.90200 Y-4.41278
X2.90200 Y-4.41178
X2.90000 Y-4.41178
X2.90000 Y-4.41078
X2.89800 Y-4.41078
X2.89800 Y-4.40978
X2.89700 Y-4.40978
X2.89700 Y-4.40878
X2.89500 Y-4.40878
X2.89500 Y-4.40778
X2.89300 Y-4.40778
X2.89300 Y-4.40678
X2.89100 Y-4.40678
X2.89100 Y-4.40578
X2.89000 Y-4.40578
X2.89000 Y-4.40478
X2.88800 Y-4.40478
X2.88800 Y-4.40378
X2.88600 Y-4.40378
X2.88600 Y-4.40278
X2.88400 Y-4.40278
X2.88400 Y-4.40178
X2.88300 Y-4.40178
X2.88300 Y-4.40078
X2.88100 Y-4.40078
X2.88100 Y-4.39978
X2.87900 Y-4.39978
X2.87900 Y-4.39878
X2.87700 Y-4.39878
X2.87700 Y-4.39778
X2.87600 Y-4.39778
X2.87600 Y-4.39678
X2.87400 Y-4.39678
X2.87400 Y-4.39578
X2.87200 Y-4.39578
X2.87200 Y-4.39478
X2.87000 Y-4.39478
X2.87000 Y-4.39378
X2.86900 Y-4.39378
X2.86900 Y-4.39278
X2.86700 Y-4.39278
X2.86700 Y-4.39178
X2.86500 Y-4.39178
X2.86500 Y-4.39078
X2.86300 Y-4.39078
X2.86300 Y-4.38978
X2.86200 Y-4.38978
X2.86200 Y-4.38878
X2.86000 Y-4.38878
X2.86000 Y-4.38778
X2.85800 Y-4.38778
X2.85800 Y-4.38678
X2.85700 Y-4.38678
X2.85700 Y-4.38578
X2.85500 Y-4.38578
X2.85500 Y-4.38478
X2.85300 Y-4.38478
X2.85300 Y-4.38378
X2.85100 Y-4.38378
X2.85100 Y-4.38278
X2.85000 Y-4.38278
X2.85000 Y-4.38178
X2.84800 Y-4.38178
X2.84800 Y-4.38078
X2.84600 Y-4.38078
X2.84600 Y-4.37978
X2.84400 Y-4.37978
X2.84400 Y-4.37878
X2.84300 Y-4.37878
X2.84300 Y-4.37778
X2.84100 Y-4.37778
X2.84100 Y-4.37678
X2.83900 Y-4.37678
X2.83900 Y-4.37578
X2.83700 Y-4.37578
X2.83700 Y-4.37478
X2.83600 Y-4.37478
X2.83600 Y-4.37378
X2.83400 Y-4.37378
X2.83400 Y-4.37278
X2.83200 Y-4.37278
X2.83200 Y-4.37178
X2.83000 Y-4.37178
X2.83000 Y-4.37078
X2.82900 Y-4.37078
X2.82900 Y-4.36978
X2.82700 Y-4.36978
X2.82700 Y-4.36878
X2.82500 Y-4.36878
X2.82500 Y-4.36778
X2.82300 Y-4.36778
X2.82300 Y-4.36678
X2.82200 Y-4.36678
X2.82200 Y-4.36578
X2.82000 Y-4.36578
X2.82000 Y-4.36478
X2.81800 Y-4.36478
X2.81800 Y-4.36378
X2.81600 Y-4.36378
X2.81600 Y-4.36278
X2.81500 Y-4.36278
X2.81500 Y-4.36178
X2.81300 Y-4.36178
X2.81300 Y-4.36078
X2.81100 Y-4.36078
X2.81100 Y-4.35978
X2.80900 Y-4.35978
X2.80900 Y-4.35878
X2.80800 Y-4.35878
X2.80800 Y-4.35778
X2.80600 Y-4.35778
X2.80600 Y-4.35678
X2.80400 Y-4.35678
X2.80400 Y-4.35578
X2.80200 Y-4.35578
X2.80200 Y-4.35478
X2.80100 Y-4.35478
X2.80100 Y-4.35378
X2.79900 Y-4.35378
X2.79900 Y-4.35278
X2.79700 Y-4.35278
X2.79700 Y-4.35178
X2.79500 Y-4.35178
X2.79500 Y-4.35078
X2.79400 Y-4.35078
X2.79400 Y-4.34978
X2.79200 Y-4.34978
X2.79200 Y-4.34878
X2.79000 Y-4.34878
X2.79000 Y-4.34778
X2.78800 Y-4.34778
X2.78800 Y-4.34678
X2.78700 Y-4.34678
X2.78700 Y-4.34578
X2.78500 Y-4.34578
X2.78500 Y-4.34478
X2.78300 Y-4.34478
X2.78300 Y-4.34378
X2.78100 Y-4.34378
X2.78100 Y-4.34278
X2.78000 Y-4.34278
X2.78000 Y-4.34178
X2.77800 Y-4.34178
X2.77800 Y-4.34078
X2.77600 Y-4.34078
X2.77600 Y-4.33978
X2.77500 Y-4.33978
X2.77500 Y-4.33878
X2.77300 Y-4.33878
X2.77300 Y-4.33778
X2.77100 Y-4.33778
X2.77100 Y-4.33678
X2.76900 Y-4.33678
X2.76900 Y-4.33578
X2.76800 Y-4.33578
X2.76800 Y-4.33478
X2.76600 Y-4.33478
X2.76600 Y-4.33378
X2.76400 Y-4.33378
X2.76400 Y-4.33278
X2.76200 Y-4.33278
X2.76200 Y-4.33178
X2.76100 Y-4.33178
X2.76100 Y-4.33078
X2.75900 Y-4.33078
X2.75900 Y-4.32978
X2.75700 Y-4.32978
X2.75700 Y-4.32878
X2.75500 Y-4.32878
X2.75500 Y-4.32778
X2.75400 Y-4.32778
X2.75400 Y-4.32678
X2.75200 Y-4.32678
X2.75200 Y-4.32578
X2.75000 Y-4.32578
X2.75000 Y-4.32478
X2.74800 Y-4.32478
X2.74800 Y-4.32378
X2.74700 Y-4.32378
X2.74700 Y-4.32278
X2.74500 Y-4.32278
X2.74500 Y-4.32178
X2.74300 Y-4.32178
X2.74300 Y-4.32078
X2.73900 Y-4.32078
X2.73900 Y-4.31978
X2.73800 Y-4.31978
X2.73800 Y-4.31878
X2.73400 Y-4.31878
X2.73400 Y-4.31978
X2.73200 Y-4.31978
X2.73200 Y-4.32078
X2.73100 Y-4.32078
X2.73100 Y-4.32178
X2.73000 Y-4.32178
X2.73000 Y-4.32278
X2.72900 Y-4.32278
X2.72900 Y-4.32378
X2.72800 Y-4.32378
X2.72800 Y-4.32578
X2.72700 Y-4.32578
X2.72700 Y-4.32778
X2.72600 Y-4.32778
X2.72600 Y-4.32978
X2.72500 Y-4.32978
X2.72500 Y-4.33078
X2.72400 Y-4.33078
X2.72400 Y-4.33278
X2.72300 Y-4.33278
X2.72300 Y-4.33478
X2.72200 Y-4.33478
X2.72200 Y-4.33578
X2.72100 Y-4.33578
X2.72100 Y-4.33778
X2.72000 Y-4.33778
X2.72000 Y-4.33978
X2.71900 Y-4.33978
X2.71900 Y-4.34178
X2.71800 Y-4.34178
X2.71800 Y-4.34278
X2.71700 Y-4.34278
X2.71700 Y-4.34478
X2.71600 Y-4.34478
X2.71600 Y-4.34678
X2.71500 Y-4.34678
X2.71500 Y-4.34778
X2.71300 Y-4.34778
X2.71300 Y-4.34878
X2.71100 Y-4.34878
X2.71100 Y-4.34978
X2.70300 Y-4.34978
X2.70300 Y-4.34878
X2.70000 Y-4.34878
X2.70000 Y-4.34778
X2.69700 Y-4.34778
X2.69700 Y-4.34678
X2.69500 Y-4.34678
X2.69500 Y-4.34578
X2.69400 Y-4.34578
X2.69400 Y-4.34478
X2.69300 Y-4.34478
X2.69300 Y-4.34378
X2.69200 Y-4.34378
X2.69200 Y-4.34278
X2.69100 Y-4.34278
X2.69100 Y-4.34178
X2.69000 Y-4.34178
X2.69000 Y-4.34078
X2.68900 Y-4.34078
X2.68900 Y-4.33978
X2.68800 Y-4.33978
X2.68800 Y-4.33878
X2.68600 Y-4.33878
X2.68600 Y-4.33778
X2.68400 Y-4.33778
X2.68400 Y-4.33678
X2.67900 Y-4.33678
X2.67900 Y-4.33578
X2.67300 Y-4.33578
X2.67300 Y-4.33478
X2.65800 Y-4.33478
X2.65800 Y-4.33378
X2.65500 Y-4.33378
X2.65500 Y-4.33278
X2.65200 Y-4.33278
X2.65200 Y-4.33178
X2.65000 Y-4.33178
X2.65000 Y-4.33078
X2.64700 Y-4.33078
X2.64700 Y-4.32978
X2.64200 Y-4.32978
X2.64200 Y-4.32878
X2.63200 Y-4.32878
X2.63200 Y-4.32978
X2.62800 Y-4.32978
X2.62800 Y-4.33078
X2.62500 Y-4.33078
X2.62500 Y-4.33178
X2.62400 Y-4.33178
X2.62400 Y-4.33278
X2.62300 Y-4.33278
X2.62300 Y-4.33378
X2.62200 Y-4.33378
X2.62200 Y-4.33478
X2.62100 Y-4.33478
X2.62100 Y-4.33578
X2.62000 Y-4.33578
X2.62000 Y-4.33678
X2.61900 Y-4.33678
X2.61900 Y-4.33978
X2.61800 Y-4.33978
X2.61800 Y-4.34178
X2.61700 Y-4.34178
X2.61700 Y-4.34878
X2.61600 Y-4.34878
X2.61600 Y-4.35078
X2.61700 Y-4.35078
X2.61700 Y-4.35678
X2.61800 Y-4.35678
X2.61800 Y-4.35878
X2.61900 Y-4.35878
X2.61900 Y-4.36178
X2.62000 Y-4.36178
X2.62000 Y-4.36278
X2.62100 Y-4.36278
X2.62100 Y-4.36378
X2.62200 Y-4.36378
X2.62200 Y-4.36478
X2.62300 Y-4.36478
X2.62300 Y-4.36578
X2.62400 Y-4.36578
X2.62400 Y-4.36678
X2.62500 Y-4.36678
X2.62500 Y-4.36778
X2.62800 Y-4.36778
X2.62800 Y-4.36878
X2.63100 Y-4.36878
X2.63100 Y-4.36978
X2.64200 Y-4.36978
X2.64200 Y-4.36878
X2.64700 Y-4.36878
X2.64700 Y-4.36778
X2.65000 Y-4.36778
X2.65000 Y-4.36678
X2.65200 Y-4.36678
X2.65200 Y-4.36578
X2.65500 Y-4.36578
X2.65500 Y-4.36478
X2.65800 Y-4.36478
X2.65800 Y-4.36378
X2.66600 Y-4.36378
X2.66600 Y-4.36478
X2.66900 Y-4.36478
X2.66900 Y-4.36578
X2.67200 Y-4.36578
X2.67200 Y-4.36678
X2.67400 Y-4.36678
X2.67400 Y-4.36778
X2.67600 Y-4.36778
X2.67600 Y-4.36878
X2.67700 Y-4.36878
X2.67700 Y-4.36978
X2.67800 Y-4.36978
X2.67800 Y-4.37078
X2.67900 Y-4.37078
X2.67900 Y-4.37178
X2.68000 Y-4.37178
X2.68000 Y-4.37278
X2.68100 Y-4.37278
X2.68100 Y-4.37378
X2.68200 Y-4.37378
X2.68200 Y-4.37478
X2.68300 Y-4.37478
X2.68300 Y-4.37578
X2.68400 Y-4.37578
X2.68400 Y-4.37678
X2.68500 Y-4.37678
X2.68500 Y-4.37878
X2.68600 Y-4.37878
X2.68600 Y-4.38078
X2.68700 Y-4.38078
X2.68700 Y-4.38378
X2.68800 Y-4.38378
X2.68800 Y-4.39278
X2.68700 Y-4.39278
X2.68700 Y-4.39678
X2.68600 Y-4.39678
X2.68600 Y-4.39878
X2.68500 Y-4.39878
X2.68500 Y-4.40078
X2.68400 Y-4.40078
X2.68400 Y-4.40178
X2.68300 Y-4.40178
X2.68300 Y-4.40378
X2.68200 Y-4.40378
X2.68200 Y-4.40578
X2.68100 Y-4.40578
X2.68100 Y-4.40778
X2.68000 Y-4.40778
X2.68000 Y-4.40878
X2.67900 Y-4.40878
X2.67900 Y-4.41078
X2.67800 Y-4.41078
X2.67800 Y-4.41278
X2.67700 Y-4.41278
X2.67700 Y-4.41478
X2.67600 Y-4.41478
X2.67600 Y-4.41578
X2.67500 Y-4.41578
X2.67500 Y-4.41778
X2.67400 Y-4.41778
X2.67400 Y-4.41978
X2.67300 Y-4.41978
X2.67300 Y-4.42078
X2.67200 Y-4.42078
X2.67200 Y-4.42278
X2.67100 Y-4.42278
X2.67100 Y-4.42478
X2.67000 Y-4.42478
X2.67000 Y-4.42678
X2.66900 Y-4.42678
X2.66900 Y-4.42778
X2.66800 Y-4.42778
X2.66800 Y-4.42978
X2.66700 Y-4.42978
X2.66700 Y-4.43178
X2.66600 Y-4.43178
X2.66600 Y-4.43378
X2.66500 Y-4.43378
X2.66500 Y-4.43478
X2.66400 Y-4.43478
X2.66400 Y-4.43678
X2.66300 Y-4.43678
X2.66300 Y-4.43878
X2.66200 Y-4.43878
X2.66200 Y-4.44078
X2.66100 Y-4.44078
X2.66100 Y-4.44178
X2.66000 Y-4.44178
X2.66000 Y-4.44378
X2.65900 Y-4.44378
X2.65900 Y-4.44578
X2.65800 Y-4.44578
X2.65800 Y-4.44678
X2.65700 Y-4.44678
X2.65700 Y-4.44878
X2.65600 Y-4.44878
X2.65600 Y-4.45078
X2.65500 Y-4.45078
X2.65500 Y-4.45278
X2.65400 Y-4.45278
X2.65400 Y-4.45378
X2.65300 Y-4.45378
X2.65300 Y-4.45578
X2.65200 Y-4.45578
X2.65200 Y-4.45778
X2.65100 Y-4.45778
X2.65100 Y-4.45978
X2.65000 Y-4.45978
X2.65000 Y-4.46078
X2.64900 Y-4.46078
X2.64900 Y-4.46278
X2.64800 Y-4.46278
X2.64800 Y-4.46478
X2.64700 Y-4.46478
X2.64700 Y-4.46678
X2.64600 Y-4.46678
X2.64600 Y-4.46778
X2.64500 Y-4.46778
X2.64500 Y-4.46978
X2.64400 Y-4.46978
X2.64400 Y-4.47178
X2.64300 Y-4.47178
X2.64300 Y-4.47378
X2.64200 Y-4.47378
X2.64200 Y-4.47478
X2.64100 Y-4.47478
X2.64100 Y-4.47678
X2.64000 Y-4.47678
X2.64000 Y-4.47878
X2.63900 Y-4.47878
X2.63900 Y-4.47978
X2.63800 Y-4.47978
X2.63800 Y-4.48178
X2.63700 Y-4.48178
X2.63700 Y-4.48378
X2.63600 Y-4.48378
X2.63600 Y-4.48578
X2.63500 Y-4.48578
X2.63500 Y-4.48678
X2.63400 Y-4.48678
X2.63400 Y-4.48878
X2.63300 Y-4.48878
X2.63300 Y-4.49178
X2.63200 Y-4.49178
X2.63200 Y-4.49678
X2.63100 Y-4.49678
X2.63100 Y-4.49978
X2.63000 Y-4.49978
X2.63000 Y-4.50078
X2.60500 Y-4.50078
X2.60500 Y-4.49978
X2.60300 Y-4.49978
X2.60300 Y-4.49878
X2.60100 Y-4.49878
X2.60100 Y-4.49778
X2.60000 Y-4.49778
X2.60000 Y-4.49678
X2.59800 Y-4.49678
X2.59800 Y-4.49578
X2.59600 Y-4.49578
X2.59600 Y-4.49478
X2.59400 Y-4.49478
X2.59400 Y-4.49378
X2.59200 Y-4.49378
X2.59200 Y-4.49278
X2.59100 Y-4.49278
X2.59100 Y-4.49178
X2.58900 Y-4.49178
X2.58900 Y-4.49078
X2.58700 Y-4.49078
X2.58700 Y-4.48978
X2.58500 Y-4.48978
X2.58500 Y-4.48878
X2.58400 Y-4.48878
X2.58400 Y-4.48778
X2.58200 Y-4.48778
X2.58200 Y-4.48678
X2.58000 Y-4.48678
X2.58000 Y-4.48578
X2.57800 Y-4.48578
X2.57800 Y-4.48478
X2.57700 Y-4.48478
X2.57700 Y-4.48378
X2.57500 Y-4.48378
X2.57500 Y-4.48278
X2.57300 Y-4.48278
X2.57300 Y-4.48178
X2.57100 Y-4.48178
X2.57100 Y-4.48078
X2.57000 Y-4.48078
X2.57000 Y-4.47978
X2.56800 Y-4.47978
X2.56800 Y-4.47878
X2.56600 Y-4.47878
X2.56600 Y-4.47778
X2.56400 Y-4.47778
X2.56400 Y-4.47678
X2.56300 Y-4.47678
X2.56300 Y-4.47578
X2.56100 Y-4.47578
X2.56100 Y-4.47478
X2.55900 Y-4.47478
X2.55900 Y-4.47378
X2.55700 Y-4.47378
X2.55700 Y-4.47278
X2.55600 Y-4.47278
X2.55600 Y-4.47178
X2.55400 Y-4.47178
X2.55400 Y-4.47078
X2.55200 Y-4.47078
X2.55200 Y-4.46978
X2.55000 Y-4.46978
X2.55000 Y-4.46878
X2.54900 Y-4.46878
X2.54900 Y-4.46778
X2.54700 Y-4.46778
X2.54700 Y-4.46678
X2.54500 Y-4.46678
X2.54500 Y-4.46578
X2.54300 Y-4.46578
X2.54300 Y-4.46478
X2.54200 Y-4.46478
X2.54200 Y-4.46378
X2.54000 Y-4.46378
X2.54000 Y-4.46278
X2.53800 Y-4.46278
X2.53800 Y-4.46178
X2.53600 Y-4.46178
X2.53600 Y-4.46078
X2.53500 Y-4.46078
X2.53500 Y-4.45978
X2.53300 Y-4.45978
X2.53300 Y-4.45878
X2.53100 Y-4.45878
X2.53100 Y-4.45778
X2.52900 Y-4.45778
X2.52900 Y-4.45678
X2.52700 Y-4.45678
X2.52700 Y-4.45578
X2.52600 Y-4.45578
X2.52600 Y-4.45478
X2.52400 Y-4.45478
X2.52400 Y-4.45378
X2.52200 Y-4.45378
X2.52200 Y-4.45278
X2.52000 Y-4.45278
X2.52000 Y-4.45178
X2.51900 Y-4.45178
X2.51900 Y-4.45078
